(/Applications/pcbgcode.repo/pcb-gcode.ulp)
(Copyright 2005 - 2012 by John Johnson)
(See readme.txt for licensing terms.)
(This file generated from the board:)
(.../MFOS_VCO_Ramp_Core/mfos_vco.brd)
(Current profile is .../pcbgcode.repo/profiles/mach.pp  )
(This file generated 12/13/15 10:56 PM)
(Settings from pcb-machine.h)
(spindle on time = 0.0000)
(spindle speed = 20000.0000)
(tool change at 0.0000  0.0000  3.0000  )
(feed rate xy = F0     )
(feed rate z  = F20    )
(Z Axis Settings)
(  High     Up        Down     Drill)
(1.0000  	0.0500  	-0.0040 	-0.0730 )
(Settings from pcb-defaults.h)
(isolate min = 0.0010)
(isolate max = 0.0150)
(isolate step = 0.0015)
(Generated bottom outlines, bottom drill, )
(Unit of measure: inch)
( Tool|       Size       |  Min Sub |  Max Sub |   Count )
( T01 | 0.800mm 0.0315in | 0.0000in | 0.0000in |       0 )
( T02 | 0.813mm 0.0320in | 0.0000in | 0.0000in |       0 )
( T03 | 0.900mm 0.0354in | 0.0000in | 0.0000in |       0 )
( T04 | 0.991mm 0.0390in | 0.0000in | 0.0000in |       0 )
( T05 | 1.016mm 0.0400in | 0.0000in | 0.0000in |       0 )
( T06 | 1.200mm 0.0472in | 0.0000in | 0.0000in |       0 )
( T07 | 1.300mm 0.0512in | 0.0000in | 0.0000in |       0 )
(Inch Mode)
G20
(Absolute Coordinates)
G90
S20000
G00 Z1.0000  
G00 X0.0000  Y0.0000  
M03
G04 P0.000000
M05
G00 Z3.0000  
M06 T01  ; 0.0315  
G01 Z0.0000  F20    
M06 
G00 Z0.0500  
M03
G04 P0.000000
G82 X-0.6800 Y1.5500  Z-0.0730 F20    R0.0500  P0.010000
G82 X-0.6800 Y1.9300  
G82 X-1.7200 Y1.6600  
G82 X-1.7200 Y1.2200  
G82 X-2.9100 Y1.1400  
G82 X-2.9100 Y0.8500  
M05
G00 Z3.0000  
G00 X0.0000  Y0.0000  
M06 T02  ; 0.0320  
G01 Z0.0000  F20    
M06 
G00 Z0.0500  
M03
G04 P0.000000
G82 X-0.8400 Y1.4500  Z-0.0730 F20    R0.0500  P0.010000
G82 X-0.8400 Y1.5500  
G82 X-0.8400 Y1.7500  
G82 X-0.8400 Y1.8500  
G82 X-0.9300 Y2.1150  
G82 X-1.1650 Y2.0100  
G82 X-1.1650 Y1.9100  
G82 X-1.1650 Y1.8100  
G82 X-1.2000 Y1.7400  
G82 X-1.3200 Y1.6650  
G82 X-1.3200 Y1.5650  
G82 X-1.3200 Y1.4650  
G82 X-1.3200 Y1.3650  
G82 X-1.2000 Y1.5400  
G82 X-1.3200 Y1.8450  
G82 X-1.4200 Y1.8450  
G82 X-1.5200 Y1.8450  
G82 X-1.6000 Y1.8700  
G82 X-1.7100 Y1.7850  
G82 X-1.6200 Y1.6650  
G82 X-1.6200 Y1.5650  
G82 X-1.6200 Y1.4650  
G82 X-1.6200 Y1.3650  
G82 X-1.8250 Y1.4600  
G82 X-1.8250 Y1.6600  
G82 X-1.8300 Y1.9700  
G82 X-1.8300 Y2.0700  
G82 X-1.8300 Y2.1700  
G82 X-1.8300 Y2.2700  
G82 X-1.7100 Y2.2850  
G82 X-1.6000 Y2.1700  
G82 X-1.3650 Y2.2900  
G82 X-1.2750 Y2.4500  
G82 X-1.2750 Y2.5500  
G82 X-1.2750 Y2.6500  
G82 X-1.2750 Y2.7500  
G82 X-1.2750 Y2.8500  
G82 X-1.5500 Y2.8700  
G82 X-1.5500 Y2.7400  
G82 X-1.8500 Y2.7400  
G82 X-1.8500 Y2.8700  
G82 X-2.0000 Y2.8500  
G82 X-2.0000 Y2.7300  
G82 X-2.0100 Y2.4600  
G82 X-2.1600 Y2.4600  
G82 X-2.1300 Y2.2700  
G82 X-2.1300 Y2.1700  
G82 X-2.1300 Y2.0700  
G82 X-2.1300 Y1.9700  
G82 X-2.1400 Y1.7100  
G82 X-2.1400 Y1.6100  
G82 X-2.1400 Y1.5100  
G82 X-2.1400 Y1.4100  
G82 X-2.1300 Y1.2700  
G82 X-2.2550 Y1.1750  
G82 X-2.4300 Y1.2700  
G82 X-2.4550 Y1.1750  
G82 X-2.6300 Y1.2150  
G82 X-2.7500 Y1.2700  
G82 X-2.7500 Y1.4700  
G82 X-2.6300 Y1.5150  
G82 X-2.5250 Y1.5800  
G82 X-2.4400 Y1.6100  
G82 X-2.4400 Y1.7100  
G82 X-2.4400 Y1.5100  
G82 X-2.4400 Y1.4100  
G82 X-2.8250 Y1.5800  
G82 X-2.9200 Y1.5750  
G82 X-3.0200 Y1.4350  
G82 X-3.1150 Y1.6300  
G82 X-3.0200 Y1.7350  
G82 X-2.9200 Y1.8750  
G82 X-2.8550 Y2.0000  
G82 X-2.9650 Y2.1050  
G82 X-2.8500 Y2.1550  
G82 X-2.9650 Y2.3050  
G82 X-3.1350 Y2.2950  
G82 X-3.1250 Y2.4350  
G82 X-3.3650 Y2.4050  
G82 X-3.4350 Y2.2950  
G82 X-3.5600 Y2.2050  
G82 X-3.5600 Y2.1000  
G82 X-3.6350 Y2.0250  
G82 X-3.5000 Y1.9400  
G82 X-3.5000 Y1.7900  
G82 X-3.4000 Y1.7900  
G82 X-3.3000 Y1.7900  
G82 X-3.3000 Y1.9400  
G82 X-3.2600 Y2.1000  
G82 X-3.2600 Y2.2050  
G82 X-3.0550 Y2.0000  
G82 X-2.6500 Y2.1550  
G82 X-2.6150 Y2.2450  
G82 X-2.7500 Y2.3750  
G82 X-2.8250 Y2.4350  
G82 X-2.4600 Y2.4600  
G82 X-2.4500 Y2.3750  
G82 X-2.3150 Y2.2450  
G82 X-2.3900 Y2.0300  
G82 X-2.5900 Y2.0300  
G82 X-2.3000 Y2.7300  
G82 X-2.3000 Y2.8500  
G82 X-1.7100 Y2.4600  
G82 X-1.3650 Y1.9900  
G82 X-1.2300 Y2.1150  
G82 X-0.9750 Y2.4500  
G82 X-0.9750 Y2.5500  
G82 X-0.9750 Y2.6500  
G82 X-0.9750 Y2.7500  
G82 X-0.9750 Y2.8500  
G82 X-3.3000 Y1.4600  
G82 X-3.3000 Y1.3600  
G82 X-3.3000 Y1.2600  
G82 X-3.3000 Y1.1600  
G82 X-3.6000 Y1.1600  
G82 X-3.6000 Y1.2600  
G82 X-3.6000 Y1.3600  
G82 X-3.6000 Y1.4600  
G82 X-3.5150 Y1.6300  
G82 X-3.6350 Y1.7250  
G82 X-3.6650 Y2.4050  
M05
G00 Z3.0000  
G00 X0.0000  Y0.0000  
M06 T03  ; 0.0354  
G01 Z0.0000  F20    
M06 
G00 Z0.0500  
M03
G04 P0.000000
G82 X-1.4950 Y2.0100  Z-0.0730 F20    R0.0500  P0.010000
G82 X-1.4950 Y2.3100  
G82 X-2.7050 Y2.0400  
G82 X-2.7050 Y1.7400  
M05
G00 Z3.0000  
G00 X0.0000  Y0.0000  
M06 T04  ; 0.0390  
G01 Z0.0000  F20    
M06 
G00 Z0.0500  
M03
G04 P0.000000
G82 X-2.3100 Y1.9250  Z-0.0730 F20    R0.0500  P0.010000
G82 X-2.4100 Y1.9250  
G82 X-2.3600 Y1.8250  
M05
G00 Z3.0000  
G00 X0.0000  Y0.0000  
M06 T05  ; 0.0400  
G01 Z0.0000  F20    
M06 
G00 Z0.0500  
M03
G04 P0.000000
G82 X-0.3500 Y1.4500  Z-0.0730 F20    R0.0500  P0.010000
G82 X-0.4500 Y1.4500  
G82 X-0.4500 Y1.5500  
G82 X-0.4500 Y1.6500  
G82 X-0.3500 Y1.6500  
G82 X-0.3500 Y1.5500  
G82 X-0.3500 Y1.7500  
G82 X-0.4500 Y1.7500  
G82 X-0.4500 Y1.8500  
G82 X-0.4500 Y1.9500  
G82 X-0.4500 Y2.0500  
G82 X-0.3500 Y2.0500  
G82 X-0.3500 Y1.9500  
G82 X-0.3500 Y1.8500  
G82 X-0.3500 Y2.1500  
G82 X-0.4500 Y2.1500  
G82 X-0.8750 Y2.4250  
G82 X-0.8750 Y2.5500  
G82 X-1.5000 Y1.1200  
G82 X-1.6000 Y1.1100  
G82 X-1.7000 Y1.1200  
G82 X-1.8000 Y1.1100  
G82 X-1.9000 Y1.1200  
M05
G00 Z3.0000  
G00 X0.0000  Y0.0000  
M06 T06  ; 0.0472  
G01 Z0.0000  F20    
M06 
G00 Z0.0500  
M03
G04 P0.000000
G82 X-1.0531 Y3.0500  Z-0.0730 F20    R0.0500  P0.010000
G82 X-1.2500 Y3.0500  
G82 X-1.4469 Y3.0500  
G82 X-1.8031 Y3.0500  
G82 X-2.0000 Y3.0500  
G82 X-2.1969 Y3.0500  
M05
G00 Z3.0000  
G00 X0.0000  Y0.0000  
M06 T07  ; 0.0512  
G01 Z0.0000  F20    
M06 
G00 Z0.0500  
M03
G04 P0.000000
G82 X-0.3920 Y2.5850  Z-0.0730 F20    R0.0500  P0.010000
G82 X-0.3921 Y2.6185  
G82 X-0.3920 Y2.6520  
G82 X-0.5640 Y2.5320  
G82 X-0.5969 Y2.5319  
G82 X-0.6300 Y2.5320  
G82 X-0.6300 Y3.0520  
G82 X-0.5969 Y3.0516  
G82 X-0.5630 Y3.0520  
G82 X-2.4420 Y2.6520  
G82 X-2.4421 Y2.6185  
G82 X-2.4420 Y2.5850  
G82 X-2.6140 Y2.5320  
G82 X-2.6469 Y2.5319  
G82 X-2.6800 Y2.5320  
G82 X-2.9420 Y2.5850  
G82 X-2.9421 Y2.6185  
G82 X-2.9420 Y2.6520  
G82 X-3.1140 Y2.5320  
G82 X-3.1469 Y2.5319  
G82 X-3.1800 Y2.5320  
G82 X-3.4420 Y2.5850  
G82 X-3.4421 Y2.6185  
G82 X-3.4420 Y2.6520  
G82 X-3.6140 Y2.5320  
G82 X-3.6469 Y2.5319  
G82 X-3.6800 Y2.5320  
G82 X-3.6800 Y3.0520  
G82 X-3.6469 Y3.0516  
G82 X-3.6130 Y3.0520  
G82 X-3.1800 Y3.0520  
G82 X-3.1469 Y3.0516  
G82 X-3.1130 Y3.0520  
G82 X-2.6800 Y3.0520  
G82 X-2.6469 Y3.0516  
G82 X-2.6130 Y3.0520  
T01 
G00 Z1.0000  
M05
M02
