(/Applications/pcbgcode.repo/pcb-gcode.ulp)
(Copyright 2005 - 2012 by John Johnson)
(See readme.txt for licensing terms.)
(This file generated from the board:)
(.../eurorack/MFOS_VCO/mfos_vco.brd)
(Current profile is .../pcbgcode.repo/profiles/mach.pp  )
(This file generated 9/15/15 11:28 PM)
(Settings from pcb-machine.h)
(spindle on time = 0.0000)
(spindle speed = 20000.0000)
(tool change at 0.0000  0.0000  3.0000  )
(feed rate xy = F0     )
(feed rate z  = F20    )
(Z Axis Settings)
(  High     Up        Down     Drill)
(1.0000  	0.0500  	-0.0040 	-0.0730 )
(Settings from pcb-defaults.h)
(isolate min = 0.0010)
(isolate max = 0.0150)
(isolate step = 0.0015)
(Generated bottom outlines, bottom drill, )
(Unit of measure: inch)
( Tool|       Size       |  Min Sub |  Max Sub |   Count )
( T01 | 0.800mm 0.0315in | 0.0000in | 0.0000in |       0 )
( T02 | 0.813mm 0.0320in | 0.0000in | 0.0000in |       0 )
( T03 | 0.900mm 0.0354in | 0.0000in | 0.0000in |       0 )
( T04 | 0.991mm 0.0390in | 0.0000in | 0.0000in |       0 )
( T05 | 1.000mm 0.0394in | 0.0000in | 0.0000in |       0 )
( T06 | 1.016mm 0.0400in | 0.0000in | 0.0000in |       0 )
( T07 | 1.200mm 0.0472in | 0.0000in | 0.0000in |       0 )
( T08 | 1.300mm 0.0512in | 0.0000in | 0.0000in |       0 )
(Inch Mode)
G20
(Absolute Coordinates)
G90
S20000
G00 Z1.0000  
G00 X0.0000  Y0.0000  
M03
G04 P0.000000
M05
G00 Z3.0000  
M06 T01  ; 0.0315  
G01 Z0.0000  F20    
M06 
G00 Z0.0500  
M03
G04 P0.000000
G82 X-0.8650 Y1.3600  Z-0.0730 F20    R0.0500  P0.010000
G82 X-1.1750 Y1.3250  
G82 X-1.4300 Y1.2550  
G82 X-1.7100 Y1.3700  
G82 X-1.9750 Y0.9250  
G82 X-2.2000 Y0.9500  
G82 X-2.3550 Y1.1100  
G82 X-2.4350 Y1.2550  
G82 X-2.3500 Y1.3600  
G82 X-2.5250 Y1.4000  
G82 X-2.5250 Y1.7500  
G82 X-2.4250 Y1.8250  
G82 X-2.9000 Y0.9500  
G82 X-1.4150 Y1.8550  
M05
G00 Z3.0000  
G00 X0.0000  Y0.0000  
M06 T02  ; 0.0320  
G01 Z0.0000  F20    
M06 
G00 Z0.0500  
M03
G04 P0.000000
G82 X-0.5250 Y0.7250  Z-0.0730 F20    R0.0500  P0.010000
G82 X-0.5250 Y0.8500  
G82 X-0.5250 Y0.9750  
G82 X-0.8250 Y0.9750  
G82 X-0.8250 Y0.8500  
G82 X-0.9000 Y0.7750  
G82 X-0.8250 Y0.7250  
G82 X-0.7500 Y0.5750  
G82 X-0.9550 Y0.5750  
G82 X-1.1500 Y0.5750  
G82 X-1.1000 Y0.7750  
G82 X-1.3250 Y0.7950  
G82 X-1.5000 Y0.9250  
G82 X-1.4500 Y1.0000  
G82 X-1.5500 Y1.0000  
G82 X-1.6750 Y0.9500  
G82 X-1.7250 Y1.0250  
G82 X-1.7750 Y0.9500  
G82 X-1.7750 Y1.2000  
G82 X-1.6650 Y1.1800  
G82 X-1.6250 Y1.3250  
G82 X-1.3500 Y1.4250  
G82 X-1.2500 Y1.4250  
G82 X-1.1500 Y1.4250  
G82 X-1.0500 Y1.4250  
G82 X-1.0250 Y1.2000  
G82 X-0.9250 Y1.2000  
G82 X-1.0000 Y1.0250  
G82 X-1.1000 Y1.0250  
G82 X-1.2000 Y1.0250  
G82 X-1.3250 Y1.0950  
G82 X-1.3650 Y1.1800  
G82 X-1.6250 Y1.6250  
G82 X-1.6750 Y1.8250  
G82 X-1.9000 Y1.8500  
G82 X-1.9250 Y1.7250  
G82 X-2.0250 Y1.7250  
G82 X-2.1250 Y1.7250  
G82 X-2.2250 Y1.7250  
G82 X-2.3250 Y1.7250  
G82 X-2.2000 Y1.8500  
G82 X-2.1750 Y1.9500  
G82 X-2.1600 Y2.0500  
G82 X-2.0300 Y2.1750  
G82 X-2.3300 Y2.1750  
G82 X-2.4600 Y2.0500  
G82 X-2.3750 Y1.9500  
G82 X-2.6350 Y1.7050  
G82 X-2.8750 Y1.7250  
G82 X-2.9000 Y1.8250  
G82 X-2.9000 Y1.9850  
G82 X-3.2000 Y1.9850  
G82 X-3.2000 Y1.8250  
G82 X-3.2000 Y1.7250  
G82 X-3.3000 Y1.7250  
G82 X-3.4000 Y1.7250  
G82 X-3.5250 Y1.6500  
G82 X-3.5250 Y1.4500  
G82 X-3.4000 Y1.4250  
G82 X-3.3000 Y1.4250  
G82 X-3.2000 Y1.4250  
G82 X-3.1000 Y1.4250  
G82 X-3.1000 Y1.3000  
G82 X-3.0500 Y1.1000  
G82 X-2.9750 Y0.8750  
G82 X-2.9750 Y0.7500  
G82 X-2.6750 Y0.7500  
G82 X-2.6750 Y0.8750  
G82 X-2.6250 Y1.1000  
G82 X-2.7500 Y1.1000  
G82 X-2.8000 Y1.3000  
G82 X-2.8750 Y1.4250  
G82 X-2.6350 Y1.4050  
G82 X-2.6250 Y1.3000  
G82 X-2.3600 Y1.2450  
G82 X-2.3250 Y1.4250  
G82 X-2.2250 Y1.4250  
G82 X-2.1250 Y1.4250  
G82 X-2.0250 Y1.4250  
G82 X-1.9250 Y1.4250  
G82 X-2.0600 Y1.2450  
G82 X-1.9750 Y1.2000  
G82 X-1.8750 Y0.5750  
G82 X-1.6750 Y0.5750  
G82 X-1.4750 Y0.5750  
G82 X-1.4750 Y0.2750  
G82 X-1.6750 Y0.2750  
G82 X-1.8750 Y0.2750  
G82 X-1.1500 Y0.2750  
G82 X-0.9550 Y0.2750  
G82 X-0.7500 Y0.2750  
G82 X-0.7000 Y1.3750  
G82 X-0.7000 Y1.4750  
G82 X-0.7000 Y1.6500  
G82 X-0.7000 Y1.7500  
G82 X-1.0500 Y1.7250  
G82 X-1.1500 Y1.7250  
G82 X-1.2500 Y1.7250  
G82 X-1.3500 Y1.7250  
G82 X-1.3250 Y1.8500  
G82 X-1.3750 Y1.9750  
G82 X-1.4500 Y2.0500  
G82 X-1.4500 Y2.2500  
G82 X-1.3250 Y2.2500  
G82 X-1.2250 Y2.2500  
G82 X-1.1250 Y2.2500  
G82 X-1.0500 Y2.0750  
G82 X-1.0750 Y1.9750  
G82 X-1.1250 Y1.8500  
G82 X-1.2500 Y2.0750  
G82 X-1.6750 Y2.1250  
G82 X-3.1000 Y1.7250  
G82 X-3.6500 Y1.8750  
G82 X-3.8000 Y1.6500  
G82 X-3.8000 Y1.3500  
G82 X-3.6500 Y1.3750  
G82 X-3.6000 Y1.1750  
G82 X-3.5000 Y1.1750  
G82 X-3.4000 Y1.1750  
M05
G00 Z3.0000  
G00 X0.0000  Y0.0000  
M06 T03  ; 0.0354  
G01 Z0.0000  F20    
M06 
G00 Z0.0500  
M03
G04 P0.000000
G82 X-1.9250 Y2.3000  Z-0.0730 F20    R0.0500  P0.010000
G82 X-2.2250 Y2.3000  
M05
G00 Z3.0000  
G00 X0.0000  Y0.0000  
M06 T04  ; 0.0390  
G01 Z0.0000  F20    
M06 
G00 Z0.0500  
M03
G04 P0.000000
G82 X-2.0400 Y1.0700  Z-0.0730 F20    R0.0500  P0.010000
G82 X-2.1400 Y1.0200  
G82 X-2.1400 Y1.1200  
M05
G00 Z3.0000  
G00 X0.0000  Y0.0000  
M06 T05  ; 0.0394  
G01 Z0.0000  F20    
M06 
G00 Z0.0500  
M03
G04 P0.000000
G82 X-1.5250 Y1.3050  Z-0.0730 F20    R0.0500  P0.010000
G82 X-1.5250 Y1.7050  
M05
G00 Z3.0000  
G00 X0.0000  Y0.0000  
M06 T06  ; 0.0400  
G01 Z0.0000  F20    
M06 
G00 Z0.0500  
M03
G04 P0.000000
G82 X-0.2750 Y1.3250  Z-0.0730 F20    R0.0500  P0.010000
G82 X-0.3750 Y1.3250  
G82 X-0.3750 Y1.4250  
G82 X-0.3750 Y1.5250  
G82 X-0.2750 Y1.5250  
G82 X-0.2750 Y1.4250  
G82 X-0.2750 Y1.6250  
G82 X-0.3750 Y1.6250  
G82 X-0.3750 Y1.7250  
G82 X-0.3750 Y1.8250  
G82 X-0.2750 Y1.8250  
G82 X-0.2750 Y1.7250  
G82 X-0.2750 Y1.9250  
G82 X-0.2750 Y2.0250  
G82 X-0.3750 Y2.0250  
G82 X-0.3750 Y1.9250  
G82 X-0.3750 Y0.9750  
G82 X-0.3750 Y0.8250  
M05
G00 Z3.0000  
G00 X0.0000  Y0.0000  
M06 T07  ; 0.0472  
G01 Z0.0000  F20    
M06 
G00 Z0.0500  
M03
G04 P0.000000
G82 X-0.7531 Y0.1300  Z-0.0730 F20    R0.0500  P0.010000
G82 X-0.9500 Y0.1300  
G82 X-1.1469 Y0.1300  
G82 X-1.4781 Y0.1300  
G82 X-1.6750 Y0.1300  
G82 X-1.8719 Y0.1300  
M05
G00 Z3.0000  
G00 X0.0000  Y0.0000  
M06 T08  ; 0.0512  
G01 Z0.0000  F20    
M06 
G00 Z0.0500  
M03
G04 P0.000000
G82 X-0.2700 Y0.0659  Z-0.0730 F20    R0.0500  P0.010000
G82 X-0.3031 Y0.0663  
G82 X-0.3370 Y0.0659  
G82 X-0.5080 Y0.4659  
G82 X-0.5079 Y0.4994  
G82 X-0.5080 Y0.5329  
G82 X-0.3360 Y0.5859  
G82 X-0.3031 Y0.5860  
G82 X-0.2700 Y0.5859  
G82 X-2.2950 Y0.5930  
G82 X-2.3281 Y0.5931  
G82 X-2.3610 Y0.5930  
G82 X-2.5330 Y0.5400  
G82 X-2.5329 Y0.5065  
G82 X-2.5330 Y0.4730  
G82 X-2.7950 Y0.5930  
G82 X-2.8281 Y0.5931  
G82 X-2.8610 Y0.5930  
G82 X-3.0330 Y0.5400  
G82 X-3.0329 Y0.5065  
G82 X-3.0330 Y0.4730  
G82 X-3.2950 Y0.5930  
G82 X-3.3281 Y0.5931  
G82 X-3.3610 Y0.5930  
G82 X-3.5330 Y0.5400  
G82 X-3.5329 Y0.5065  
G82 X-3.5330 Y0.4730  
G82 X-3.3620 Y0.0730  
G82 X-3.3281 Y0.0734  
G82 X-3.2950 Y0.0730  
G82 X-2.8620 Y0.0730  
G82 X-2.8281 Y0.0734  
G82 X-2.7950 Y0.0730  
G82 X-2.3620 Y0.0730  
G82 X-2.3281 Y0.0734  
G82 X-2.2950 Y0.0730  
T01 
G00 Z1.0000  
M05
M02
