(/Applications/pcbgcode.repo/pcb-gcode.ulp)
(Copyright 2005 - 2012 by John Johnson)
(See readme.txt for licensing terms.)
(This file generated from the board:)
(.../eurorack/MFOS_VCO/mfos_vco.brd)
(Current profile is .../pcbgcode.repo/profiles/mach.pp  )
(This file generated 9/11/15 12:49 AM)
(Settings from pcb-machine.h)
(spindle on time = 0.0000)
(spindle speed = 20000.0000)
(tool change at 0.0000  0.0000  3.0000  )
(feed rate xy = F0     )
(feed rate z  = F20    )
(Z Axis Settings)
(  High     Up        Down     Drill)
(1.0000  	0.0500  	-0.0040 	-0.0730 )
(Settings from pcb-defaults.h)
(isolate min = 0.0010)
(isolate max = 0.0150)
(isolate step = 0.0015)
(Generated bottom outlines, bottom drill, )
(Unit of measure: inch)
( Tool|       Size       |  Min Sub |  Max Sub |   Count )
( T01 | 0.800mm 0.0315in | 0.0000in | 0.0000in |       0 )
( T02 | 0.813mm 0.0320in | 0.0000in | 0.0000in |       0 )
( T03 | 0.900mm 0.0354in | 0.0000in | 0.0000in |       0 )
( T04 | 0.991mm 0.0390in | 0.0000in | 0.0000in |       0 )
( T05 | 1.016mm 0.0400in | 0.0000in | 0.0000in |       0 )
( T06 | 1.200mm 0.0472in | 0.0000in | 0.0000in |       0 )
(Inch Mode)
G20
(Absolute Coordinates)
G90
S20000
G00 Z1.0000  
G00 X0.0000  Y0.0000  
M03
G04 P0.000000
M05
G00 Z3.0000  
M06 T01  ; 0.0315  
G01 Z0.0000  F20    
M06 
G00 Z0.0500  
M03
G04 P0.000000
G82 X-0.3920 Y2.5950  Z-0.0730 F20    R0.0500  P0.010000
G82 X-0.3921 Y2.6185  
G82 X-0.3920 Y2.6420  
G82 X-0.5740 Y2.5320  
G82 X-0.5969 Y2.5319  
G82 X-0.6200 Y2.5320  
G82 X-0.6200 Y3.0520  
G82 X-0.5969 Y3.0516  
G82 X-0.5730 Y3.0520  
G82 X-1.6350 Y2.1250  
G82 X-1.6750 Y1.8050  
G82 X-1.9600 Y1.8300  
G82 X-1.9800 Y1.7400  
G82 X-2.2250 Y1.9450  
G82 X-2.1200 Y2.1000  
G82 X-2.4420 Y2.5950  
G82 X-2.4421 Y2.6185  
G82 X-2.4420 Y2.6420  
G82 X-2.6240 Y2.5320  
G82 X-2.6469 Y2.5319  
G82 X-2.6700 Y2.5320  
G82 X-2.9420 Y2.5950  
G82 X-2.9421 Y2.6185  
G82 X-2.9420 Y2.6420  
G82 X-3.1240 Y2.5320  
G82 X-3.1469 Y2.5319  
G82 X-3.1700 Y2.5320  
G82 X-3.4420 Y2.5950  
G82 X-3.4421 Y2.6185  
G82 X-3.4420 Y2.6420  
G82 X-3.6240 Y2.5320  
G82 X-3.6469 Y2.5319  
G82 X-3.6700 Y2.5320  
G82 X-3.6700 Y3.0520  
G82 X-3.6469 Y3.0516  
G82 X-3.6230 Y3.0520  
G82 X-3.1700 Y3.0520  
G82 X-3.1469 Y3.0516  
G82 X-3.1230 Y3.0520  
G82 X-2.6700 Y3.0520  
G82 X-2.6469 Y3.0516  
G82 X-2.6230 Y3.0520  
G82 X-2.1500 Y2.7000  
G82 X-2.0000 Y2.7000  
G82 X-2.9000 Y2.2250  
G82 X-3.2750 Y1.9000  
M05
G00 Z3.0000  
G00 X0.0000  Y0.0000  
M06 T02  ; 0.0320  
G01 Z0.0000  F20    
M06 
G00 Z0.0500  
M03
G04 P0.000000
G82 X-0.8000 Y1.4500  Z-0.0730 F20    R0.0500  P0.010000
G82 X-0.8000 Y1.5500  
G82 X-0.8000 Y1.7500  
G82 X-0.8000 Y1.8500  
G82 X-1.1000 Y1.8000  
G82 X-1.1000 Y2.0000  
G82 X-1.2450 Y2.0500  
G82 X-1.2450 Y1.9500  
G82 X-1.3800 Y1.8650  
G82 X-1.4800 Y1.8650  
G82 X-1.5800 Y1.8650  
G82 X-1.6000 Y1.7150  
G82 X-1.6000 Y1.6150  
G82 X-1.6000 Y1.5150  
G82 X-1.6000 Y1.4150  
G82 X-1.8450 Y1.5600  
G82 X-1.7500 Y1.7000  
G82 X-1.8450 Y1.7600  
G82 X-1.9250 Y1.9500  
G82 X-1.9750 Y2.0250  
G82 X-2.0250 Y1.9500  
G82 X-2.0250 Y2.1250  
G82 X-1.9750 Y2.2000  
G82 X-1.9250 Y2.1250  
G82 X-1.9500 Y2.3000  
G82 X-1.7650 Y2.2900  
G82 X-1.6650 Y2.2900  
G82 X-1.4250 Y2.3000  
G82 X-1.2500 Y2.2750  
G82 X-1.2450 Y2.1500  
G82 X-1.4250 Y2.0000  
G82 X-1.3000 Y1.7150  
G82 X-1.3000 Y1.6150  
G82 X-1.3000 Y1.5150  
G82 X-1.3000 Y1.4150  
G82 X-1.7500 Y2.0000  
G82 X-2.1000 Y1.6750  
G82 X-2.2000 Y1.6500  
G82 X-2.2000 Y1.5500  
G82 X-2.2000 Y1.4500  
G82 X-2.1000 Y1.3750  
G82 X-2.2000 Y1.3000  
G82 X-2.5000 Y1.3000  
G82 X-2.4750 Y1.1750  
G82 X-2.6750 Y1.1750  
G82 X-2.6500 Y1.3750  
G82 X-2.7500 Y1.3750  
G82 X-2.8500 Y1.4500  
G82 X-2.8500 Y1.6500  
G82 X-2.9500 Y1.6250  
G82 X-3.0750 Y1.5100  
G82 X-3.2500 Y1.3500  
G82 X-3.2500 Y1.2500  
G82 X-3.2500 Y1.1500  
G82 X-3.2500 Y1.0500  
G82 X-3.5500 Y1.0500  
G82 X-3.5500 Y1.1500  
G82 X-3.5500 Y1.2500  
G82 X-3.5500 Y1.3500  
G82 X-3.5750 Y1.5100  
G82 X-3.6250 Y1.6250  
G82 X-3.5000 Y1.6800  
G82 X-3.4000 Y1.6800  
G82 X-3.3000 Y1.6800  
G82 X-3.3000 Y1.8300  
G82 X-3.2700 Y2.0000  
G82 X-3.2700 Y2.1250  
G82 X-3.3950 Y2.2550  
G82 X-3.4750 Y2.3750  
G82 X-3.5700 Y2.1250  
G82 X-3.5700 Y2.0000  
G82 X-3.6250 Y1.9250  
G82 X-3.5000 Y1.8300  
G82 X-2.9500 Y1.9250  
G82 X-2.8500 Y1.9250  
G82 X-2.8500 Y2.1250  
G82 X-2.8000 Y2.2250  
G82 X-2.7500 Y2.3750  
G82 X-2.8250 Y2.4250  
G82 X-3.0250 Y2.3250  
G82 X-3.0950 Y2.2550  
G82 X-3.0250 Y2.1250  
G82 X-3.1250 Y2.4250  
G82 X-2.6000 Y2.2250  
G82 X-2.4750 Y2.2250  
G82 X-2.4500 Y2.3750  
G82 X-2.3500 Y2.5000  
G82 X-2.0500 Y2.5000  
G82 X-1.9500 Y2.6000  
G82 X-1.8500 Y2.7500  
G82 X-1.8500 Y2.8500  
G82 X-2.0000 Y2.8500  
G82 X-2.3000 Y2.8500  
G82 X-2.1750 Y2.2250  
G82 X-2.3500 Y2.1000  
G82 X-2.6500 Y2.1000  
G82 X-2.5000 Y1.7500  
G82 X-2.5000 Y1.6500  
G82 X-2.5000 Y1.5500  
G82 X-2.5000 Y1.4500  
G82 X-2.6500 Y1.6750  
G82 X-2.7500 Y1.6750  
G82 X-2.2000 Y1.7500  
G82 X-1.4500 Y2.6000  
G82 X-1.5500 Y2.7500  
G82 X-1.5500 Y2.8500  
G82 X-1.4500 Y2.9000  
G82 X-1.2750 Y2.8500  
G82 X-1.2750 Y2.7500  
G82 X-1.2750 Y2.6500  
G82 X-1.2750 Y2.5500  
G82 X-1.2750 Y2.4500  
G82 X-0.9750 Y2.4500  
G82 X-0.9750 Y2.5500  
G82 X-0.9750 Y2.6500  
G82 X-0.9750 Y2.7500  
G82 X-0.9750 Y2.8500  
G82 X-0.9500 Y2.2750  
G82 X-3.7750 Y2.3750  
M05
G00 Z3.0000  
G00 X0.0000  Y0.0000  
M06 T03  ; 0.0354  
G01 Z0.0000  F20    
M06 
G00 Z0.0500  
M03
G04 P0.000000
G82 X-1.5450 Y1.9900  Z-0.0730 F20    R0.0500  P0.010000
G82 X-1.5450 Y2.2900  
G82 X-2.7250 Y2.1000  
G82 X-2.7250 Y1.8000  
M05
G00 Z3.0000  
G00 X0.0000  Y0.0000  
M06 T04  ; 0.0390  
G01 Z0.0000  F20    
M06 
G00 Z0.0500  
M03
G04 P0.000000
G82 X-2.3250 Y1.9500  Z-0.0730 F20    R0.0500  P0.010000
G82 X-2.4250 Y1.9000  
G82 X-2.4250 Y2.0000  
M05
G00 Z3.0000  
G00 X0.0000  Y0.0000  
M06 T05  ; 0.0400  
G01 Z0.0000  F20    
M06 
G00 Z0.0500  
M03
G04 P0.000000
G82 X-0.3500 Y1.4500  Z-0.0730 F20    R0.0500  P0.010000
G82 X-0.4500 Y1.4500  
G82 X-0.4500 Y1.5500  
G82 X-0.4500 Y1.6500  
G82 X-0.3500 Y1.6500  
G82 X-0.3500 Y1.5500  
G82 X-0.3500 Y1.7500  
G82 X-0.4500 Y1.7500  
G82 X-0.4500 Y1.8500  
G82 X-0.4500 Y1.9500  
G82 X-0.4500 Y2.0500  
G82 X-0.3500 Y2.0500  
G82 X-0.3500 Y1.9500  
G82 X-0.3500 Y1.8500  
G82 X-0.3500 Y2.1500  
G82 X-0.4500 Y2.1500  
G82 X-0.8750 Y2.4250  
G82 X-0.8750 Y2.5500  
M05
G00 Z3.0000  
G00 X0.0000  Y0.0000  
M06 T06  ; 0.0472  
G01 Z0.0000  F20    
M06 
G00 Z0.0500  
M03
G04 P0.000000
G82 X-1.0531 Y3.0500  Z-0.0730 F20    R0.0500  P0.010000
G82 X-1.2500 Y3.0500  
G82 X-1.4469 Y3.0500  
G82 X-1.8031 Y3.0500  
G82 X-2.0000 Y3.0500  
G82 X-2.1969 Y3.0500  
T01 
G00 Z1.0000  
M05
M02
