(/Applications/pcbgcode.repo/pcb-gcode.ulp)
(Copyright 2005 - 2012 by John Johnson)
(See readme.txt for licensing terms.)
(This file generated from the board:)
(.../eurorack/MFOS_VCO/mfos_vco.brd)
(Current profile is .../pcbgcode.repo/profiles/mach.pp  )
(This file generated 9/11/15 12:48 AM)
(Settings from pcb-machine.h)
(spindle on time = 0.0000)
(  Tool Size)
(0.0100  )
(spindle speed = 30000.0000)
(tool change at 0.0000  0.0000  3.0000  )
(feed rate xy = F20    )
(feed rate z  = F10    )
(Z Axis Settings)
(  High     Up        Down     Drill)
(1.0000  	0.0500  	-0.0040 	-0.0730 )
(Settings from pcb-defaults.h)
(isolate min = 0.0010)
(isolate max = 0.0150)
(isolate step = 0.0015)
(Generated bottom outlines, bottom drill, )
(Unit of measure: inch)
(Inch Mode)
G20
(Absolute Coordinates)
G90
S30000
G00 Z1.0000  
G00 X0.0000  Y0.0000  
M03
G04 P0.000000
G00 Z0.0500  
G00 X-0.0856 Y1.5889  
G01 Z-0.0040 F10    
G01 X-0.2356 Y1.4389  F20    
G01 X-0.2389 Y1.4356  
G01 X-0.2431 Y1.4332  
G01 X-0.2476 Y1.4320  
G01 X-0.3072 Y1.4320  
G01 X-0.3322 Y1.4070  
G01 X-0.3678 Y1.4070  
G01 X-0.3928 Y1.4320  
G01 X-0.4072 Y1.4320  
G01 X-0.4322 Y1.4070  
G01 X-0.4678 Y1.4070  
G01 X-0.4928 Y1.4320  
G01 X-0.7650 Y1.4320  
G01 X-0.7845 Y1.4125  
G01 X-0.8155 Y1.4125  
G01 X-0.8310 Y1.4280  
G01 X-1.1955 Y1.3824  
G01 X-1.1979 Y1.3821  
G01 X-1.2001 Y1.3818  
G01 X-1.2002 Y1.3819  
G01 X-1.2003 Y1.3818  
G01 X-1.2026 Y1.3822  
G01 X-1.2048 Y1.3825  
G01 X-1.2765 Y1.3933  
G01 X-1.2796 Y1.3901  
G01 X-1.2820 Y1.3885  
G01 X-1.2820 Y1.3226  
G01 X-1.2832 Y1.3181  
G01 X-1.2856 Y1.3139  
G01 X-1.2889 Y1.3106  
G01 X-1.2931 Y1.3082  
G01 X-1.2976 Y1.3070  
G01 X-1.8169 Y1.3070  
G01 X-2.1053 Y0.9794  
G01 X-2.1056 Y0.9789  
G01 X-2.1069 Y0.9777  
G01 X-2.1081 Y0.9763  
G01 X-2.1085 Y0.9760  
G01 X-2.1089 Y0.9756  
G01 X-2.1105 Y0.9747  
G01 X-2.1120 Y0.9737  
G01 X-2.1126 Y0.9735  
G01 X-2.1131 Y0.9732  
G01 X-2.1148 Y0.9728  
G01 X-2.1165 Y0.9722  
G01 X-2.1171 Y0.9721  
G01 X-2.1176 Y0.9720  
G01 X-2.1194 Y0.9720  
G01 X-2.1212 Y0.9719  
G01 X-2.1218 Y0.9720  
G01 X-3.3377 Y0.9720  
G01 X-3.3400 Y0.9720  
G01 X-3.3424 Y0.9720  
G01 X-3.3447 Y0.9726  
G01 X-3.3469 Y0.9732  
G01 X-3.3490 Y0.9744  
G01 X-3.3511 Y0.9756  
G01 X-3.3527 Y0.9773  
G01 X-3.3544 Y0.9789  
G01 X-3.3556 Y0.9810  
G01 X-3.3568 Y0.9831  
G01 X-3.4356 Y1.1210  
G01 X-3.4368 Y1.1231  
G01 X-3.4374 Y1.1254  
G01 X-3.4380 Y1.1276  
G01 X-3.4380 Y1.1300  
G01 X-3.4380 Y1.2525  
G01 X-3.5175 Y1.3320  
G01 X-3.5235 Y1.3320  
G01 X-3.5251 Y1.3296  
G01 X-3.5296 Y1.3251  
G01 X-3.5348 Y1.3216  
G01 X-3.5407 Y1.3192  
G01 X-3.5468 Y1.3180  
G01 X-3.5532 Y1.3180  
G01 X-3.5593 Y1.3192  
G01 X-3.5652 Y1.3216  
G01 X-3.5704 Y1.3251  
G01 X-3.5749 Y1.3296  
G01 X-3.5784 Y1.3348  
G01 X-3.5808 Y1.3407  
G01 X-3.5820 Y1.3468  
G01 X-3.5820 Y1.3532  
G01 X-3.5808 Y1.3593  
G01 X-3.5784 Y1.3652  
G01 X-3.5749 Y1.3704  
G01 X-3.5704 Y1.3749  
G01 X-3.5652 Y1.3784  
G01 X-3.5593 Y1.3808  
G01 X-3.5532 Y1.3820  
G01 X-3.5468 Y1.3820  
G01 X-3.5407 Y1.3808  
G01 X-3.5348 Y1.3784  
G01 X-3.5296 Y1.3749  
G01 X-3.5251 Y1.3704  
G01 X-3.5235 Y1.3680  
G01 X-3.5076 Y1.3680  
G01 X-3.5031 Y1.3668  
G01 X-3.4989 Y1.3644  
G01 X-3.4089 Y1.2744  
G01 X-3.4056 Y1.2711  
G01 X-3.4032 Y1.2669  
G01 X-3.4020 Y1.2624  
G01 X-3.4020 Y1.1348  
G01 X-3.3296 Y1.0080  
G01 X-2.1281 Y1.0080  
G01 X-1.8520 Y1.3215  
G01 X-2.0305 Y1.4420  
G01 X-2.1482 Y1.4420  
G01 X-2.1705 Y1.4375  
G01 X-2.1716 Y1.4348  
G01 X-2.1751 Y1.4296  
G01 X-2.1796 Y1.4251  
G01 X-2.1848 Y1.4216  
G01 X-2.1907 Y1.4192  
G01 X-2.1968 Y1.4180  
G01 X-2.2032 Y1.4180  
G01 X-2.2093 Y1.4192  
G01 X-2.2152 Y1.4216  
G01 X-2.2204 Y1.4251  
G01 X-2.2249 Y1.4296  
G01 X-2.2284 Y1.4348  
G01 X-2.2308 Y1.4407  
G01 X-2.2320 Y1.4468  
G01 X-2.2320 Y1.4532  
G01 X-2.2308 Y1.4593  
G01 X-2.2284 Y1.4652  
G01 X-2.2249 Y1.4704  
G01 X-2.2204 Y1.4749  
G01 X-2.2152 Y1.4784  
G01 X-2.2093 Y1.4808  
G01 X-2.2032 Y1.4820  
G01 X-2.1968 Y1.4820  
G01 X-2.1907 Y1.4808  
G01 X-2.1848 Y1.4784  
G01 X-2.1796 Y1.4749  
G01 X-2.1776 Y1.4728  
G01 X-2.1541 Y1.4775  
G01 X-2.1524 Y1.4780  
G01 X-2.1518 Y1.4780  
G01 X-2.1512 Y1.4781  
G01 X-2.1494 Y1.4780  
G01 X-2.0267 Y1.4780  
G01 X-2.0261 Y1.4781  
G01 X-2.0244 Y1.4780  
G01 X-2.0226 Y1.4780  
G01 X-2.0220 Y1.4778  
G01 X-2.0214 Y1.4778  
G01 X-2.0197 Y1.4772  
G01 X-2.0181 Y1.4768  
G01 X-2.0175 Y1.4765  
G01 X-2.0169 Y1.4762  
G01 X-2.0155 Y1.4753  
G01 X-2.0139 Y1.4744  
G01 X-2.0135 Y1.4740  
G01 X-1.8195 Y1.3430  
G01 X-1.3180 Y1.3430  
G01 X-1.3180 Y1.3885  
G01 X-1.3204 Y1.3901  
G01 X-1.3249 Y1.3946  
G01 X-1.3284 Y1.3998  
G01 X-1.3308 Y1.4057  
G01 X-1.3320 Y1.4118  
G01 X-1.3320 Y1.4182  
G01 X-1.3308 Y1.4243  
G01 X-1.3284 Y1.4302  
G01 X-1.3249 Y1.4354  
G01 X-1.3204 Y1.4399  
G01 X-1.3152 Y1.4434  
G01 X-1.3093 Y1.4458  
G01 X-1.3032 Y1.4470  
G01 X-1.2968 Y1.4470  
G01 X-1.2907 Y1.4458  
G01 X-1.2848 Y1.4434  
G01 X-1.2796 Y1.4399  
G01 X-1.2751 Y1.4354  
G01 X-1.2716 Y1.4302  
G01 X-1.2711 Y1.4289  
G01 X-1.1998 Y1.4182  
G01 X-0.8375 Y1.4635  
G01 X-0.8375 Y1.4655  
G01 X-0.8155 Y1.4875  
G01 X-0.7845 Y1.4875  
G01 X-0.7650 Y1.4680  
G01 X-0.4928 Y1.4680  
G01 X-0.4678 Y1.4930  
G01 X-0.4322 Y1.4930  
G01 X-0.4072 Y1.4680  
G01 X-0.3928 Y1.4680  
G01 X-0.3678 Y1.4930  
G01 X-0.3322 Y1.4930  
G01 X-0.3072 Y1.4680  
G01 X-0.2575 Y1.4680  
G01 X-0.1180 Y1.6075  
G01 X-0.1180 Y2.6437  
G01 X-0.5087 Y3.1320  
G01 X-1.5675 Y3.1320  
G01 X-1.6820 Y3.0175  
G01 X-1.6820 Y2.6180  
G01 X-1.4773 Y2.6180  
G01 X-1.4633 Y2.6320  
G01 X-1.4367 Y2.6320  
G01 X-1.4180 Y2.6133  
G01 X-1.4180 Y2.5867  
G01 X-1.4367 Y2.5680  
G01 X-1.4633 Y2.5680  
G01 X-1.4773 Y2.5820  
G01 X-1.8274 Y2.5820  
G01 X-1.8319 Y2.5832  
G01 X-1.8361 Y2.5856  
G01 X-1.9703 Y2.7198  
G01 X-1.9703 Y2.6751  
G01 X-1.9712 Y2.6729  
G01 X-1.9729 Y2.6712  
G01 X-1.9751 Y2.6703  
G01 X-2.0249 Y2.6703  
G01 X-2.0271 Y2.6712  
G01 X-2.0288 Y2.6729  
G01 X-2.0297 Y2.6751  
G01 X-2.0297 Y2.7249  
G01 X-2.0288 Y2.7271  
G01 X-2.0271 Y2.7288  
G01 X-2.0249 Y2.7297  
G01 X-2.0180 Y2.7297  
G01 X-2.0180 Y2.8227  
G01 X-2.0320 Y2.8367  
G01 X-2.0320 Y2.8633  
G01 X-2.0133 Y2.8820  
G01 X-1.9867 Y2.8820  
G01 X-1.9680 Y2.8633  
G01 X-1.9680 Y2.8367  
G01 X-1.9820 Y2.8227  
G01 X-1.9820 Y2.7825  
G01 X-1.8175 Y2.6180  
G01 X-1.7180 Y2.6180  
G01 X-1.7180 Y3.0274  
G01 X-1.7168 Y3.0319  
G01 X-1.7144 Y3.0361  
G01 X-1.5894 Y3.1611  
G01 X-1.5861 Y3.1644  
G01 X-1.5819 Y3.1668  
G01 X-1.5774 Y3.1680  
G01 X-0.5014 Y3.1680  
G01 X-0.5004 Y3.1682  
G01 X-0.4990 Y3.1680  
G01 X-0.4976 Y3.1680  
G01 X-0.4967 Y3.1677  
G01 X-0.4957 Y3.1676  
G01 X-0.4944 Y3.1671  
G01 X-0.4931 Y3.1668  
G01 X-0.4922 Y3.1663  
G01 X-0.4912 Y3.1659  
G01 X-0.4901 Y3.1651  
G01 X-0.4889 Y3.1644  
G01 X-0.4882 Y3.1637  
G01 X-0.4874 Y3.1631  
G01 X-0.4866 Y3.1620  
G01 X-0.4856 Y3.1611  
G01 X-0.4851 Y3.1602  
G01 X-0.0866 Y2.6620  
G01 X-0.0856 Y2.6611  
G01 X-0.0851 Y2.6602  
G01 X-0.0845 Y2.6594  
G01 X-0.0839 Y2.6581  
G01 X-0.0832 Y2.6569  
G01 X-0.0830 Y2.6560  
G01 X-0.0826 Y2.6551  
G01 X-0.0824 Y2.6537  
G01 X-0.0820 Y2.6524  
G01 X-0.0820 Y2.6514  
G01 X-0.0818 Y2.6504  
G01 X-0.0820 Y2.6490  
G01 X-0.0820 Y1.5976  
G01 X-0.0832 Y1.5931  
G01 X-0.0856 Y1.5889  
G00 Z0.0500  
G00 X-0.3070 Y1.5678  
G01 Z-0.0040 F10    
G01 X-0.3070 Y1.5322  F20    
G01 X-0.3322 Y1.5070  
G01 X-0.3678 Y1.5070  
G01 X-0.3928 Y1.5320  
G01 X-0.4072 Y1.5320  
G01 X-0.4322 Y1.5070  
G01 X-0.4678 Y1.5070  
G01 X-0.4930 Y1.5322  
G01 X-0.4930 Y1.5678  
G01 X-0.4680 Y1.5928  
G01 X-0.4680 Y1.6072  
G01 X-0.4930 Y1.6322  
G01 X-0.4930 Y1.6678  
G01 X-0.4680 Y1.6928  
G01 X-0.4680 Y1.7072  
G01 X-0.4928 Y1.7320  
G01 X-0.7650 Y1.7320  
G01 X-0.7820 Y1.7150  
G01 X-0.7820 Y1.5831  
G01 X-0.7761 Y1.5791  
G01 X-0.7709 Y1.5739  
G01 X-0.7668 Y1.5678  
G01 X-0.7639 Y1.5609  
G01 X-0.7625 Y1.5537  
G01 X-0.7625 Y1.5463  
G01 X-0.7639 Y1.5391  
G01 X-0.7668 Y1.5322  
G01 X-0.7709 Y1.5261  
G01 X-0.7761 Y1.5209  
G01 X-0.7822 Y1.5168  
G01 X-0.7891 Y1.5139  
G01 X-0.7963 Y1.5125  
G01 X-0.8037 Y1.5125  
G01 X-0.8109 Y1.5139  
G01 X-0.8178 Y1.5168  
G01 X-0.8239 Y1.5209  
G01 X-0.8291 Y1.5261  
G01 X-0.8316 Y1.5297  
G01 X-1.2723 Y1.4989  
G01 X-1.2751 Y1.4946  
G01 X-1.2796 Y1.4901  
G01 X-1.2848 Y1.4866  
G01 X-1.2907 Y1.4842  
G01 X-1.2968 Y1.4830  
G01 X-1.3032 Y1.4830  
G01 X-1.3093 Y1.4842  
G01 X-1.3152 Y1.4866  
G01 X-1.3204 Y1.4901  
G01 X-1.3217 Y1.4915  
G01 X-1.4443 Y1.4628  
G01 X-1.5686 Y1.4090  
G01 X-1.5692 Y1.4057  
G01 X-1.5716 Y1.3998  
G01 X-1.5751 Y1.3946  
G01 X-1.5796 Y1.3901  
G01 X-1.5848 Y1.3866  
G01 X-1.5907 Y1.3842  
G01 X-1.5968 Y1.3830  
G01 X-1.6032 Y1.3830  
G01 X-1.6093 Y1.3842  
G01 X-1.6152 Y1.3866  
G01 X-1.6204 Y1.3901  
G01 X-1.6249 Y1.3946  
G01 X-1.6284 Y1.3998  
G01 X-1.6286 Y1.4005  
G01 X-1.8771 Y1.4321  
G01 X-1.8794 Y1.4324  
G01 X-1.8795 Y1.4324  
G01 X-1.8796 Y1.4324  
G01 X-1.8817 Y1.4333  
G01 X-1.8838 Y1.4341  
G01 X-1.8839 Y1.4342  
G01 X-1.8840 Y1.4342  
G01 X-1.8858 Y1.4356  
G01 X-1.9769 Y1.5028  
G01 X-2.1760 Y1.5287  
G01 X-2.1796 Y1.5251  
G01 X-2.1848 Y1.5216  
G01 X-2.1907 Y1.5192  
G01 X-2.1968 Y1.5180  
G01 X-2.2032 Y1.5180  
G01 X-2.2093 Y1.5192  
G01 X-2.2152 Y1.5216  
G01 X-2.2204 Y1.5251  
G01 X-2.2249 Y1.5296  
G01 X-2.2265 Y1.5320  
G01 X-2.2639 Y1.5320  
G01 X-2.2820 Y1.4958  
G01 X-2.2820 Y1.4075  
G01 X-2.2065 Y1.3320  
G01 X-2.1867 Y1.3320  
G01 X-2.1680 Y1.3133  
G01 X-2.1680 Y1.2867  
G01 X-2.1867 Y1.2680  
G01 X-2.2133 Y1.2680  
G01 X-2.2273 Y1.2820  
G01 X-2.3425 Y1.2820  
G01 X-2.4430 Y1.1815  
G01 X-2.4430 Y1.1617  
G01 X-2.4617 Y1.1430  
G01 X-2.4883 Y1.1430  
G01 X-2.5070 Y1.1617  
G01 X-2.5070 Y1.1883  
G01 X-2.4883 Y1.2070  
G01 X-2.4685 Y1.2070  
G01 X-2.3611 Y1.3144  
G01 X-2.3569 Y1.3168  
G01 X-2.3524 Y1.3180  
G01 X-2.2435 Y1.3180  
G01 X-2.3144 Y1.3889  
G01 X-2.3168 Y1.3931  
G01 X-2.3180 Y1.3976  
G01 X-2.3180 Y1.4995  
G01 X-2.3181 Y1.5013  
G01 X-2.3180 Y1.5018  
G01 X-2.3180 Y1.5024  
G01 X-2.3175 Y1.5041  
G01 X-2.3172 Y1.5059  
G01 X-2.3169 Y1.5064  
G01 X-2.3168 Y1.5069  
G01 X-2.3159 Y1.5085  
G01 X-2.2919 Y1.5564  
G01 X-2.2918 Y1.5569  
G01 X-2.2909 Y1.5585  
G01 X-2.2900 Y1.5602  
G01 X-2.2897 Y1.5606  
G01 X-2.2894 Y1.5611  
G01 X-2.2881 Y1.5623  
G01 X-2.2869 Y1.5637  
G01 X-2.2864 Y1.5640  
G01 X-2.2861 Y1.5644  
G01 X-2.2845 Y1.5653  
G01 X-2.2829 Y1.5663  
G01 X-2.2824 Y1.5665  
G01 X-2.2819 Y1.5668  
G01 X-2.2802 Y1.5672  
G01 X-2.2784 Y1.5678  
G01 X-2.2779 Y1.5679  
G01 X-2.2774 Y1.5680  
G01 X-2.2755 Y1.5680  
G01 X-2.2737 Y1.5681  
G01 X-2.2732 Y1.5680  
G01 X-2.2265 Y1.5680  
G01 X-2.2249 Y1.5704  
G01 X-2.2204 Y1.5749  
G01 X-2.2152 Y1.5784  
G01 X-2.2093 Y1.5808  
G01 X-2.2032 Y1.5820  
G01 X-2.1968 Y1.5820  
G01 X-2.1907 Y1.5808  
G01 X-2.1848 Y1.5784  
G01 X-2.1796 Y1.5749  
G01 X-2.1751 Y1.5704  
G01 X-2.1716 Y1.5652  
G01 X-2.1713 Y1.5644  
G01 X-1.9890 Y1.5406  
G01 X-1.9967 Y1.7103  
G01 X-2.0049 Y1.7103  
G01 X-2.0071 Y1.7112  
G01 X-2.0088 Y1.7129  
G01 X-2.0097 Y1.7151  
G01 X-2.0097 Y1.7649  
G01 X-2.0088 Y1.7671  
G01 X-2.0071 Y1.7688  
G01 X-2.0049 Y1.7697  
G01 X-1.9551 Y1.7697  
G01 X-1.9529 Y1.7688  
G01 X-1.9512 Y1.7671  
G01 X-1.9503 Y1.7649  
G01 X-1.9503 Y1.7151  
G01 X-1.9512 Y1.7129  
G01 X-1.9529 Y1.7112  
G01 X-1.9551 Y1.7103  
G01 X-1.9606 Y1.7103  
G01 X-1.9524 Y1.5294  
G01 X-1.8681 Y1.4673  
G01 X-1.6240 Y1.4362  
G01 X-1.6204 Y1.4399  
G01 X-1.6152 Y1.4434  
G01 X-1.6093 Y1.4458  
G01 X-1.6032 Y1.4470  
G01 X-1.5968 Y1.4470  
G01 X-1.5907 Y1.4458  
G01 X-1.5848 Y1.4434  
G01 X-1.5829 Y1.4420  
G01 X-1.4578 Y1.4962  
G01 X-1.4564 Y1.4970  
G01 X-1.4557 Y1.4972  
G01 X-1.4550 Y1.4975  
G01 X-1.4534 Y1.4977  
G01 X-1.3299 Y1.5265  
G01 X-1.3284 Y1.5302  
G01 X-1.3249 Y1.5354  
G01 X-1.3204 Y1.5399  
G01 X-1.3152 Y1.5434  
G01 X-1.3093 Y1.5458  
G01 X-1.3032 Y1.5470  
G01 X-1.2968 Y1.5470  
G01 X-1.2907 Y1.5458  
G01 X-1.2848 Y1.5434  
G01 X-1.2796 Y1.5399  
G01 X-1.2751 Y1.5354  
G01 X-1.2748 Y1.5348  
G01 X-0.8341 Y1.5657  
G01 X-0.8332 Y1.5678  
G01 X-0.8291 Y1.5739  
G01 X-0.8239 Y1.5791  
G01 X-0.8180 Y1.5831  
G01 X-0.8180 Y1.7150  
G01 X-0.8375 Y1.7345  
G01 X-0.8375 Y1.7404  
G01 X-0.9071 Y1.7570  
G01 X-0.9074 Y1.7570  
G01 X-0.9094 Y1.7575  
G01 X-0.9115 Y1.7580  
G01 X-0.9117 Y1.7582  
G01 X-0.9119 Y1.7582  
G01 X-0.9138 Y1.7593  
G01 X-0.9156 Y1.7603  
G01 X-0.9158 Y1.7605  
G01 X-0.9161 Y1.7606  
G01 X-0.9176 Y1.7621  
G01 X-0.9191 Y1.7635  
G01 X-0.9192 Y1.7638  
G01 X-0.9194 Y1.7639  
G01 X-0.9205 Y1.7658  
G01 X-0.9216 Y1.7676  
G01 X-0.9216 Y1.7678  
G01 X-0.9218 Y1.7681  
G01 X-0.9223 Y1.7701  
G01 X-0.9229 Y1.7721  
G01 X-0.9229 Y1.7724  
G01 X-0.9230 Y1.7726  
G01 X-0.9230 Y1.7747  
G01 X-0.9231 Y1.7769  
G01 X-0.9230 Y1.7771  
G01 X-0.9230 Y2.1144  
G01 X-0.9277 Y2.1902  
G01 X-0.9541 Y2.2430  
G01 X-0.9633 Y2.2430  
G01 X-0.9820 Y2.2617  
G01 X-0.9820 Y2.2883  
G01 X-0.9633 Y2.3070  
G01 X-0.9367 Y2.3070  
G01 X-0.9180 Y2.2883  
G01 X-0.9180 Y2.2617  
G01 X-0.9215 Y2.2582  
G01 X-0.8944 Y2.2040  
G01 X-0.8937 Y2.2030  
G01 X-0.8933 Y2.2019  
G01 X-0.8928 Y2.2009  
G01 X-0.8926 Y2.1997  
G01 X-0.8922 Y2.1985  
G01 X-0.8921 Y2.1974  
G01 X-0.8919 Y2.1963  
G01 X-0.8920 Y2.1950  
G01 X-0.8871 Y2.1179  
G01 X-0.8870 Y2.1174  
G01 X-0.8870 Y2.1156  
G01 X-0.8869 Y2.1138  
G01 X-0.8870 Y2.1132  
G01 X-0.8870 Y1.7892  
G01 X-0.8279 Y1.7751  
G01 X-0.8155 Y1.7875  
G01 X-0.7845 Y1.7875  
G01 X-0.7650 Y1.7680  
G01 X-0.4928 Y1.7680  
G01 X-0.4678 Y1.7930  
G01 X-0.4322 Y1.7930  
G01 X-0.4072 Y1.7680  
G01 X-0.3928 Y1.7680  
G01 X-0.3678 Y1.7930  
G01 X-0.3322 Y1.7930  
G01 X-0.3072 Y1.7680  
G01 X-0.2575 Y1.7680  
G01 X-0.1680 Y1.8575  
G01 X-0.1680 Y2.5425  
G01 X-0.6113 Y2.9858  
G01 X-0.6136 Y2.9899  
G01 X-0.6149 Y2.9945  
G01 X-0.6149 Y2.9956  
G01 X-0.6513 Y2.9956  
G01 X-0.6600 Y2.9970  
G01 X-0.6683 Y2.9997  
G01 X-0.6762 Y3.0037  
G01 X-0.6833 Y3.0089  
G01 X-0.6896 Y3.0151  
G01 X-0.6947 Y3.0222  
G01 X-0.6987 Y3.0301  
G01 X-0.7015 Y3.0385  
G01 X-0.7029 Y3.0472  
G01 X-0.7029 Y3.0560  
G01 X-0.7015 Y3.0647  
G01 X-0.6987 Y3.0731  
G01 X-0.6947 Y3.0809  
G01 X-0.6896 Y3.0881  
G01 X-0.6833 Y3.0943  
G01 X-0.6762 Y3.0995  
G01 X-0.6683 Y3.1035  
G01 X-0.6600 Y3.1062  
G01 X-0.6513 Y3.1076  
G01 X-0.5424 Y3.1076  
G01 X-0.5337 Y3.1062  
G01 X-0.5254 Y3.1035  
G01 X-0.5175 Y3.0995  
G01 X-0.5104 Y3.0943  
G01 X-0.5041 Y3.0881  
G01 X-0.4990 Y3.0809  
G01 X-0.4950 Y3.0731  
G01 X-0.4922 Y3.0647  
G01 X-0.4909 Y3.0560  
G01 X-0.4909 Y3.0472  
G01 X-0.4922 Y3.0385  
G01 X-0.4950 Y3.0301  
G01 X-0.4990 Y3.0222  
G01 X-0.5041 Y3.0151  
G01 X-0.5104 Y3.0089  
G01 X-0.5175 Y3.0037  
G01 X-0.5254 Y2.9997  
G01 X-0.5337 Y2.9970  
G01 X-0.5424 Y2.9956  
G01 X-0.5701 Y2.9956  
G01 X-0.1389 Y2.5644  
G01 X-0.1356 Y2.5611  
G01 X-0.1332 Y2.5569  
G01 X-0.1320 Y2.5524  
G01 X-0.1320 Y1.8476  
G01 X-0.1332 Y1.8431  
G01 X-0.1356 Y1.8389  
G01 X-0.2389 Y1.7356  
G01 X-0.2431 Y1.7332  
G01 X-0.2476 Y1.7320  
G01 X-0.3072 Y1.7320  
G01 X-0.3322 Y1.7070  
G01 X-0.3678 Y1.7070  
G01 X-0.3928 Y1.7320  
G01 X-0.4072 Y1.7320  
G01 X-0.4320 Y1.7072  
G01 X-0.4320 Y1.6928  
G01 X-0.4072 Y1.6680  
G01 X-0.3928 Y1.6680  
G01 X-0.3678 Y1.6930  
G01 X-0.3322 Y1.6930  
G01 X-0.3070 Y1.6678  
G01 X-0.3070 Y1.6322  
G01 X-0.3322 Y1.6070  
G01 X-0.3678 Y1.6070  
G01 X-0.3928 Y1.6320  
G01 X-0.4072 Y1.6320  
G01 X-0.4320 Y1.6072  
G01 X-0.4320 Y1.5928  
G01 X-0.4072 Y1.5680  
G01 X-0.3928 Y1.5680  
G01 X-0.3678 Y1.5930  
G01 X-0.3322 Y1.5930  
G01 X-0.3070 Y1.5678  
G00 Z0.0500  
G00 X-0.3070 Y1.8322  
G01 Z-0.0040 F10    
G01 X-0.3322 Y1.8070  F20    
G01 X-0.3678 Y1.8070  
G01 X-0.3928 Y1.8320  
G01 X-0.4072 Y1.8320  
G01 X-0.4322 Y1.8070  
G01 X-0.4678 Y1.8070  
G01 X-0.4928 Y1.8320  
G01 X-0.7669 Y1.8320  
G01 X-0.7709 Y1.8261  
G01 X-0.7761 Y1.8209  
G01 X-0.7822 Y1.8168  
G01 X-0.7891 Y1.8139  
G01 X-0.7963 Y1.8125  
G01 X-0.8037 Y1.8125  
G01 X-0.8109 Y1.8139  
G01 X-0.8178 Y1.8168  
G01 X-0.8239 Y1.8209  
G01 X-0.8291 Y1.8261  
G01 X-0.8332 Y1.8322  
G01 X-0.8361 Y1.8391  
G01 X-0.8375 Y1.8463  
G01 X-0.8375 Y1.8537  
G01 X-0.8361 Y1.8609  
G01 X-0.8332 Y1.8678  
G01 X-0.8292 Y1.8737  
G01 X-0.8477 Y2.2341  
G01 X-0.9010 Y2.3141  
G01 X-0.9779 Y2.3322  
G01 X-0.9791 Y2.3323  
G01 X-0.9802 Y2.3327  
G01 X-0.9814 Y2.3330  
G01 X-0.9824 Y2.3336  
G01 X-0.9835 Y2.3340  
G01 X-0.9845 Y2.3347  
G01 X-0.9856 Y2.3353  
G01 X-0.9864 Y2.3361  
G01 X-1.1598 Y2.4598  
G01 X-1.1611 Y2.4606  
G01 X-1.1617 Y2.4612  
G01 X-1.1624 Y2.4617  
G01 X-1.1633 Y2.4629  
G01 X-1.1644 Y2.4639  
G01 X-1.1648 Y2.4647  
G01 X-1.1654 Y2.4654  
G01 X-1.1660 Y2.4668  
G01 X-1.1668 Y2.4681  
G01 X-1.1670 Y2.4689  
G01 X-1.1674 Y2.4697  
G01 X-1.1676 Y2.4712  
G01 X-1.1680 Y2.4726  
G01 X-1.1680 Y2.4735  
G01 X-1.1681 Y2.4744  
G01 X-1.1680 Y2.4759  
G01 X-1.1680 Y2.7425  
G01 X-1.2526 Y2.8271  
G01 X-1.2617 Y2.8180  
G01 X-1.2883 Y2.8180  
G01 X-1.3023 Y2.8320  
G01 X-1.3925 Y2.8320  
G01 X-1.4106 Y2.8139  
G01 X-1.4139 Y2.8106  
G01 X-1.4181 Y2.8082  
G01 X-1.4226 Y2.8070  
G01 X-1.4774 Y2.8070  
G01 X-1.4819 Y2.8082  
G01 X-1.4861 Y2.8106  
G01 X-1.5075 Y2.8320  
G01 X-1.5227 Y2.8320  
G01 X-1.5367 Y2.8180  
G01 X-1.5633 Y2.8180  
G01 X-1.5773 Y2.8320  
G01 X-1.5889 Y2.8320  
G01 X-1.6070 Y2.7958  
G01 X-1.6070 Y2.7292  
G01 X-1.5889 Y2.6930  
G01 X-1.4226 Y2.6930  
G01 X-1.4181 Y2.6918  
G01 X-1.4139 Y2.6894  
G01 X-1.3639 Y2.6394  
G01 X-1.3606 Y2.6361  
G01 X-1.3582 Y2.6319  
G01 X-1.3570 Y2.6274  
G01 X-1.3570 Y2.5755  
G01 X-1.3569 Y2.5737  
G01 X-1.3570 Y2.5732  
G01 X-1.3570 Y2.5726  
G01 X-1.3575 Y2.5709  
G01 X-1.3578 Y2.5691  
G01 X-1.3581 Y2.5686  
G01 X-1.3582 Y2.5681  
G01 X-1.3591 Y2.5665  
G01 X-1.3831 Y2.5186  
G01 X-1.3832 Y2.5181  
G01 X-1.3841 Y2.5165  
G01 X-1.3850 Y2.5148  
G01 X-1.3853 Y2.5144  
G01 X-1.3856 Y2.5139  
G01 X-1.3869 Y2.5127  
G01 X-1.3881 Y2.5113  
G01 X-1.3886 Y2.5110  
G01 X-1.3889 Y2.5106  
G01 X-1.3905 Y2.5097  
G01 X-1.3921 Y2.5087  
G01 X-1.3926 Y2.5085  
G01 X-1.3931 Y2.5082  
G01 X-1.3948 Y2.5078  
G01 X-1.3966 Y2.5072  
G01 X-1.3971 Y2.5071  
G01 X-1.3976 Y2.5070  
G01 X-1.3995 Y2.5070  
G01 X-1.4013 Y2.5069  
G01 X-1.4018 Y2.5070  
G01 X-1.7472 Y2.5070  
G01 X-1.8423 Y2.4767  
G01 X-1.8468 Y2.2654  
G01 X-1.6511 Y2.1547  
G01 X-1.6101 Y2.1547  
G01 X-1.6079 Y2.1538  
G01 X-1.6062 Y2.1521  
G01 X-1.6053 Y2.1499  
G01 X-1.6053 Y2.1001  
G01 X-1.6062 Y2.0979  
G01 X-1.6079 Y2.0962  
G01 X-1.6101 Y2.0953  
G01 X-1.6599 Y2.0953  
G01 X-1.6621 Y2.0962  
G01 X-1.6638 Y2.0979  
G01 X-1.6647 Y2.1001  
G01 X-1.6647 Y2.1211  
G01 X-1.8720 Y2.2383  
G01 X-1.8723 Y2.2384  
G01 X-1.8741 Y2.2395  
G01 X-1.8759 Y2.2405  
G01 X-1.8761 Y2.2407  
G01 X-1.8764 Y2.2408  
G01 X-1.8778 Y2.2423  
G01 X-1.8793 Y2.2438  
G01 X-1.8794 Y2.2441  
G01 X-1.8796 Y2.2443  
G01 X-1.8806 Y2.2461  
G01 X-1.8817 Y2.2479  
G01 X-1.8818 Y2.2482  
G01 X-1.8819 Y2.2484  
G01 X-1.8824 Y2.2504  
G01 X-1.8830 Y2.2525  
G01 X-1.8830 Y2.2527  
G01 X-1.8830 Y2.2530  
G01 X-1.8830 Y2.2551  
G01 X-1.8830 Y2.2572  
G01 X-1.8830 Y2.2575  
G01 X-1.8780 Y2.4898  
G01 X-1.8781 Y2.4915  
G01 X-1.8780 Y2.4919  
G01 X-1.8780 Y2.4924  
G01 X-1.8779 Y2.4926  
G01 X-1.8779 Y2.4928  
G01 X-1.8775 Y2.4944  
G01 X-1.8771 Y2.4962  
G01 X-1.8769 Y2.4965  
G01 X-1.8768 Y2.4969  
G01 X-1.8767 Y2.4971  
G01 X-1.8766 Y2.4973  
G01 X-1.8757 Y2.4988  
G01 X-1.8752 Y2.4998  
G01 X-1.9435 Y2.5680  
G01 X-1.9633 Y2.5680  
G01 X-1.9820 Y2.5867  
G01 X-1.9820 Y2.5880  
G01 X-2.0763 Y2.6069  
G01 X-2.0786 Y2.6074  
G01 X-2.0809 Y2.6078  
G01 X-2.0810 Y2.6079  
G01 X-2.0831 Y2.6089  
G01 X-2.0851 Y2.6099  
G01 X-2.0852 Y2.6100  
G01 X-2.0869 Y2.6115  
G01 X-2.0887 Y2.6130  
G01 X-2.0888 Y2.6132  
G01 X-2.0900 Y2.6151  
G01 X-2.0913 Y2.6170  
G01 X-2.0914 Y2.6171  
G01 X-2.0921 Y2.6193  
G01 X-2.0928 Y2.6215  
G01 X-2.0928 Y2.6216  
G01 X-2.0930 Y2.6239  
G01 X-2.0931 Y2.6262  
G01 X-2.1176 Y3.0671  
G01 X-2.1825 Y3.1320  
G01 X-3.7325 Y3.1320  
G01 X-3.7720 Y3.0925  
G01 X-3.7720 Y2.4876  
G01 X-3.7732 Y2.4831  
G01 X-3.7756 Y2.4789  
G01 X-3.8220 Y2.4325  
G01 X-3.8220 Y2.3275  
G01 X-3.7825 Y2.2880  
G01 X-3.7075 Y2.2880  
G01 X-3.5344 Y2.4611  
G01 X-3.5311 Y2.4644  
G01 X-3.5269 Y2.4668  
G01 X-3.5224 Y2.4680  
G01 X-3.3714 Y2.4680  
G01 X-3.3705 Y2.4681  
G01 X-3.3691 Y2.4680  
G01 X-3.3676 Y2.4680  
G01 X-3.3667 Y2.4678  
G01 X-3.3658 Y2.4677  
G01 X-3.3644 Y2.4671  
G01 X-3.3631 Y2.4668  
G01 X-3.3622 Y2.4663  
G01 X-3.3614 Y2.4660  
G01 X-3.3602 Y2.4651  
G01 X-3.3589 Y2.4644  
G01 X-3.3583 Y2.4637  
G01 X-3.3575 Y2.4632  
G01 X-3.3566 Y2.4621  
G01 X-3.3556 Y2.4611  
G01 X-3.3551 Y2.4602  
G01 X-3.0962 Y2.1415  
G01 X-3.0948 Y2.1399  
G01 X-3.0947 Y2.1397  
G01 X-3.0945 Y2.1395  
G01 X-3.0937 Y2.1376  
G01 X-3.0927 Y2.1356  
G01 X-3.0927 Y2.1354  
G01 X-3.0926 Y2.1352  
G01 X-3.0923 Y2.1331  
G01 X-3.0128 Y1.7078  
G01 X-2.7870 Y1.8884  
G01 X-2.7861 Y1.8894  
G01 X-2.7852 Y1.8899  
G01 X-2.7844 Y1.8905  
G01 X-2.7831 Y1.8911  
G01 X-2.7819 Y1.8918  
G01 X-2.7810 Y1.8920  
G01 X-2.7801 Y1.8924  
G01 X-2.7787 Y1.8926  
G01 X-2.7774 Y1.8930  
G01 X-2.7764 Y1.8930  
G01 X-2.7754 Y1.8932  
G01 X-2.7740 Y1.8930  
G01 X-2.6013 Y1.8930  
G01 X-2.6002 Y1.8932  
G01 X-2.5989 Y1.8930  
G01 X-2.5976 Y1.8930  
G01 X-2.5966 Y1.8927  
G01 X-2.5955 Y1.8926  
G01 X-2.5943 Y1.8921  
G01 X-2.5931 Y1.8918  
G01 X-2.5921 Y1.8912  
G01 X-2.5911 Y1.8908  
G01 X-2.5901 Y1.8900  
G01 X-2.5889 Y1.8894  
G01 X-2.5882 Y1.8886  
G01 X-2.4901 Y1.8150  
G01 X-2.4889 Y1.8144  
G01 X-2.4882 Y1.8136  
G01 X-2.4873 Y1.8130  
G01 X-2.4865 Y1.8120  
G01 X-2.4856 Y1.8111  
G01 X-2.4851 Y1.8101  
G01 X-2.4844 Y1.8093  
G01 X-2.4839 Y1.8081  
G01 X-2.4832 Y1.8069  
G01 X-2.4829 Y1.8059  
G01 X-2.4825 Y1.8049  
G01 X-2.4823 Y1.8036  
G01 X-2.4820 Y1.8024  
G01 X-2.4820 Y1.8013  
G01 X-2.4818 Y1.8002  
G01 X-2.4820 Y1.7989  
G01 X-2.4820 Y1.7765  
G01 X-2.4796 Y1.7749  
G01 X-2.4751 Y1.7704  
G01 X-2.4716 Y1.7652  
G01 X-2.4692 Y1.7593  
G01 X-2.4680 Y1.7532  
G01 X-2.4680 Y1.7468  
G01 X-2.4692 Y1.7407  
G01 X-2.4716 Y1.7348  
G01 X-2.4751 Y1.7296  
G01 X-2.4796 Y1.7251  
G01 X-2.4848 Y1.7216  
G01 X-2.4907 Y1.7192  
G01 X-2.4968 Y1.7180  
G01 X-2.5032 Y1.7180  
G01 X-2.5093 Y1.7192  
G01 X-2.5152 Y1.7216  
G01 X-2.5204 Y1.7251  
G01 X-2.5249 Y1.7296  
G01 X-2.5284 Y1.7348  
G01 X-2.5308 Y1.7407  
G01 X-2.5320 Y1.7468  
G01 X-2.5320 Y1.7532  
G01 X-2.5308 Y1.7593  
G01 X-2.5284 Y1.7652  
G01 X-2.5249 Y1.7704  
G01 X-2.5204 Y1.7749  
G01 X-2.5180 Y1.7765  
G01 X-2.5180 Y1.7910  
G01 X-2.6060 Y1.8570  
G01 X-2.7687 Y1.8570  
G01 X-3.0070 Y1.6663  
G01 X-3.0070 Y1.5416  
G01 X-2.7237 Y1.5180  
G01 X-2.7216 Y1.5178  
G01 X-2.7214 Y1.5178  
G01 X-2.7211 Y1.5177  
G01 X-2.7191 Y1.5170  
G01 X-2.7171 Y1.5163  
G01 X-2.7169 Y1.5162  
G01 X-2.7167 Y1.5161  
G01 X-2.7149 Y1.5149  
G01 X-2.7131 Y1.5137  
G01 X-2.7130 Y1.5136  
G01 X-2.7128 Y1.5134  
G01 X-2.7114 Y1.5118  
G01 X-2.7100 Y1.5102  
G01 X-2.7099 Y1.5100  
G01 X-2.7097 Y1.5098  
G01 X-2.7088 Y1.5079  
G01 X-2.6844 Y1.4591  
G01 X-2.6497 Y1.4070  
G01 X-2.6367 Y1.4070  
G01 X-2.6180 Y1.3883  
G01 X-2.6180 Y1.3617  
G01 X-2.6367 Y1.3430  
G01 X-2.6404 Y1.3430  
G01 X-2.6793 Y1.2070  
G01 X-2.6617 Y1.2070  
G01 X-2.6430 Y1.1883  
G01 X-2.6430 Y1.1617  
G01 X-2.6617 Y1.1430  
G01 X-2.6883 Y1.1430  
G01 X-2.7070 Y1.1617  
G01 X-2.7070 Y1.1815  
G01 X-2.7112 Y1.1857  
G01 X-2.7113 Y1.1858  
G01 X-2.7128 Y1.1874  
G01 X-2.7144 Y1.1889  
G01 X-2.7145 Y1.1891  
G01 X-2.7146 Y1.1892  
G01 X-2.7157 Y1.1911  
G01 X-2.7168 Y1.1931  
G01 X-2.7168 Y1.1932  
G01 X-2.7169 Y1.1933  
G01 X-2.7174 Y1.1955  
G01 X-2.7180 Y1.1976  
G01 X-2.7180 Y1.1978  
G01 X-2.7180 Y1.1979  
G01 X-2.7180 Y1.2001  
G01 X-2.7180 Y1.2024  
G01 X-2.7180 Y1.2025  
G01 X-2.7180 Y1.2027  
G01 X-2.7173 Y1.2048  
G01 X-2.7168 Y1.2069  
G01 X-2.7167 Y1.2071  
G01 X-2.6746 Y1.3544  
G01 X-2.6820 Y1.3617  
G01 X-2.6820 Y1.3883  
G01 X-2.6811 Y1.3892  
G01 X-2.7143 Y1.4390  
G01 X-2.7150 Y1.4398  
G01 X-2.7156 Y1.4409  
G01 X-2.7163 Y1.4420  
G01 X-2.7167 Y1.4431  
G01 X-2.7366 Y1.4829  
G01 X-3.0027 Y1.5051  
G01 X-3.0025 Y1.5041  
G01 X-3.0020 Y1.5024  
G01 X-3.0020 Y1.5018  
G01 X-3.0019 Y1.5012  
G01 X-3.0020 Y1.4994  
G01 X-3.0020 Y1.1259  
G01 X-3.0019 Y1.1244  
G01 X-3.0020 Y1.1235  
G01 X-3.0020 Y1.1226  
G01 X-3.0024 Y1.1212  
G01 X-3.0026 Y1.1197  
G01 X-3.0030 Y1.1189  
G01 X-3.0032 Y1.1181  
G01 X-3.0040 Y1.1168  
G01 X-3.0046 Y1.1154  
G01 X-3.0052 Y1.1147  
G01 X-3.0056 Y1.1139  
G01 X-3.0067 Y1.1129  
G01 X-3.0076 Y1.1117  
G01 X-3.0083 Y1.1112  
G01 X-3.0089 Y1.1106  
G01 X-3.0102 Y1.1098  
G01 X-3.1133 Y1.0362  
G01 X-3.1139 Y1.0356  
G01 X-3.1152 Y1.0348  
G01 X-3.1165 Y1.0340  
G01 X-3.1173 Y1.0337  
G01 X-3.1181 Y1.0332  
G01 X-3.1195 Y1.0328  
G01 X-3.1209 Y1.0323  
G01 X-3.1218 Y1.0322  
G01 X-3.1226 Y1.0320  
G01 X-3.1241 Y1.0320  
G01 X-3.1256 Y1.0319  
G01 X-3.1265 Y1.0320  
G01 X-3.2235 Y1.0320  
G01 X-3.2251 Y1.0296  
G01 X-3.2296 Y1.0251  
G01 X-3.2348 Y1.0216  
G01 X-3.2407 Y1.0192  
G01 X-3.2468 Y1.0180  
G01 X-3.2532 Y1.0180  
G01 X-3.2593 Y1.0192  
G01 X-3.2652 Y1.0216  
G01 X-3.2704 Y1.0251  
G01 X-3.2749 Y1.0296  
G01 X-3.2784 Y1.0348  
G01 X-3.2808 Y1.0407  
G01 X-3.2820 Y1.0468  
G01 X-3.2820 Y1.0532  
G01 X-3.2808 Y1.0593  
G01 X-3.2784 Y1.0652  
G01 X-3.2749 Y1.0704  
G01 X-3.2704 Y1.0749  
G01 X-3.2652 Y1.0784  
G01 X-3.2593 Y1.0808  
G01 X-3.2532 Y1.0820  
G01 X-3.2468 Y1.0820  
G01 X-3.2407 Y1.0808  
G01 X-3.2348 Y1.0784  
G01 X-3.2296 Y1.0749  
G01 X-3.2251 Y1.0704  
G01 X-3.2235 Y1.0680  
G01 X-3.1308 Y1.0680  
G01 X-3.0380 Y1.1343  
G01 X-3.0380 Y1.4982  
G01 X-3.0391 Y1.5038  
G01 X-3.0430 Y1.5030  
G01 X-3.0430 Y1.4967  
G01 X-3.0617 Y1.4780  
G01 X-3.0883 Y1.4780  
G01 X-3.1070 Y1.4967  
G01 X-3.1070 Y1.5233  
G01 X-3.0883 Y1.5420  
G01 X-3.0617 Y1.5420  
G01 X-3.0566 Y1.5368  
G01 X-3.0559 Y1.5372  
G01 X-3.0552 Y1.5373  
G01 X-3.0545 Y1.5376  
G01 X-3.0528 Y1.5378  
G01 X-3.0430 Y1.5398  
G01 X-3.0430 Y1.6733  
G01 X-3.1269 Y2.1222  
G01 X-3.3786 Y2.4320  
G01 X-3.5125 Y2.4320  
G01 X-3.6889 Y2.2556  
G01 X-3.6931 Y2.2532  
G01 X-3.6976 Y2.2520  
G01 X-3.7924 Y2.2520  
G01 X-3.7969 Y2.2532  
G01 X-3.8011 Y2.2556  
G01 X-3.8044 Y2.2589  
G01 X-3.8544 Y2.3089  
G01 X-3.8568 Y2.3131  
G01 X-3.8580 Y2.3176  
G01 X-3.8580 Y2.4424  
G01 X-3.8568 Y2.4469  
G01 X-3.8544 Y2.4511  
G01 X-3.8511 Y2.4544  
G01 X-3.8080 Y2.4975  
G01 X-3.8080 Y3.1024  
G01 X-3.8068 Y3.1069  
G01 X-3.8044 Y3.1111  
G01 X-3.8011 Y3.1144  
G01 X-3.7544 Y3.1611  
G01 X-3.7511 Y3.1644  
G01 X-3.7469 Y3.1668  
G01 X-3.7424 Y3.1680  
G01 X-2.1726 Y3.1680  
G01 X-2.1681 Y3.1668  
G01 X-2.1639 Y3.1644  
G01 X-2.1606 Y3.1611  
G01 X-2.0876 Y3.0881  
G01 X-2.0862 Y3.0868  
G01 X-2.0860 Y3.0864  
G01 X-2.0856 Y3.0861  
G01 X-2.0847 Y3.0844  
G01 X-2.0836 Y3.0829  
G01 X-2.0835 Y3.0824  
G01 X-2.0832 Y3.0819  
G01 X-2.0827 Y3.0801  
G01 X-2.0822 Y3.0784  
G01 X-2.0821 Y3.0779  
G01 X-2.0820 Y3.0774  
G01 X-2.0820 Y3.0755  
G01 X-2.0578 Y2.6399  
G01 X-1.9724 Y2.6228  
G01 X-1.9633 Y2.6320  
G01 X-1.9367 Y2.6320  
G01 X-1.9180 Y2.6133  
G01 X-1.9180 Y2.5935  
G01 X-1.8398 Y2.5153  
G01 X-1.7573 Y2.5416  
G01 X-1.7569 Y2.5418  
G01 X-1.7551 Y2.5423  
G01 X-1.7532 Y2.5429  
G01 X-1.7528 Y2.5429  
G01 X-1.7524 Y2.5430  
G01 X-1.7504 Y2.5430  
G01 X-1.7485 Y2.5431  
G01 X-1.7481 Y2.5430  
G01 X-1.4111 Y2.5430  
G01 X-1.3930 Y2.5792  
G01 X-1.3930 Y2.6175  
G01 X-1.4325 Y2.6570  
G01 X-1.5982 Y2.6570  
G01 X-1.5987 Y2.6569  
G01 X-1.6005 Y2.6570  
G01 X-1.6024 Y2.6570  
G01 X-1.6029 Y2.6571  
G01 X-1.6034 Y2.6572  
G01 X-1.6052 Y2.6578  
G01 X-1.6069 Y2.6582  
G01 X-1.6074 Y2.6585  
G01 X-1.6079 Y2.6587  
G01 X-1.6095 Y2.6597  
G01 X-1.6111 Y2.6606  
G01 X-1.6114 Y2.6610  
G01 X-1.6119 Y2.6613  
G01 X-1.6131 Y2.6627  
G01 X-1.6144 Y2.6639  
G01 X-1.6147 Y2.6644  
G01 X-1.6150 Y2.6648  
G01 X-1.6159 Y2.6665  
G01 X-1.6168 Y2.6681  
G01 X-1.6169 Y2.6686  
G01 X-1.6409 Y2.7165  
G01 X-1.6418 Y2.7181  
G01 X-1.6419 Y2.7186  
G01 X-1.6422 Y2.7191  
G01 X-1.6425 Y2.7209  
G01 X-1.6430 Y2.7226  
G01 X-1.6430 Y2.7232  
G01 X-1.6431 Y2.7237  
G01 X-1.6430 Y2.7255  
G01 X-1.6430 Y2.7995  
G01 X-1.6431 Y2.8013  
G01 X-1.6430 Y2.8018  
G01 X-1.6430 Y2.8024  
G01 X-1.6425 Y2.8041  
G01 X-1.6422 Y2.8059  
G01 X-1.6419 Y2.8064  
G01 X-1.6418 Y2.8069  
G01 X-1.6409 Y2.8085  
G01 X-1.6169 Y2.8564  
G01 X-1.6168 Y2.8569  
G01 X-1.6159 Y2.8585  
G01 X-1.6150 Y2.8602  
G01 X-1.6147 Y2.8606  
G01 X-1.6144 Y2.8611  
G01 X-1.6131 Y2.8623  
G01 X-1.6119 Y2.8637  
G01 X-1.6114 Y2.8640  
G01 X-1.6111 Y2.8644  
G01 X-1.6095 Y2.8653  
G01 X-1.6079 Y2.8663  
G01 X-1.6074 Y2.8665  
G01 X-1.6069 Y2.8668  
G01 X-1.6052 Y2.8672  
G01 X-1.6034 Y2.8678  
G01 X-1.6029 Y2.8679  
G01 X-1.6024 Y2.8680  
G01 X-1.6005 Y2.8680  
G01 X-1.5987 Y2.8681  
G01 X-1.5982 Y2.8680  
G01 X-1.5773 Y2.8680  
G01 X-1.5633 Y2.8820  
G01 X-1.5367 Y2.8820  
G01 X-1.5227 Y2.8680  
G01 X-1.4976 Y2.8680  
G01 X-1.4931 Y2.8668  
G01 X-1.4889 Y2.8644  
G01 X-1.4856 Y2.8611  
G01 X-1.4675 Y2.8430  
G01 X-1.4325 Y2.8430  
G01 X-1.4111 Y2.8644  
G01 X-1.4069 Y2.8668  
G01 X-1.4024 Y2.8680  
G01 X-1.3023 Y2.8680  
G01 X-1.2883 Y2.8820  
G01 X-1.2617 Y2.8820  
G01 X-1.2477 Y2.8680  
G01 X-1.2476 Y2.8680  
G01 X-1.2431 Y2.8668  
G01 X-1.2389 Y2.8644  
G01 X-1.1389 Y2.7644  
G01 X-1.1356 Y2.7611  
G01 X-1.1332 Y2.7569  
G01 X-1.1320 Y2.7524  
G01 X-1.1320 Y2.4843  
G01 X-0.9674 Y2.3667  
G01 X-0.8862 Y2.3476  
G01 X-0.8841 Y2.3472  
G01 X-0.8839 Y2.3470  
G01 X-0.8836 Y2.3470  
G01 X-0.8817 Y2.3460  
G01 X-0.8799 Y2.3451  
G01 X-0.8797 Y2.3449  
G01 X-0.8794 Y2.3447  
G01 X-0.8779 Y2.3433  
G01 X-0.8763 Y2.3420  
G01 X-0.8762 Y2.3417  
G01 X-0.8759 Y2.3415  
G01 X-0.8749 Y2.3397  
G01 X-0.8163 Y2.2519  
G01 X-0.8150 Y2.2499  
G01 X-0.8137 Y2.2480  
G01 X-0.8137 Y2.2479  
G01 X-0.8136 Y2.2478  
G01 X-0.8129 Y2.2457  
G01 X-0.8122 Y2.2435  
G01 X-0.8122 Y2.2434  
G01 X-0.8121 Y2.2433  
G01 X-0.8120 Y2.2410  
G01 X-0.8119 Y2.2388  
G01 X-0.8119 Y2.2387  
G01 X-0.7939 Y1.8870  
G01 X-0.7891 Y1.8861  
G01 X-0.7822 Y1.8832  
G01 X-0.7761 Y1.8791  
G01 X-0.7709 Y1.8739  
G01 X-0.7669 Y1.8680  
G01 X-0.4928 Y1.8680  
G01 X-0.4678 Y1.8930  
G01 X-0.4322 Y1.8930  
G01 X-0.4072 Y1.8680  
G01 X-0.3928 Y1.8680  
G01 X-0.3678 Y1.8930  
G01 X-0.3322 Y1.8930  
G01 X-0.3070 Y1.8678  
G01 X-0.3070 Y1.8322  
G00 Z0.0500  
G00 X-0.3070 Y1.9322  
G01 Z-0.0040 F10    
G01 X-0.3322 Y1.9070  F20    
G01 X-0.3678 Y1.9070  
G01 X-0.3930 Y1.9322  
G01 X-0.3930 Y1.9678  
G01 X-0.3678 Y1.9930  
G01 X-0.3322 Y1.9930  
G01 X-0.3070 Y1.9678  
G01 X-0.3070 Y1.9322  
G00 Z0.0500  
G00 X-0.4070 Y1.9322  
G01 Z-0.0040 F10    
G01 X-0.4322 Y1.9070  F20    
G01 X-0.4678 Y1.9070  
G01 X-0.4930 Y1.9322  
G01 X-0.4930 Y1.9678  
G01 X-0.4678 Y1.9930  
G01 X-0.4322 Y1.9930  
G01 X-0.4070 Y1.9678  
G01 X-0.4070 Y1.9322  
G00 Z0.0500  
G00 X-0.4072 Y2.0320  
G01 Z-0.0040 F10    
G01 X-0.4322 Y2.0070  F20    
G01 X-0.4678 Y2.0070  
G01 X-0.4930 Y2.0322  
G01 X-0.4930 Y2.0678  
G01 X-0.4678 Y2.0930  
G01 X-0.4322 Y2.0930  
G01 X-0.4072 Y2.0680  
G01 X-0.3928 Y2.0680  
G01 X-0.3678 Y2.0930  
G01 X-0.3322 Y2.0930  
G01 X-0.3072 Y2.0680  
G01 X-0.2575 Y2.0680  
G01 X-0.2180 Y2.1075  
G01 X-0.2180 Y2.4925  
G01 X-0.3260 Y2.6005  
G01 X-0.3361 Y2.6005  
G01 X-0.3361 Y2.5641  
G01 X-0.3375 Y2.5554  
G01 X-0.3402 Y2.5470  
G01 X-0.3442 Y2.5392  
G01 X-0.3494 Y2.5320  
G01 X-0.3556 Y2.5258  
G01 X-0.3628 Y2.5206  
G01 X-0.3706 Y2.5166  
G01 X-0.3790 Y2.5139  
G01 X-0.3877 Y2.5125  
G01 X-0.3965 Y2.5125  
G01 X-0.4052 Y2.5139  
G01 X-0.4136 Y2.5166  
G01 X-0.4215 Y2.5206  
G01 X-0.4286 Y2.5258  
G01 X-0.4348 Y2.5320  
G01 X-0.4400 Y2.5392  
G01 X-0.4440 Y2.5470  
G01 X-0.4467 Y2.5554  
G01 X-0.4481 Y2.5641  
G01 X-0.4481 Y2.6729  
G01 X-0.4467 Y2.6816  
G01 X-0.4440 Y2.6900  
G01 X-0.4400 Y2.6979  
G01 X-0.4348 Y2.7050  
G01 X-0.4286 Y2.7112  
G01 X-0.4215 Y2.7164  
G01 X-0.4136 Y2.7204  
G01 X-0.4052 Y2.7231  
G01 X-0.3965 Y2.7245  
G01 X-0.3877 Y2.7245  
G01 X-0.3790 Y2.7231  
G01 X-0.3706 Y2.7204  
G01 X-0.3628 Y2.7164  
G01 X-0.3556 Y2.7112  
G01 X-0.3494 Y2.7050  
G01 X-0.3442 Y2.6979  
G01 X-0.3402 Y2.6900  
G01 X-0.3375 Y2.6816  
G01 X-0.3361 Y2.6729  
G01 X-0.3361 Y2.6365  
G01 X-0.3161 Y2.6365  
G01 X-0.3116 Y2.6353  
G01 X-0.3075 Y2.6329  
G01 X-0.1889 Y2.5144  
G01 X-0.1856 Y2.5111  
G01 X-0.1832 Y2.5069  
G01 X-0.1820 Y2.5024  
G01 X-0.1820 Y2.0976  
G01 X-0.1832 Y2.0931  
G01 X-0.1856 Y2.0889  
G01 X-0.2356 Y2.0389  
G01 X-0.2389 Y2.0356  
G01 X-0.2431 Y2.0332  
G01 X-0.2476 Y2.0320  
G01 X-0.3072 Y2.0320  
G01 X-0.3322 Y2.0070  
G01 X-0.3678 Y2.0070  
G01 X-0.3928 Y2.0320  
G01 X-0.4072 Y2.0320  
G00 Z0.0500  
G00 X-0.4322 Y2.1070  
G01 Z-0.0040 F10    
G01 X-0.4678 Y2.1070  F20    
G01 X-0.4930 Y2.1322  
G01 X-0.4930 Y2.1678  
G01 X-0.4678 Y2.1930  
G01 X-0.4322 Y2.1930  
G01 X-0.4070 Y2.1678  
G01 X-0.4070 Y2.1322  
G01 X-0.4322 Y2.1070  
G00 Z0.0500  
G00 X-0.3930 Y2.1322  
G01 Z-0.0040 F10    
G01 X-0.3930 Y2.1678  F20    
G01 X-0.3678 Y2.1930  
G01 X-0.3322 Y2.1930  
G01 X-0.3070 Y2.1678  
G01 X-0.3070 Y2.1322  
G01 X-0.3322 Y2.1070  
G01 X-0.3678 Y2.1070  
G01 X-0.3930 Y2.1322  
G00 Z0.0500  
G00 X-0.5041 Y2.4954  
G01 Z-0.0040 F10    
G01 X-0.5104 Y2.4892  F20    
G01 X-0.5175 Y2.4840  
G01 X-0.5254 Y2.4800  
G01 X-0.5337 Y2.4773  
G01 X-0.5424 Y2.4759  
G01 X-0.6513 Y2.4759  
G01 X-0.6600 Y2.4773  
G01 X-0.6683 Y2.4800  
G01 X-0.6762 Y2.4840  
G01 X-0.6833 Y2.4892  
G01 X-0.6896 Y2.4954  
G01 X-0.6947 Y2.5025  
G01 X-0.6987 Y2.5104  
G01 X-0.7015 Y2.5188  
G01 X-0.7029 Y2.5275  
G01 X-0.7029 Y2.5363  
G01 X-0.7015 Y2.5450  
G01 X-0.6987 Y2.5534  
G01 X-0.6947 Y2.5612  
G01 X-0.6896 Y2.5684  
G01 X-0.6833 Y2.5746  
G01 X-0.6785 Y2.5781  
G01 X-0.7325 Y2.6320  
G01 X-0.9477 Y2.6320  
G01 X-0.9617 Y2.6180  
G01 X-0.9883 Y2.6180  
G01 X-1.0070 Y2.6367  
G01 X-1.0070 Y2.6633  
G01 X-0.9883 Y2.6820  
G01 X-0.9617 Y2.6820  
G01 X-0.9477 Y2.6680  
G01 X-0.7226 Y2.6680  
G01 X-0.7181 Y2.6668  
G01 X-0.7139 Y2.6644  
G01 X-0.7106 Y2.6611  
G01 X-0.6374 Y2.5879  
G01 X-0.5424 Y2.5879  
G01 X-0.5337 Y2.5865  
G01 X-0.5254 Y2.5838  
G01 X-0.5175 Y2.5798  
G01 X-0.5104 Y2.5746  
G01 X-0.5041 Y2.5684  
G01 X-0.4990 Y2.5612  
G01 X-0.4950 Y2.5534  
G01 X-0.4922 Y2.5450  
G01 X-0.4909 Y2.5363  
G01 X-0.4909 Y2.5275  
G01 X-0.4922 Y2.5188  
G01 X-0.4950 Y2.5104  
G01 X-0.4990 Y2.5025  
G01 X-0.5041 Y2.4954  
G00 Z0.0500  
G00 X-0.8265 Y2.5299  
G01 Z-0.0040 F10    
G01 X-0.8549 Y2.5015  F20    
G01 X-0.8951 Y2.5015  
G01 X-0.9235 Y2.5299  
G01 X-0.9235 Y2.5320  
G01 X-0.9477 Y2.5320  
G01 X-0.9617 Y2.5180  
G01 X-0.9883 Y2.5180  
G01 X-1.0070 Y2.5367  
G01 X-1.0070 Y2.5633  
G01 X-0.9883 Y2.5820  
G01 X-0.9617 Y2.5820  
G01 X-0.9477 Y2.5680  
G01 X-0.9235 Y2.5680  
G01 X-0.9235 Y2.5701  
G01 X-0.8951 Y2.5985  
G01 X-0.8549 Y2.5985  
G01 X-0.8265 Y2.5701  
G01 X-0.8265 Y2.5299  
G00 Z0.0500  
G00 X-0.8549 Y2.4735  
G01 Z-0.0040 F10    
G01 X-0.8265 Y2.4451  F20    
G01 X-0.8265 Y2.4049  
G01 X-0.8549 Y2.3765  
G01 X-0.8951 Y2.3765  
G01 X-0.9235 Y2.4049  
G01 X-0.9235 Y2.4163  
G01 X-0.9568 Y2.4230  
G01 X-0.9617 Y2.4180  
G01 X-0.9883 Y2.4180  
G01 X-1.0023 Y2.4320  
G01 X-1.0024 Y2.4320  
G01 X-1.0041 Y2.4325  
G01 X-1.0059 Y2.4328  
G01 X-1.0064 Y2.4331  
G01 X-1.0069 Y2.4332  
G01 X-1.0085 Y2.4341  
G01 X-1.0101 Y2.4349  
G01 X-1.0105 Y2.4353  
G01 X-1.0111 Y2.4356  
G01 X-1.0123 Y2.4369  
G01 X-1.0137 Y2.4380  
G01 X-1.0140 Y2.4385  
G01 X-1.0144 Y2.4389  
G01 X-1.0153 Y2.4405  
G01 X-1.0163 Y2.4420  
G01 X-1.0165 Y2.4425  
G01 X-1.0168 Y2.4431  
G01 X-1.0172 Y2.4448  
G01 X-1.0178 Y2.4465  
G01 X-1.0178 Y2.4471  
G01 X-1.0180 Y2.4476  
G01 X-1.0180 Y2.4494  
G01 X-1.0181 Y2.4512  
G01 X-1.0180 Y2.4518  
G01 X-1.0180 Y2.4524  
G01 X-1.0175 Y2.4541  
G01 X-1.0172 Y2.4559  
G01 X-1.0169 Y2.4564  
G01 X-1.0168 Y2.4569  
G01 X-1.0159 Y2.4585  
G01 X-1.0151 Y2.4601  
G01 X-1.0147 Y2.4605  
G01 X-1.0144 Y2.4611  
G01 X-1.0131 Y2.4623  
G01 X-1.0120 Y2.4637  
G01 X-1.0115 Y2.4640  
G01 X-1.0111 Y2.4644  
G01 X-1.0095 Y2.4653  
G01 X-1.0080 Y2.4663  
G01 X-1.0075 Y2.4665  
G01 X-1.0069 Y2.4668  
G01 X-1.0052 Y2.4672  
G01 X-1.0035 Y2.4678  
G01 X-1.0029 Y2.4678  
G01 X-1.0024 Y2.4680  
G01 X-1.0023 Y2.4680  
G01 X-0.9883 Y2.4820  
G01 X-0.9617 Y2.4820  
G01 X-0.9430 Y2.4633  
G01 X-0.9430 Y2.4570  
G01 X-0.9169 Y2.4517  
G01 X-0.8951 Y2.4735  
G01 X-0.8549 Y2.4735  
G00 Z0.0500  
G00 X-1.0383 Y2.3239  
G01 Z-0.0040 F10    
G01 X-1.0369 Y2.3223  F20    
G01 X-1.0354 Y2.3208  
G01 X-1.0353 Y2.3206  
G01 X-1.0351 Y2.3204  
G01 X-1.0341 Y2.3185  
G01 X-1.0331 Y2.3167  
G01 X-1.0331 Y2.3164  
G01 X-1.0329 Y2.3162  
G01 X-1.0325 Y2.3141  
G01 X-1.0320 Y2.3121  
G01 X-1.0320 Y2.3118  
G01 X-1.0127 Y2.2250  
G01 X-1.0123 Y2.2239  
G01 X-1.0122 Y2.2227  
G01 X-1.0119 Y2.2216  
G01 X-1.0120 Y2.2204  
G01 X-1.0022 Y2.1031  
G01 X-1.0020 Y2.1024  
G01 X-1.0020 Y2.1007  
G01 X-1.0019 Y2.0991  
G01 X-1.0020 Y2.0984  
G01 X-1.0020 Y1.8776  
G01 X-1.0032 Y1.8731  
G01 X-1.0056 Y1.8689  
G01 X-1.0680 Y1.8065  
G01 X-1.0680 Y1.7867  
G01 X-1.0867 Y1.7680  
G01 X-1.0917 Y1.7680  
G01 X-1.1328 Y1.6445  
G01 X-1.1335 Y1.6425  
G01 X-1.1336 Y1.6423  
G01 X-1.1337 Y1.6421  
G01 X-1.1348 Y1.6403  
G01 X-1.1360 Y1.6385  
G01 X-1.1361 Y1.6383  
G01 X-1.1363 Y1.6381  
G01 X-1.1379 Y1.6367  
G01 X-1.1394 Y1.6352  
G01 X-1.1396 Y1.6351  
G01 X-1.1398 Y1.6350  
G01 X-1.1417 Y1.6340  
G01 X-1.1436 Y1.6330  
G01 X-1.1438 Y1.6330  
G01 X-1.1441 Y1.6328  
G01 X-1.1461 Y1.6324  
G01 X-1.2701 Y1.6035  
G01 X-1.2716 Y1.5998  
G01 X-1.2751 Y1.5946  
G01 X-1.2796 Y1.5901  
G01 X-1.2848 Y1.5866  
G01 X-1.2907 Y1.5842  
G01 X-1.2968 Y1.5830  
G01 X-1.3032 Y1.5830  
G01 X-1.3093 Y1.5842  
G01 X-1.3152 Y1.5866  
G01 X-1.3204 Y1.5901  
G01 X-1.3249 Y1.5946  
G01 X-1.3284 Y1.5998  
G01 X-1.3308 Y1.6057  
G01 X-1.3320 Y1.6118  
G01 X-1.3320 Y1.6182  
G01 X-1.3308 Y1.6243  
G01 X-1.3284 Y1.6302  
G01 X-1.3249 Y1.6354  
G01 X-1.3204 Y1.6399  
G01 X-1.3152 Y1.6434  
G01 X-1.3093 Y1.6458  
G01 X-1.3032 Y1.6470  
G01 X-1.2968 Y1.6470  
G01 X-1.2907 Y1.6458  
G01 X-1.2848 Y1.6434  
G01 X-1.2796 Y1.6399  
G01 X-1.2783 Y1.6385  
G01 X-1.1639 Y1.6652  
G01 X-1.1255 Y1.7803  
G01 X-1.1320 Y1.7867  
G01 X-1.1320 Y1.8133  
G01 X-1.1133 Y1.8320  
G01 X-1.0935 Y1.8320  
G01 X-1.0380 Y1.8875  
G01 X-1.0380 Y2.0993  
G01 X-1.0478 Y2.2173  
G01 X-1.0659 Y2.2985  
G01 X-1.2650 Y2.4180  
G01 X-1.2883 Y2.4180  
G01 X-1.3070 Y2.4367  
G01 X-1.3070 Y2.4420  
G01 X-1.7325 Y2.4420  
G01 X-1.7470 Y2.4275  
G01 X-1.7470 Y2.3173  
G01 X-1.7330 Y2.3033  
G01 X-1.7330 Y2.2767  
G01 X-1.7517 Y2.2580  
G01 X-1.7783 Y2.2580  
G01 X-1.7970 Y2.2767  
G01 X-1.7970 Y2.3033  
G01 X-1.7830 Y2.3173  
G01 X-1.7830 Y2.4374  
G01 X-1.7818 Y2.4419  
G01 X-1.7794 Y2.4461  
G01 X-1.7544 Y2.4711  
G01 X-1.7511 Y2.4744  
G01 X-1.7469 Y2.4768  
G01 X-1.7424 Y2.4780  
G01 X-1.2930 Y2.4780  
G01 X-1.2930 Y2.5227  
G01 X-1.3070 Y2.5367  
G01 X-1.3070 Y2.5633  
G01 X-1.2930 Y2.5773  
G01 X-1.2930 Y2.6227  
G01 X-1.3070 Y2.6367  
G01 X-1.3070 Y2.6633  
G01 X-1.2930 Y2.6773  
G01 X-1.2930 Y2.7227  
G01 X-1.3023 Y2.7320  
G01 X-1.5227 Y2.7320  
G01 X-1.5367 Y2.7180  
G01 X-1.5633 Y2.7180  
G01 X-1.5820 Y2.7367  
G01 X-1.5820 Y2.7633  
G01 X-1.5633 Y2.7820  
G01 X-1.5367 Y2.7820  
G01 X-1.5227 Y2.7680  
G01 X-1.3023 Y2.7680  
G01 X-1.2883 Y2.7820  
G01 X-1.2617 Y2.7820  
G01 X-1.2430 Y2.7633  
G01 X-1.2430 Y2.7367  
G01 X-1.2570 Y2.7227  
G01 X-1.2570 Y2.6773  
G01 X-1.2430 Y2.6633  
G01 X-1.2430 Y2.6367  
G01 X-1.2570 Y2.6227  
G01 X-1.2570 Y2.5773  
G01 X-1.2430 Y2.5633  
G01 X-1.2430 Y2.5367  
G01 X-1.2570 Y2.5227  
G01 X-1.2570 Y2.4773  
G01 X-1.2430 Y2.4633  
G01 X-1.2430 Y2.4468  
G01 X-1.0426 Y2.3265  
G01 X-1.0423 Y2.3265  
G01 X-1.0405 Y2.3253  
G01 X-1.0387 Y2.3242  
G01 X-1.0385 Y2.3240  
G01 X-1.0383 Y2.3239  
G00 Z0.0500  
G00 X-1.0870 Y2.2325  
G01 Z-0.0040 F10    
G01 X-1.0856 Y2.2311  F20    
G01 X-1.0854 Y2.2307  
G01 X-1.0851 Y2.2304  
G01 X-1.0842 Y2.2287  
G01 X-1.0832 Y2.2269  
G01 X-1.0831 Y2.2266  
G01 X-1.0829 Y2.2262  
G01 X-1.0825 Y2.2243  
G01 X-1.0820 Y2.2224  
G01 X-1.0820 Y2.2220  
G01 X-1.0819 Y2.2216  
G01 X-1.0820 Y2.2196  
G01 X-1.0820 Y2.0273  
G01 X-1.0680 Y2.0133  
G01 X-1.0680 Y1.9867  
G01 X-1.0867 Y1.9680  
G01 X-1.1065 Y1.9680  
G01 X-1.1389 Y1.9356  
G01 X-1.1431 Y1.9332  
G01 X-1.1476 Y1.9320  
G01 X-1.1925 Y1.9320  
G01 X-1.1941 Y1.9296  
G01 X-1.1986 Y1.9251  
G01 X-1.2038 Y1.9216  
G01 X-1.2097 Y1.9192  
G01 X-1.2158 Y1.9180  
G01 X-1.2322 Y1.9180  
G01 X-1.2572 Y1.7723  
G01 X-1.2575 Y1.7703  
G01 X-1.2576 Y1.7700  
G01 X-1.2577 Y1.7696  
G01 X-1.2585 Y1.7678  
G01 X-1.2732 Y1.7325  
G01 X-1.2716 Y1.7302  
G01 X-1.2692 Y1.7243  
G01 X-1.2680 Y1.7182  
G01 X-1.2680 Y1.7118  
G01 X-1.2692 Y1.7057  
G01 X-1.2716 Y1.6998  
G01 X-1.2751 Y1.6946  
G01 X-1.2796 Y1.6901  
G01 X-1.2848 Y1.6866  
G01 X-1.2907 Y1.6842  
G01 X-1.2968 Y1.6830  
G01 X-1.3032 Y1.6830  
G01 X-1.3093 Y1.6842  
G01 X-1.3152 Y1.6866  
G01 X-1.3204 Y1.6901  
G01 X-1.3249 Y1.6946  
G01 X-1.3284 Y1.6998  
G01 X-1.3308 Y1.7057  
G01 X-1.3320 Y1.7118  
G01 X-1.3320 Y1.7182  
G01 X-1.3308 Y1.7243  
G01 X-1.3284 Y1.7302  
G01 X-1.3249 Y1.7354  
G01 X-1.3204 Y1.7399  
G01 X-1.3152 Y1.7434  
G01 X-1.3093 Y1.7458  
G01 X-1.3064 Y1.7463  
G01 X-1.2924 Y1.7800  
G01 X-1.2687 Y1.9180  
G01 X-1.2742 Y1.9180  
G01 X-1.2803 Y1.9192  
G01 X-1.2862 Y1.9216  
G01 X-1.2914 Y1.9251  
G01 X-1.2959 Y1.9296  
G01 X-1.2994 Y1.9348  
G01 X-1.3018 Y1.9407  
G01 X-1.3030 Y1.9468  
G01 X-1.3030 Y1.9532  
G01 X-1.3018 Y1.9593  
G01 X-1.2994 Y1.9652  
G01 X-1.2959 Y1.9704  
G01 X-1.2914 Y1.9749  
G01 X-1.2862 Y1.9784  
G01 X-1.2803 Y1.9808  
G01 X-1.2742 Y1.9820  
G01 X-1.2158 Y1.9820  
G01 X-1.2097 Y1.9808  
G01 X-1.2038 Y1.9784  
G01 X-1.1986 Y1.9749  
G01 X-1.1941 Y1.9704  
G01 X-1.1925 Y1.9680  
G01 X-1.1575 Y1.9680  
G01 X-1.1320 Y1.9935  
G01 X-1.1320 Y2.0133  
G01 X-1.1180 Y2.0273  
G01 X-1.1180 Y2.2130  
G01 X-1.2201 Y2.3244  
G01 X-1.3052 Y2.3528  
G01 X-1.3069 Y2.3532  
G01 X-1.3074 Y2.3535  
G01 X-1.3079 Y2.3537  
G01 X-1.3095 Y2.3547  
G01 X-1.3111 Y2.3556  
G01 X-1.3114 Y2.3560  
G01 X-1.3119 Y2.3563  
G01 X-1.3131 Y2.3577  
G01 X-1.3275 Y2.3720  
G01 X-1.6125 Y2.3720  
G01 X-1.6470 Y2.3375  
G01 X-1.6470 Y2.3173  
G01 X-1.6330 Y2.3033  
G01 X-1.6330 Y2.2767  
G01 X-1.6517 Y2.2580  
G01 X-1.6783 Y2.2580  
G01 X-1.6970 Y2.2767  
G01 X-1.6970 Y2.3033  
G01 X-1.6830 Y2.3173  
G01 X-1.6830 Y2.3474  
G01 X-1.6818 Y2.3519  
G01 X-1.6794 Y2.3561  
G01 X-1.6344 Y2.4011  
G01 X-1.6311 Y2.4044  
G01 X-1.6269 Y2.4068  
G01 X-1.6224 Y2.4080  
G01 X-1.3176 Y2.4080  
G01 X-1.3131 Y2.4068  
G01 X-1.3089 Y2.4044  
G01 X-1.2903 Y2.3857  
G01 X-1.2044 Y2.3571  
G01 X-1.2023 Y2.3565  
G01 X-1.2022 Y2.3564  
G01 X-1.2021 Y2.3563  
G01 X-1.2002 Y2.3551  
G01 X-1.1983 Y2.3539  
G01 X-1.1982 Y2.3538  
G01 X-1.1981 Y2.3537  
G01 X-1.1966 Y2.3521  
G01 X-1.0870 Y2.2325  
G00 Z0.0500  
G00 X-1.2320 Y2.2256  
G01 Z-0.0040 F10    
G01 X-1.2291 Y2.1820  F20    
G01 X-1.2158 Y2.1820  
G01 X-1.2097 Y2.1808  
G01 X-1.2038 Y2.1784  
G01 X-1.1986 Y2.1749  
G01 X-1.1941 Y2.1704  
G01 X-1.1906 Y2.1652  
G01 X-1.1882 Y2.1593  
G01 X-1.1870 Y2.1532  
G01 X-1.1870 Y2.1468  
G01 X-1.1882 Y2.1407  
G01 X-1.1906 Y2.1348  
G01 X-1.1941 Y2.1296  
G01 X-1.1986 Y2.1251  
G01 X-1.2038 Y2.1216  
G01 X-1.2097 Y2.1192  
G01 X-1.2158 Y2.1180  
G01 X-1.2742 Y2.1180  
G01 X-1.2803 Y2.1192  
G01 X-1.2862 Y2.1216  
G01 X-1.2914 Y2.1251  
G01 X-1.2959 Y2.1296  
G01 X-1.2994 Y2.1348  
G01 X-1.3018 Y2.1407  
G01 X-1.3030 Y2.1468  
G01 X-1.3030 Y2.1532  
G01 X-1.3018 Y2.1593  
G01 X-1.2994 Y2.1652  
G01 X-1.2959 Y2.1704  
G01 X-1.2914 Y2.1749  
G01 X-1.2862 Y2.1784  
G01 X-1.2803 Y2.1808  
G01 X-1.2742 Y2.1820  
G01 X-1.2652 Y2.1820  
G01 X-1.2678 Y2.2220  
G01 X-1.2680 Y2.2226  
G01 X-1.2680 Y2.2244  
G01 X-1.2681 Y2.2262  
G01 X-1.2680 Y2.2268  
G01 X-1.2680 Y2.2477  
G01 X-1.2820 Y2.2617  
G01 X-1.2820 Y2.2883  
G01 X-1.2633 Y2.3070  
G01 X-1.2367 Y2.3070  
G01 X-1.2180 Y2.2883  
G01 X-1.2180 Y2.2617  
G01 X-1.2320 Y2.2477  
G01 X-1.2320 Y2.2256  
G00 Z0.0500  
G00 X-1.2158 Y2.0820  
G01 Z-0.0040 F10    
G01 X-1.2097 Y2.0808  F20    
G01 X-1.2038 Y2.0784  
G01 X-1.1986 Y2.0749  
G01 X-1.1941 Y2.0704  
G01 X-1.1906 Y2.0652  
G01 X-1.1882 Y2.0593  
G01 X-1.1870 Y2.0532  
G01 X-1.1870 Y2.0468  
G01 X-1.1882 Y2.0407  
G01 X-1.1906 Y2.0348  
G01 X-1.1941 Y2.0296  
G01 X-1.1986 Y2.0251  
G01 X-1.2038 Y2.0216  
G01 X-1.2097 Y2.0192  
G01 X-1.2158 Y2.0180  
G01 X-1.2742 Y2.0180  
G01 X-1.2803 Y2.0192  
G01 X-1.2862 Y2.0216  
G01 X-1.2914 Y2.0251  
G01 X-1.2959 Y2.0296  
G01 X-1.2994 Y2.0348  
G01 X-1.3018 Y2.0407  
G01 X-1.3019 Y2.0412  
G01 X-1.3378 Y2.0472  
G01 X-1.3399 Y2.0475  
G01 X-1.3401 Y2.0476  
G01 X-1.3403 Y2.0476  
G01 X-1.3423 Y2.0485  
G01 X-1.3442 Y2.0494  
G01 X-1.3444 Y2.0495  
G01 X-1.3446 Y2.0496  
G01 X-1.3463 Y2.0510  
G01 X-1.3480 Y2.0523  
G01 X-1.3481 Y2.0525  
G01 X-1.3483 Y2.0526  
G01 X-1.3495 Y2.0544  
G01 X-1.3590 Y2.0670  
G01 X-1.3900 Y2.0670  
G01 X-1.3923 Y2.0670  
G01 X-1.3946 Y2.0676  
G01 X-1.3969 Y2.0682  
G01 X-1.3990 Y2.0694  
G01 X-1.4298 Y2.0870  
G01 X-1.4882 Y2.0870  
G01 X-1.5180 Y2.0610  
G01 X-1.5223 Y2.0266  
G01 X-1.5170 Y2.0228  
G01 X-1.5122 Y2.0180  
G01 X-1.5082 Y2.0125  
G01 X-1.5052 Y2.0065  
G01 X-1.5031 Y2.0001  
G01 X-1.5020 Y1.9934  
G01 X-1.5020 Y1.9866  
G01 X-1.5031 Y1.9799  
G01 X-1.5052 Y1.9735  
G01 X-1.5082 Y1.9675  
G01 X-1.5122 Y1.9620  
G01 X-1.5170 Y1.9572  
G01 X-1.5225 Y1.9532  
G01 X-1.5285 Y1.9502  
G01 X-1.5349 Y1.9481  
G01 X-1.5416 Y1.9470  
G01 X-1.5484 Y1.9470  
G01 X-1.5551 Y1.9481  
G01 X-1.5615 Y1.9502  
G01 X-1.5675 Y1.9532  
G01 X-1.5730 Y1.9572  
G01 X-1.5778 Y1.9620  
G01 X-1.5818 Y1.9675  
G01 X-1.5848 Y1.9735  
G01 X-1.5869 Y1.9799  
G01 X-1.5880 Y1.9866  
G01 X-1.5880 Y1.9934  
G01 X-1.5877 Y1.9951  
G01 X-1.9220 Y2.2001  
G01 X-1.9430 Y2.1925  
G01 X-1.9430 Y2.1867  
G01 X-1.9617 Y2.1680  
G01 X-1.9883 Y2.1680  
G01 X-2.0070 Y2.1867  
G01 X-2.0070 Y2.2133  
G01 X-1.9883 Y2.2320  
G01 X-1.9617 Y2.2320  
G01 X-1.9559 Y2.2261  
G01 X-1.9274 Y2.2365  
G01 X-1.9265 Y2.2370  
G01 X-1.9252 Y2.2373  
G01 X-1.9239 Y2.2377  
G01 X-1.9229 Y2.2378  
G01 X-1.9219 Y2.2381  
G01 X-1.9205 Y2.2380  
G01 X-1.9192 Y2.2381  
G01 X-1.9182 Y2.2380  
G01 X-1.9172 Y2.2379  
G01 X-1.9159 Y2.2375  
G01 X-1.9145 Y2.2373  
G01 X-1.9136 Y2.2369  
G01 X-1.9126 Y2.2366  
G01 X-1.9115 Y2.2359  
G01 X-1.9102 Y2.2353  
G01 X-1.9094 Y2.2346  
G01 X-1.5689 Y2.0258  
G01 X-1.5675 Y2.0268  
G01 X-1.5615 Y2.0298  
G01 X-1.5580 Y2.0310  
G01 X-1.5529 Y2.0717  
G01 X-1.5528 Y2.0736  
G01 X-1.5526 Y2.0741  
G01 X-1.5526 Y2.0746  
G01 X-1.5519 Y2.0763  
G01 X-1.5513 Y2.0780  
G01 X-1.5510 Y2.0785  
G01 X-1.5508 Y2.0790  
G01 X-1.5497 Y2.0804  
G01 X-1.5486 Y2.0820  
G01 X-1.5482 Y2.0823  
G01 X-1.5479 Y2.0828  
G01 X-1.5465 Y2.0839  
G01 X-1.5073 Y2.1182  
G01 X-1.5061 Y2.1194  
G01 X-1.5055 Y2.1197  
G01 X-1.5051 Y2.1201  
G01 X-1.5035 Y2.1209  
G01 X-1.5019 Y2.1218  
G01 X-1.5014 Y2.1219  
G01 X-1.5008 Y2.1222  
G01 X-1.4991 Y2.1225  
G01 X-1.4974 Y2.1230  
G01 X-1.4968 Y2.1230  
G01 X-1.4962 Y2.1231  
G01 X-1.4944 Y2.1230  
G01 X-1.4250 Y2.1230  
G01 X-1.4227 Y2.1230  
G01 X-1.4204 Y2.1224  
G01 X-1.4181 Y2.1218  
G01 X-1.4160 Y2.1206  
G01 X-1.3852 Y2.1030  
G01 X-1.3511 Y2.1030  
G01 X-1.3498 Y2.1032  
G01 X-1.3487 Y2.1030  
G01 X-1.3476 Y2.1030  
G01 X-1.3464 Y2.1027  
G01 X-1.3451 Y2.1025  
G01 X-1.3441 Y2.1021  
G01 X-1.3431 Y2.1018  
G01 X-1.3419 Y2.1011  
G01 X-1.3407 Y2.1006  
G01 X-1.3399 Y2.0999  
G01 X-1.3389 Y2.0994  
G01 X-1.3380 Y2.0985  
G01 X-1.3370 Y2.0977  
G01 X-1.3364 Y2.0968  
G01 X-1.3356 Y2.0961  
G01 X-1.3350 Y2.0949  
G01 X-1.3249 Y2.0816  
G01 X-1.2901 Y2.0758  
G01 X-1.2862 Y2.0784  
G01 X-1.2803 Y2.0808  
G01 X-1.2742 Y2.0820  
G01 X-1.2158 Y2.0820  
G00 Z0.0500  
G00 X-1.4117 Y2.0320  
G01 Z-0.0040 F10    
G01 X-1.3930 Y2.0133  F20    
G01 X-1.3930 Y1.9867  
G01 X-1.4117 Y1.9680  
G01 X-1.4226 Y1.9680  
G01 X-1.4481 Y1.9234  
G01 X-1.4519 Y1.9066  
G01 X-1.4516 Y1.9062  
G01 X-1.4492 Y1.9003  
G01 X-1.4480 Y1.8942  
G01 X-1.4480 Y1.8830  
G01 X-1.4120 Y1.8830  
G01 X-1.4120 Y1.8942  
G01 X-1.4108 Y1.9003  
G01 X-1.4084 Y1.9062  
G01 X-1.4049 Y1.9114  
G01 X-1.4004 Y1.9159  
G01 X-1.3952 Y1.9194  
G01 X-1.3893 Y1.9218  
G01 X-1.3832 Y1.9230  
G01 X-1.3768 Y1.9230  
G01 X-1.3707 Y1.9218  
G01 X-1.3648 Y1.9194  
G01 X-1.3596 Y1.9159  
G01 X-1.3551 Y1.9114  
G01 X-1.3516 Y1.9062  
G01 X-1.3492 Y1.9003  
G01 X-1.3480 Y1.8942  
G01 X-1.3480 Y1.8358  
G01 X-1.3492 Y1.8297  
G01 X-1.3516 Y1.8238  
G01 X-1.3551 Y1.8186  
G01 X-1.3596 Y1.8141  
G01 X-1.3648 Y1.8106  
G01 X-1.3707 Y1.8082  
G01 X-1.3768 Y1.8070  
G01 X-1.3832 Y1.8070  
G01 X-1.3893 Y1.8082  
G01 X-1.3952 Y1.8106  
G01 X-1.4004 Y1.8141  
G01 X-1.4049 Y1.8186  
G01 X-1.4084 Y1.8238  
G01 X-1.4108 Y1.8297  
G01 X-1.4120 Y1.8358  
G01 X-1.4120 Y1.8470  
G01 X-1.4480 Y1.8470  
G01 X-1.4480 Y1.8358  
G01 X-1.4492 Y1.8297  
G01 X-1.4516 Y1.8238  
G01 X-1.4551 Y1.8186  
G01 X-1.4596 Y1.8141  
G01 X-1.4648 Y1.8106  
G01 X-1.4707 Y1.8082  
G01 X-1.4768 Y1.8070  
G01 X-1.4832 Y1.8070  
G01 X-1.4893 Y1.8082  
G01 X-1.4952 Y1.8106  
G01 X-1.5004 Y1.8141  
G01 X-1.5049 Y1.8186  
G01 X-1.5084 Y1.8238  
G01 X-1.5108 Y1.8297  
G01 X-1.5120 Y1.8358  
G01 X-1.5120 Y1.8942  
G01 X-1.5108 Y1.9003  
G01 X-1.5084 Y1.9062  
G01 X-1.5049 Y1.9114  
G01 X-1.5004 Y1.9159  
G01 X-1.4952 Y1.9194  
G01 X-1.4893 Y1.9218  
G01 X-1.4852 Y1.9226  
G01 X-1.4830 Y1.9320  
G01 X-1.4830 Y1.9323  
G01 X-1.4825 Y1.9343  
G01 X-1.4820 Y1.9364  
G01 X-1.4819 Y1.9366  
G01 X-1.4818 Y1.9369  
G01 X-1.4808 Y1.9387  
G01 X-1.4798 Y1.9405  
G01 X-1.4796 Y1.9407  
G01 X-1.4546 Y1.9844  
G01 X-1.4570 Y1.9867  
G01 X-1.4570 Y2.0133  
G01 X-1.4383 Y2.0320  
G01 X-1.4117 Y2.0320  
G00 Z0.0500  
G00 X-1.4117 Y2.2680  
G01 Z-0.0040 F10    
G01 X-1.4383 Y2.2680  F20    
G01 X-1.4501 Y2.2798  
G01 X-1.5046 Y2.2753  
G01 X-1.5052 Y2.2735  
G01 X-1.5082 Y2.2675  
G01 X-1.5122 Y2.2620  
G01 X-1.5170 Y2.2572  
G01 X-1.5225 Y2.2532  
G01 X-1.5285 Y2.2502  
G01 X-1.5349 Y2.2481  
G01 X-1.5416 Y2.2470  
G01 X-1.5484 Y2.2470  
G01 X-1.5551 Y2.2481  
G01 X-1.5615 Y2.2502  
G01 X-1.5675 Y2.2532  
G01 X-1.5730 Y2.2572  
G01 X-1.5778 Y2.2620  
G01 X-1.5818 Y2.2675  
G01 X-1.5848 Y2.2735  
G01 X-1.5869 Y2.2799  
G01 X-1.5880 Y2.2866  
G01 X-1.5880 Y2.2934  
G01 X-1.5869 Y2.3001  
G01 X-1.5848 Y2.3065  
G01 X-1.5818 Y2.3125  
G01 X-1.5778 Y2.3180  
G01 X-1.5730 Y2.3228  
G01 X-1.5675 Y2.3268  
G01 X-1.5615 Y2.3298  
G01 X-1.5551 Y2.3319  
G01 X-1.5484 Y2.3330  
G01 X-1.5416 Y2.3330  
G01 X-1.5349 Y2.3319  
G01 X-1.5285 Y2.3298  
G01 X-1.5225 Y2.3268  
G01 X-1.5170 Y2.3228  
G01 X-1.5122 Y2.3180  
G01 X-1.5082 Y2.3125  
G01 X-1.5075 Y2.3112  
G01 X-1.4547 Y2.3156  
G01 X-1.4383 Y2.3320  
G01 X-1.4117 Y2.3320  
G01 X-1.3930 Y2.3133  
G01 X-1.3930 Y2.2867  
G01 X-1.4117 Y2.2680  
G00 Z0.0500  
G00 X-1.5596 Y1.9159  
G01 Z-0.0040 F10    
G01 X-1.5551 Y1.9114  F20    
G01 X-1.5516 Y1.9062  
G01 X-1.5492 Y1.9003  
G01 X-1.5480 Y1.8942  
G01 X-1.5480 Y1.8358  
G01 X-1.5492 Y1.8297  
G01 X-1.5516 Y1.8238  
G01 X-1.5551 Y1.8186  
G01 X-1.5596 Y1.8141  
G01 X-1.5648 Y1.8106  
G01 X-1.5707 Y1.8082  
G01 X-1.5768 Y1.8070  
G01 X-1.5832 Y1.8070  
G01 X-1.5893 Y1.8082  
G01 X-1.5952 Y1.8106  
G01 X-1.6004 Y1.8141  
G01 X-1.6049 Y1.8186  
G01 X-1.6084 Y1.8238  
G01 X-1.6108 Y1.8297  
G01 X-1.6120 Y1.8358  
G01 X-1.6120 Y1.8519  
G01 X-1.6994 Y1.8659  
G01 X-1.8130 Y1.7644  
G01 X-1.8130 Y1.7611  
G01 X-1.7647 Y1.7306  
G01 X-1.7633 Y1.7320  
G01 X-1.7367 Y1.7320  
G01 X-1.7180 Y1.7133  
G01 X-1.7180 Y1.7026  
G01 X-1.6142 Y1.6437  
G01 X-1.6093 Y1.6458  
G01 X-1.6032 Y1.6470  
G01 X-1.5968 Y1.6470  
G01 X-1.5907 Y1.6458  
G01 X-1.5848 Y1.6434  
G01 X-1.5796 Y1.6399  
G01 X-1.5751 Y1.6354  
G01 X-1.5716 Y1.6302  
G01 X-1.5692 Y1.6243  
G01 X-1.5680 Y1.6182  
G01 X-1.5680 Y1.6118  
G01 X-1.5692 Y1.6057  
G01 X-1.5716 Y1.5998  
G01 X-1.5751 Y1.5946  
G01 X-1.5796 Y1.5901  
G01 X-1.5848 Y1.5866  
G01 X-1.5907 Y1.5842  
G01 X-1.5968 Y1.5830  
G01 X-1.6032 Y1.5830  
G01 X-1.6093 Y1.5842  
G01 X-1.6152 Y1.5866  
G01 X-1.6204 Y1.5901  
G01 X-1.6249 Y1.5946  
G01 X-1.6284 Y1.5998  
G01 X-1.6308 Y1.6057  
G01 X-1.6320 Y1.6118  
G01 X-1.6320 Y1.6124  
G01 X-1.7343 Y1.6704  
G01 X-1.7367 Y1.6680  
G01 X-1.7633 Y1.6680  
G01 X-1.7820 Y1.6867  
G01 X-1.7820 Y1.6989  
G01 X-1.8303 Y1.7294  
G01 X-1.8317 Y1.7280  
G01 X-1.8583 Y1.7280  
G01 X-1.8770 Y1.7467  
G01 X-1.8770 Y1.7733  
G01 X-1.8583 Y1.7920  
G01 X-1.8362 Y1.7920  
G01 X-1.7181 Y1.8975  
G01 X-1.7175 Y1.8982  
G01 X-1.7163 Y1.8990  
G01 X-1.7152 Y1.9000  
G01 X-1.7144 Y1.9004  
G01 X-1.7136 Y1.9010  
G01 X-1.7123 Y1.9015  
G01 X-1.7110 Y1.9021  
G01 X-1.7101 Y1.9023  
G01 X-1.7092 Y1.9027  
G01 X-1.7078 Y1.9028  
G01 X-1.7063 Y1.9031  
G01 X-1.7054 Y1.9031  
G01 X-1.7045 Y1.9031  
G01 X-1.7031 Y1.9029  
G01 X-1.7016 Y1.9028  
G01 X-1.7007 Y1.9025  
G01 X-1.6120 Y1.8883  
G01 X-1.6120 Y1.8942  
G01 X-1.6108 Y1.9003  
G01 X-1.6084 Y1.9062  
G01 X-1.6049 Y1.9114  
G01 X-1.6004 Y1.9159  
G01 X-1.5952 Y1.9194  
G01 X-1.5893 Y1.9218  
G01 X-1.5832 Y1.9230  
G01 X-1.5768 Y1.9230  
G01 X-1.5707 Y1.9218  
G01 X-1.5648 Y1.9194  
G01 X-1.5596 Y1.9159  
G00 Z0.0500  
G00 X-1.6479 Y1.8338  
G01 Z-0.0040 F10    
G01 X-1.6462 Y1.8321  F20    
G01 X-1.6453 Y1.8299  
G01 X-1.6453 Y1.7864  
G01 X-1.6425 Y1.7831  
G01 X-1.6052 Y1.7551  
G01 X-1.6042 Y1.7546  
G01 X-1.6033 Y1.7537  
G01 X-1.6023 Y1.7530  
G01 X-1.6016 Y1.7521  
G01 X-1.6008 Y1.7513  
G01 X-1.6001 Y1.7502  
G01 X-1.5994 Y1.7492  
G01 X-1.5989 Y1.7482  
G01 X-1.5982 Y1.7470  
G01 X-1.5968 Y1.7470  
G01 X-1.5907 Y1.7458  
G01 X-1.5848 Y1.7434  
G01 X-1.5796 Y1.7399  
G01 X-1.5751 Y1.7354  
G01 X-1.5716 Y1.7302  
G01 X-1.5692 Y1.7243  
G01 X-1.5680 Y1.7182  
G01 X-1.5680 Y1.7118  
G01 X-1.5692 Y1.7057  
G01 X-1.5716 Y1.6998  
G01 X-1.5751 Y1.6946  
G01 X-1.5796 Y1.6901  
G01 X-1.5848 Y1.6866  
G01 X-1.5907 Y1.6842  
G01 X-1.5968 Y1.6830  
G01 X-1.6032 Y1.6830  
G01 X-1.6093 Y1.6842  
G01 X-1.6152 Y1.6866  
G01 X-1.6204 Y1.6901  
G01 X-1.6249 Y1.6946  
G01 X-1.6284 Y1.6998  
G01 X-1.6308 Y1.7057  
G01 X-1.6320 Y1.7118  
G01 X-1.6320 Y1.7182  
G01 X-1.6308 Y1.7243  
G01 X-1.6292 Y1.7281  
G01 X-1.6656 Y1.7554  
G01 X-1.6673 Y1.7567  
G01 X-1.6675 Y1.7569  
G01 X-1.6677 Y1.7570  
G01 X-1.6690 Y1.7587  
G01 X-1.6828 Y1.7753  
G01 X-1.6999 Y1.7753  
G01 X-1.7021 Y1.7762  
G01 X-1.7038 Y1.7779  
G01 X-1.7047 Y1.7801  
G01 X-1.7047 Y1.8299  
G01 X-1.7038 Y1.8321  
G01 X-1.7021 Y1.8338  
G01 X-1.6999 Y1.8347  
G01 X-1.6501 Y1.8347  
G01 X-1.6479 Y1.8338  
G00 Z0.0500  
G00 X-1.7180 Y1.9867  
G01 Z-0.0040 F10    
G01 X-1.7367 Y1.9680  F20    
G01 X-1.7633 Y1.9680  
G01 X-1.7706 Y1.9754  
G01 X-1.8930 Y1.9404  
G01 X-1.8930 Y1.9367  
G01 X-1.9117 Y1.9180  
G01 X-1.9383 Y1.9180  
G01 X-1.9570 Y1.9367  
G01 X-1.9570 Y1.9633  
G01 X-1.9383 Y1.9820  
G01 X-1.9356 Y1.9820  
G01 X-1.9187 Y2.0493  
G01 X-1.9333 Y2.0930  
G01 X-1.9383 Y2.0930  
G01 X-1.9570 Y2.1117  
G01 X-1.9570 Y2.1383  
G01 X-1.9383 Y2.1570  
G01 X-1.9117 Y2.1570  
G01 X-1.8930 Y2.1383  
G01 X-1.8930 Y2.1117  
G01 X-1.8995 Y2.1053  
G01 X-1.8835 Y2.0576  
G01 X-1.8833 Y2.0572  
G01 X-1.8828 Y2.0553  
G01 X-1.8822 Y2.0534  
G01 X-1.8822 Y2.0531  
G01 X-1.8820 Y2.0527  
G01 X-1.8820 Y2.0507  
G01 X-1.8819 Y2.0487  
G01 X-1.8820 Y2.0483  
G01 X-1.8820 Y2.0479  
G01 X-1.8824 Y2.0460  
G01 X-1.8828 Y2.0441  
G01 X-1.8830 Y2.0437  
G01 X-1.9000 Y1.9759  
G01 X-1.7820 Y2.0096  
G01 X-1.7820 Y2.0133  
G01 X-1.7633 Y2.0320  
G01 X-1.7367 Y2.0320  
G01 X-1.7180 Y2.0133  
G01 X-1.7180 Y1.9867  
G00 Z0.0500  
G00 X-1.9430 Y2.0117  
G01 Z-0.0040 F10    
G01 X-1.9617 Y1.9930  F20    
G01 X-1.9883 Y1.9930  
G01 X-2.0023 Y2.0070  
G01 X-2.1946 Y2.0070  
G01 X-2.1966 Y2.0069  
G01 X-2.1970 Y2.0070  
G01 X-2.1974 Y2.0070  
G01 X-2.1992 Y2.0075  
G01 X-2.2032 Y1.9747  
G01 X-2.2001 Y1.9747  
G01 X-2.1979 Y1.9738  
G01 X-2.1962 Y1.9721  
G01 X-2.1953 Y1.9699  
G01 X-2.1953 Y1.9201  
G01 X-2.1962 Y1.9179  
G01 X-2.1979 Y1.9162  
G01 X-2.2001 Y1.9153  
G01 X-2.2499 Y1.9153  
G01 X-2.2521 Y1.9162  
G01 X-2.2538 Y1.9179  
G01 X-2.2547 Y1.9201  
G01 X-2.2547 Y1.9699  
G01 X-2.2538 Y1.9721  
G01 X-2.2521 Y1.9738  
G01 X-2.2499 Y1.9747  
G01 X-2.2395 Y1.9747  
G01 X-2.2188 Y2.1448  
G01 X-2.3838 Y2.3570  
G01 X-2.4227 Y2.3570  
G01 X-2.4367 Y2.3430  
G01 X-2.4633 Y2.3430  
G01 X-2.4773 Y2.3570  
G01 X-2.6183 Y2.3570  
G01 X-2.7680 Y2.2287  
G01 X-2.7680 Y2.2117  
G01 X-2.7867 Y2.1930  
G01 X-2.8133 Y2.1930  
G01 X-2.8273 Y2.2070  
G01 X-2.8703 Y2.2070  
G01 X-2.8703 Y2.2001  
G01 X-2.8712 Y2.1979  
G01 X-2.8729 Y2.1962  
G01 X-2.8751 Y2.1953  
G01 X-2.9249 Y2.1953  
G01 X-2.9271 Y2.1962  
G01 X-2.9288 Y2.1979  
G01 X-2.9297 Y2.2001  
G01 X-2.9297 Y2.2499  
G01 X-2.9288 Y2.2521  
G01 X-2.9271 Y2.2538  
G01 X-2.9249 Y2.2547  
G01 X-2.8751 Y2.2547  
G01 X-2.8729 Y2.2538  
G01 X-2.8712 Y2.2521  
G01 X-2.8703 Y2.2499  
G01 X-2.8703 Y2.2430  
G01 X-2.8273 Y2.2430  
G01 X-2.8212 Y2.2491  
G01 X-2.8393 Y2.3940  
G01 X-2.8570 Y2.4117  
G01 X-2.8570 Y2.4383  
G01 X-2.8383 Y2.4570  
G01 X-2.8117 Y2.4570  
G01 X-2.7930 Y2.4383  
G01 X-2.7930 Y2.4117  
G01 X-2.8038 Y2.4009  
G01 X-2.7863 Y2.2605  
G01 X-2.6372 Y2.3882  
G01 X-2.6361 Y2.3894  
G01 X-2.6354 Y2.3898  
G01 X-2.6349 Y2.3902  
G01 X-2.6334 Y2.3909  
G01 X-2.6319 Y2.3918  
G01 X-2.6313 Y2.3920  
G01 X-2.6306 Y2.3923  
G01 X-2.6290 Y2.3926  
G01 X-2.6274 Y2.3930  
G01 X-2.6267 Y2.3930  
G01 X-2.6260 Y2.3931  
G01 X-2.6243 Y2.3930  
G01 X-2.4773 Y2.3930  
G01 X-2.4633 Y2.4070  
G01 X-2.4367 Y2.4070  
G01 X-2.4227 Y2.3930  
G01 X-2.3762 Y2.3930  
G01 X-2.3751 Y2.3932  
G01 X-2.3739 Y2.3930  
G01 X-2.3075 Y2.3930  
G01 X-2.2680 Y2.4325  
G01 X-2.2680 Y2.6473  
G01 X-2.6163 Y2.9956  
G01 X-2.7013 Y2.9956  
G01 X-2.7100 Y2.9970  
G01 X-2.7183 Y2.9997  
G01 X-2.7262 Y3.0037  
G01 X-2.7333 Y3.0089  
G01 X-2.7396 Y3.0151  
G01 X-2.7447 Y3.0222  
G01 X-2.7487 Y3.0301  
G01 X-2.7499 Y3.0336  
G01 X-3.0438 Y3.0336  
G01 X-3.0450 Y3.0301  
G01 X-3.0490 Y3.0222  
G01 X-3.0541 Y3.0151  
G01 X-3.0604 Y3.0089  
G01 X-3.0675 Y3.0037  
G01 X-3.0754 Y2.9997  
G01 X-3.0837 Y2.9970  
G01 X-3.0924 Y2.9956  
G01 X-3.2013 Y2.9956  
G01 X-3.2100 Y2.9970  
G01 X-3.2183 Y2.9997  
G01 X-3.2262 Y3.0037  
G01 X-3.2333 Y3.0089  
G01 X-3.2396 Y3.0151  
G01 X-3.2447 Y3.0222  
G01 X-3.2487 Y3.0301  
G01 X-3.2499 Y3.0336  
G01 X-3.5438 Y3.0336  
G01 X-3.5450 Y3.0301  
G01 X-3.5490 Y3.0222  
G01 X-3.5541 Y3.0151  
G01 X-3.5604 Y3.0089  
G01 X-3.5675 Y3.0037  
G01 X-3.5754 Y2.9997  
G01 X-3.5837 Y2.9970  
G01 X-3.5924 Y2.9956  
G01 X-3.7013 Y2.9956  
G01 X-3.7100 Y2.9970  
G01 X-3.7183 Y2.9997  
G01 X-3.7262 Y3.0037  
G01 X-3.7333 Y3.0089  
G01 X-3.7396 Y3.0151  
G01 X-3.7447 Y3.0222  
G01 X-3.7487 Y3.0301  
G01 X-3.7515 Y3.0385  
G01 X-3.7529 Y3.0472  
G01 X-3.7529 Y3.0560  
G01 X-3.7515 Y3.0647  
G01 X-3.7487 Y3.0731  
G01 X-3.7447 Y3.0809  
G01 X-3.7396 Y3.0881  
G01 X-3.7333 Y3.0943  
G01 X-3.7262 Y3.0995  
G01 X-3.7183 Y3.1035  
G01 X-3.7100 Y3.1062  
G01 X-3.7013 Y3.1076  
G01 X-3.5924 Y3.1076  
G01 X-3.5837 Y3.1062  
G01 X-3.5754 Y3.1035  
G01 X-3.5675 Y3.0995  
G01 X-3.5604 Y3.0943  
G01 X-3.5541 Y3.0881  
G01 X-3.5490 Y3.0809  
G01 X-3.5450 Y3.0731  
G01 X-3.5438 Y3.0696  
G01 X-3.2499 Y3.0696  
G01 X-3.2487 Y3.0731  
G01 X-3.2447 Y3.0809  
G01 X-3.2396 Y3.0881  
G01 X-3.2333 Y3.0943  
G01 X-3.2262 Y3.0995  
G01 X-3.2183 Y3.1035  
G01 X-3.2100 Y3.1062  
G01 X-3.2013 Y3.1076  
G01 X-3.0924 Y3.1076  
G01 X-3.0837 Y3.1062  
G01 X-3.0754 Y3.1035  
G01 X-3.0675 Y3.0995  
G01 X-3.0604 Y3.0943  
G01 X-3.0541 Y3.0881  
G01 X-3.0490 Y3.0809  
G01 X-3.0450 Y3.0731  
G01 X-3.0438 Y3.0696  
G01 X-2.7499 Y3.0696  
G01 X-2.7487 Y3.0731  
G01 X-2.7447 Y3.0809  
G01 X-2.7396 Y3.0881  
G01 X-2.7333 Y3.0943  
G01 X-2.7262 Y3.0995  
G01 X-2.7183 Y3.1035  
G01 X-2.7100 Y3.1062  
G01 X-2.7013 Y3.1076  
G01 X-2.5924 Y3.1076  
G01 X-2.5837 Y3.1062  
G01 X-2.5754 Y3.1035  
G01 X-2.5675 Y3.0995  
G01 X-2.5604 Y3.0943  
G01 X-2.5541 Y3.0881  
G01 X-2.5490 Y3.0809  
G01 X-2.5450 Y3.0731  
G01 X-2.5422 Y3.0647  
G01 X-2.5409 Y3.0560  
G01 X-2.5409 Y3.0472  
G01 X-2.5422 Y3.0385  
G01 X-2.5450 Y3.0301  
G01 X-2.5490 Y3.0222  
G01 X-2.5541 Y3.0151  
G01 X-2.5604 Y3.0089  
G01 X-2.5675 Y3.0037  
G01 X-2.5715 Y3.0017  
G01 X-2.2356 Y2.6658  
G01 X-2.2332 Y2.6617  
G01 X-2.2320 Y2.6571  
G01 X-2.2320 Y2.4226  
G01 X-2.2332 Y2.4181  
G01 X-2.2356 Y2.4139  
G01 X-2.2389 Y2.4106  
G01 X-2.2889 Y2.3606  
G01 X-2.2931 Y2.3582  
G01 X-2.2976 Y2.3570  
G01 X-2.3382 Y2.3570  
G01 X-2.1867 Y2.1622  
G01 X-2.1860 Y2.1616  
G01 X-2.1853 Y2.1604  
G01 X-2.1844 Y2.1592  
G01 X-2.1840 Y2.1584  
G01 X-2.1835 Y2.1576  
G01 X-2.1831 Y2.1562  
G01 X-2.1825 Y2.1549  
G01 X-2.1824 Y2.1539  
G01 X-2.1821 Y2.1531  
G01 X-2.1821 Y2.1516  
G01 X-2.1818 Y2.1502  
G01 X-2.1820 Y2.1492  
G01 X-2.1777 Y2.0430  
G01 X-2.0023 Y2.0430  
G01 X-1.9883 Y2.0570  
G01 X-1.9617 Y2.0570  
G01 X-1.9430 Y2.0383  
G01 X-1.9430 Y2.0117  
G00 Z0.0500  
G00 X-2.0117 Y1.9820  
G01 Z-0.0040 F10    
G01 X-1.9930 Y1.9633  F20    
G01 X-1.9930 Y1.9367  
G01 X-2.0116 Y1.9181  
G01 X-2.0319 Y1.7844  
G01 X-2.0172 Y1.6086  
G01 X-2.0172 Y1.6084  
G01 X-2.0170 Y1.6062  
G01 X-2.0169 Y1.6041  
G01 X-2.0169 Y1.6039  
G01 X-2.0169 Y1.6036  
G01 X-2.0173 Y1.6016  
G01 X-2.0177 Y1.5995  
G01 X-2.0178 Y1.5992  
G01 X-2.0179 Y1.5990  
G01 X-2.0188 Y1.5971  
G01 X-2.0197 Y1.5952  
G01 X-2.0199 Y1.5950  
G01 X-2.0200 Y1.5948  
G01 X-2.0214 Y1.5932  
G01 X-2.0228 Y1.5916  
G01 X-2.0230 Y1.5914  
G01 X-2.0232 Y1.5912  
G01 X-2.0249 Y1.5901  
G01 X-2.0267 Y1.5889  
G01 X-2.0269 Y1.5888  
G01 X-2.0271 Y1.5886  
G01 X-2.0291 Y1.5880  
G01 X-2.0311 Y1.5873  
G01 X-2.0314 Y1.5872  
G01 X-2.0316 Y1.5872  
G01 X-2.0338 Y1.5870  
G01 X-2.0359 Y1.5869  
G01 X-2.0361 Y1.5869  
G01 X-2.1227 Y1.5821  
G01 X-2.1238 Y1.5819  
G01 X-2.1251 Y1.5820  
G01 X-2.1264 Y1.5819  
G01 X-2.1274 Y1.5821  
G01 X-2.1285 Y1.5822  
G01 X-2.1297 Y1.5826  
G01 X-2.1310 Y1.5829  
G01 X-2.1320 Y1.5834  
G01 X-2.1330 Y1.5837  
G01 X-2.1341 Y1.5844  
G01 X-2.1352 Y1.5850  
G01 X-2.1360 Y1.5857  
G01 X-2.1880 Y1.6203  
G01 X-2.1907 Y1.6192  
G01 X-2.1968 Y1.6180  
G01 X-2.2032 Y1.6180  
G01 X-2.2093 Y1.6192  
G01 X-2.2152 Y1.6216  
G01 X-2.2204 Y1.6251  
G01 X-2.2249 Y1.6296  
G01 X-2.2265 Y1.6320  
G01 X-2.2524 Y1.6320  
G01 X-2.2569 Y1.6332  
G01 X-2.2611 Y1.6356  
G01 X-2.4123 Y1.7869  
G01 X-2.4137 Y1.7881  
G01 X-2.4140 Y1.7886  
G01 X-2.4144 Y1.7889  
G01 X-2.4153 Y1.7905  
G01 X-2.4163 Y1.7921  
G01 X-2.4165 Y1.7926  
G01 X-2.4168 Y1.7931  
G01 X-2.4172 Y1.7948  
G01 X-2.4405 Y1.8645  
G01 X-2.4557 Y1.8645  
G01 X-2.4579 Y1.8654  
G01 X-2.4596 Y1.8671  
G01 X-2.4605 Y1.8693  
G01 X-2.4605 Y1.8919  
G01 X-2.6751 Y1.9562  
G01 X-2.8180 Y1.9154  
G01 X-2.8180 Y1.9117  
G01 X-2.8367 Y1.8930  
G01 X-2.8633 Y1.8930  
G01 X-2.8820 Y1.9117  
G01 X-2.8820 Y1.9383  
G01 X-2.8633 Y1.9570  
G01 X-2.8367 Y1.9570  
G01 X-2.8294 Y1.9496  
G01 X-2.6818 Y1.9918  
G01 X-2.6814 Y1.9920  
G01 X-2.6795 Y1.9924  
G01 X-2.6777 Y1.9930  
G01 X-2.6772 Y1.9930  
G01 X-2.6768 Y1.9931  
G01 X-2.6749 Y1.9930  
G01 X-2.6729 Y1.9930  
G01 X-2.6725 Y1.9929  
G01 X-2.6721 Y1.9929  
G01 X-2.6702 Y1.9924  
G01 X-2.6683 Y1.9919  
G01 X-2.6680 Y1.9917  
G01 X-2.4605 Y1.9294  
G01 X-2.4605 Y1.9307  
G01 X-2.4596 Y1.9329  
G01 X-2.4579 Y1.9346  
G01 X-2.4557 Y1.9355  
G01 X-2.3943 Y1.9355  
G01 X-2.3921 Y1.9346  
G01 X-2.3904 Y1.9329  
G01 X-2.3895 Y1.9307  
G01 X-2.3895 Y1.8693  
G01 X-2.3904 Y1.8671  
G01 X-2.3921 Y1.8654  
G01 X-2.3943 Y1.8645  
G01 X-2.4025 Y1.8645  
G01 X-2.3843 Y1.8097  
G01 X-2.2425 Y1.6680  
G01 X-2.2265 Y1.6680  
G01 X-2.2249 Y1.6704  
G01 X-2.2204 Y1.6749  
G01 X-2.2152 Y1.6784  
G01 X-2.2093 Y1.6808  
G01 X-2.2032 Y1.6820  
G01 X-2.1968 Y1.6820  
G01 X-2.1907 Y1.6808  
G01 X-2.1848 Y1.6784  
G01 X-2.1796 Y1.6749  
G01 X-2.1751 Y1.6704  
G01 X-2.1716 Y1.6652  
G01 X-2.1692 Y1.6593  
G01 X-2.1680 Y1.6532  
G01 X-2.1680 Y1.6503  
G01 X-2.1200 Y1.6183  
G01 X-2.0545 Y1.6219  
G01 X-2.0679 Y1.7833  
G01 X-2.0682 Y1.7854  
G01 X-2.0681 Y1.7856  
G01 X-2.0681 Y1.7859  
G01 X-2.0678 Y1.7879  
G01 X-2.0468 Y1.9265  
G01 X-2.0570 Y1.9367  
G01 X-2.0570 Y1.9633  
G01 X-2.0383 Y1.9820  
G01 X-2.0117 Y1.9820  
G00 Z0.0500  
G00 X-2.0117 Y2.0930  
G01 Z-0.0040 F10    
G01 X-2.0315 Y2.0930  F20    
G01 X-2.0389 Y2.0856  
G01 X-2.0431 Y2.0832  
G01 X-2.0476 Y2.0820  
G01 X-2.0903 Y2.0820  
G01 X-2.0903 Y2.0751  
G01 X-2.0912 Y2.0729  
G01 X-2.0929 Y2.0712  
G01 X-2.0951 Y2.0703  
G01 X-2.1449 Y2.0703  
G01 X-2.1471 Y2.0712  
G01 X-2.1488 Y2.0729  
G01 X-2.1497 Y2.0751  
G01 X-2.1497 Y2.1249  
G01 X-2.1488 Y2.1271  
G01 X-2.1471 Y2.1288  
G01 X-2.1449 Y2.1297  
G01 X-2.0951 Y2.1297  
G01 X-2.0929 Y2.1288  
G01 X-2.0912 Y2.1271  
G01 X-2.0903 Y2.1249  
G01 X-2.0903 Y2.1180  
G01 X-2.0575 Y2.1180  
G01 X-2.0570 Y2.1185  
G01 X-2.0570 Y2.1315  
G01 X-2.0844 Y2.1589  
G01 X-2.0868 Y2.1631  
G01 X-2.0880 Y2.1676  
G01 X-2.0880 Y2.2424  
G01 X-2.0868 Y2.2469  
G01 X-2.0844 Y2.2511  
G01 X-2.0811 Y2.2544  
G01 X-2.0211 Y2.3144  
G01 X-2.0169 Y2.3168  
G01 X-2.0124 Y2.3180  
G01 X-1.9773 Y2.3180  
G01 X-1.9680 Y2.3273  
G01 X-1.9680 Y2.3925  
G01 X-2.0435 Y2.4680  
G01 X-2.0633 Y2.4680  
G01 X-2.0820 Y2.4867  
G01 X-2.0820 Y2.5133  
G01 X-2.0633 Y2.5320  
G01 X-2.0367 Y2.5320  
G01 X-2.0180 Y2.5133  
G01 X-2.0180 Y2.4935  
G01 X-1.9356 Y2.4111  
G01 X-1.9332 Y2.4069  
G01 X-1.9320 Y2.4024  
G01 X-1.9320 Y2.3273  
G01 X-1.9180 Y2.3133  
G01 X-1.9180 Y2.2867  
G01 X-1.9367 Y2.2680  
G01 X-1.9633 Y2.2680  
G01 X-1.9773 Y2.2820  
G01 X-2.0025 Y2.2820  
G01 X-2.0520 Y2.2325  
G01 X-2.0520 Y2.1775  
G01 X-2.0315 Y2.1570  
G01 X-2.0117 Y2.1570  
G01 X-1.9930 Y2.1383  
G01 X-1.9930 Y2.1117  
G01 X-2.0117 Y2.0930  
G00 Z0.0500  
G00 X-2.1430 Y2.2117  
G01 Z-0.0040 F10    
G01 X-2.1617 Y2.1930  F20    
G01 X-2.1883 Y2.1930  
G01 X-2.2070 Y2.2117  
G01 X-2.2070 Y2.2383  
G01 X-2.1966 Y2.2487  
G01 X-2.2177 Y2.3964  
G01 X-2.2180 Y2.3976  
G01 X-2.2180 Y2.3987  
G01 X-2.2182 Y2.3998  
G01 X-2.2180 Y2.4011  
G01 X-2.2180 Y2.4024  
G01 X-2.2177 Y2.4034  
G01 X-2.2176 Y2.4045  
G01 X-2.2171 Y2.4057  
G01 X-2.2168 Y2.4069  
G01 X-2.2162 Y2.4079  
G01 X-2.2158 Y2.4089  
G01 X-2.2150 Y2.4099  
G01 X-2.2144 Y2.4111  
G01 X-2.2136 Y2.4118  
G01 X-2.2130 Y2.4127  
G01 X-2.2120 Y2.4135  
G01 X-2.1680 Y2.4575  
G01 X-2.1680 Y2.6703  
G01 X-2.1749 Y2.6703  
G01 X-2.1771 Y2.6712  
G01 X-2.1788 Y2.6729  
G01 X-2.1797 Y2.6751  
G01 X-2.1797 Y2.7249  
G01 X-2.1788 Y2.7271  
G01 X-2.1771 Y2.7288  
G01 X-2.1749 Y2.7297  
G01 X-2.1251 Y2.7297  
G01 X-2.1229 Y2.7288  
G01 X-2.1212 Y2.7271  
G01 X-2.1203 Y2.7249  
G01 X-2.1203 Y2.6751  
G01 X-2.1212 Y2.6729  
G01 X-2.1229 Y2.6712  
G01 X-2.1251 Y2.6703  
G01 X-2.1320 Y2.6703  
G01 X-2.1320 Y2.4476  
G01 X-2.1332 Y2.4431  
G01 X-2.1356 Y2.4389  
G01 X-2.1809 Y2.3936  
G01 X-2.1613 Y2.2566  
G01 X-2.1430 Y2.2383  
G01 X-2.1430 Y2.2117  
G00 Z0.0500  
G00 X-2.2612 Y2.1367  
G01 Z-0.0040 F10    
G01 X-2.2606 Y2.1361  F20    
G01 X-2.2598 Y2.1348  
G01 X-2.2590 Y2.1335  
G01 X-2.2587 Y2.1327  
G01 X-2.2582 Y2.1319  
G01 X-2.2578 Y2.1305  
G01 X-2.2573 Y2.1291  
G01 X-2.2572 Y2.1282  
G01 X-2.2570 Y2.1274  
G01 X-2.2570 Y2.1259  
G01 X-2.2569 Y2.1244  
G01 X-2.2570 Y2.1235  
G01 X-2.2570 Y2.0505  
G01 X-2.2569 Y2.0487  
G01 X-2.2570 Y2.0482  
G01 X-2.2570 Y2.0476  
G01 X-2.2575 Y2.0459  
G01 X-2.2578 Y2.0441  
G01 X-2.2581 Y2.0436  
G01 X-2.2582 Y2.0431  
G01 X-2.2591 Y2.0415  
G01 X-2.2952 Y1.9693  
G01 X-2.2935 Y1.9668  
G01 X-2.2909 Y1.9604  
G01 X-2.2895 Y1.9535  
G01 X-2.2895 Y1.9465  
G01 X-2.2909 Y1.9396  
G01 X-2.2935 Y1.9332  
G01 X-2.2941 Y1.9324  
G01 X-2.2348 Y1.8298  
G01 X-2.2007 Y1.7820  
G01 X-2.1968 Y1.7820  
G01 X-2.1907 Y1.7808  
G01 X-2.1848 Y1.7784  
G01 X-2.1796 Y1.7749  
G01 X-2.1751 Y1.7704  
G01 X-2.1716 Y1.7652  
G01 X-2.1692 Y1.7593  
G01 X-2.1680 Y1.7532  
G01 X-2.1680 Y1.7485  
G01 X-2.1127 Y1.7070  
G01 X-2.0867 Y1.7070  
G01 X-2.0680 Y1.6883  
G01 X-2.0680 Y1.6617  
G01 X-2.0867 Y1.6430  
G01 X-2.1133 Y1.6430  
G01 X-2.1320 Y1.6617  
G01 X-2.1320 Y1.6765  
G01 X-2.1896 Y1.7197  
G01 X-2.1907 Y1.7192  
G01 X-2.1968 Y1.7180  
G01 X-2.2032 Y1.7180  
G01 X-2.2093 Y1.7192  
G01 X-2.2152 Y1.7216  
G01 X-2.2204 Y1.7251  
G01 X-2.2249 Y1.7296  
G01 X-2.2284 Y1.7348  
G01 X-2.2308 Y1.7407  
G01 X-2.2320 Y1.7468  
G01 X-2.2320 Y1.7532  
G01 X-2.2308 Y1.7593  
G01 X-2.2300 Y1.7611  
G01 X-2.2638 Y1.8083  
G01 X-2.2644 Y1.8090  
G01 X-2.2652 Y1.8102  
G01 X-2.2660 Y1.8115  
G01 X-2.2663 Y1.8123  
G01 X-2.3253 Y1.9145  
G01 X-2.3285 Y1.9145  
G01 X-2.3354 Y1.9159  
G01 X-2.3418 Y1.9185  
G01 X-2.3476 Y1.9224  
G01 X-2.3526 Y1.9274  
G01 X-2.3565 Y1.9332  
G01 X-2.3591 Y1.9396  
G01 X-2.3605 Y1.9465  
G01 X-2.3605 Y1.9535  
G01 X-2.3591 Y1.9604  
G01 X-2.3565 Y1.9668  
G01 X-2.3526 Y1.9726  
G01 X-2.3476 Y1.9776  
G01 X-2.3418 Y1.9815  
G01 X-2.3354 Y1.9841  
G01 X-2.3285 Y1.9855  
G01 X-2.3274 Y1.9855  
G01 X-2.2930 Y2.0542  
G01 X-2.2930 Y2.1192  
G01 X-2.4093 Y2.2820  
G01 X-2.5945 Y2.2820  
G01 X-2.6635 Y2.2360  
G01 X-2.7360 Y2.1636  
G01 X-2.7363 Y2.1631  
G01 X-2.7377 Y2.1619  
G01 X-2.7389 Y2.1606  
G01 X-2.7394 Y2.1603  
G01 X-2.7398 Y2.1600  
G01 X-2.7415 Y2.1591  
G01 X-2.7431 Y2.1582  
G01 X-2.7436 Y2.1581  
G01 X-2.8180 Y2.1209  
G01 X-2.8180 Y2.1117  
G01 X-2.8367 Y2.0930  
G01 X-2.8633 Y2.0930  
G01 X-2.8773 Y2.1070  
G01 X-2.9024 Y2.1070  
G01 X-2.9069 Y2.1082  
G01 X-2.9111 Y2.1106  
G01 X-3.0075 Y2.2070  
G01 X-3.0744 Y2.2070  
G01 X-3.0762 Y2.2069  
G01 X-3.0768 Y2.2070  
G01 X-3.0774 Y2.2070  
G01 X-3.0791 Y2.2075  
G01 X-3.0809 Y2.2078  
G01 X-3.0814 Y2.2081  
G01 X-3.0819 Y2.2082  
G01 X-3.0835 Y2.2091  
G01 X-3.0851 Y2.2099  
G01 X-3.0855 Y2.2103  
G01 X-3.0861 Y2.2106  
G01 X-3.0873 Y2.2119  
G01 X-3.0887 Y2.2130  
G01 X-3.0890 Y2.2135  
G01 X-3.0894 Y2.2139  
G01 X-3.0903 Y2.2155  
G01 X-3.0953 Y2.2230  
G01 X-3.1083 Y2.2230  
G01 X-3.1270 Y2.2417  
G01 X-3.1270 Y2.2683  
G01 X-3.1083 Y2.2870  
G01 X-3.0817 Y2.2870  
G01 X-3.0630 Y2.2683  
G01 X-3.0630 Y2.2430  
G01 X-2.9976 Y2.2430  
G01 X-2.9931 Y2.2418  
G01 X-2.9889 Y2.2394  
G01 X-2.9856 Y2.2361  
G01 X-2.8925 Y2.1430  
G01 X-2.8773 Y2.1430  
G01 X-2.8633 Y2.1570  
G01 X-2.8367 Y2.1570  
G01 X-2.8332 Y2.1535  
G01 X-2.7607 Y2.1898  
G01 X-2.6881 Y2.2623  
G01 X-2.6870 Y2.2637  
G01 X-2.6865 Y2.2640  
G01 X-2.6861 Y2.2644  
G01 X-2.6845 Y2.2653  
G01 X-2.6115 Y2.3140  
G01 X-2.6111 Y2.3144  
G01 X-2.6095 Y2.3153  
G01 X-2.6080 Y2.3163  
G01 X-2.6075 Y2.3165  
G01 X-2.6069 Y2.3168  
G01 X-2.6052 Y2.3172  
G01 X-2.6035 Y2.3178  
G01 X-2.6029 Y2.3178  
G01 X-2.6024 Y2.3180  
G01 X-2.6006 Y2.3180  
G01 X-2.5988 Y2.3181  
G01 X-2.5982 Y2.3180  
G01 X-2.4009 Y2.3180  
G01 X-2.3994 Y2.3181  
G01 X-2.3985 Y2.3180  
G01 X-2.3976 Y2.3180  
G01 X-2.3962 Y2.3176  
G01 X-2.3947 Y2.3174  
G01 X-2.3939 Y2.3170  
G01 X-2.3931 Y2.3168  
G01 X-2.3918 Y2.3160  
G01 X-2.3904 Y2.3154  
G01 X-2.3897 Y2.3148  
G01 X-2.3889 Y2.3144  
G01 X-2.3879 Y2.3133  
G01 X-2.3867 Y2.3124  
G01 X-2.3862 Y2.3117  
G01 X-2.3856 Y2.3111  
G01 X-2.3848 Y2.3098  
G01 X-2.2612 Y2.1367  
G00 Z0.0500  
G00 X-2.3367 Y2.1320  
G01 Z-0.0040 F10    
G01 X-2.3180 Y2.1133  F20    
G01 X-2.3180 Y2.0867  
G01 X-2.3367 Y2.0680  
G01 X-2.3515 Y2.0680  
G01 X-2.3922 Y2.0137  
G01 X-2.3909 Y2.0104  
G01 X-2.3895 Y2.0035  
G01 X-2.3895 Y1.9965  
G01 X-2.3909 Y1.9896  
G01 X-2.3935 Y1.9832  
G01 X-2.3974 Y1.9774  
G01 X-2.4024 Y1.9724  
G01 X-2.4082 Y1.9685  
G01 X-2.4146 Y1.9659  
G01 X-2.4215 Y1.9645  
G01 X-2.4285 Y1.9645  
G01 X-2.4354 Y1.9659  
G01 X-2.4418 Y1.9685  
G01 X-2.4476 Y1.9724  
G01 X-2.4526 Y1.9774  
G01 X-2.4565 Y1.9832  
G01 X-2.4591 Y1.9896  
G01 X-2.4605 Y1.9965  
G01 X-2.4605 Y2.0035  
G01 X-2.4591 Y2.0104  
G01 X-2.4565 Y2.0168  
G01 X-2.4526 Y2.0226  
G01 X-2.4476 Y2.0276  
G01 X-2.4418 Y2.0315  
G01 X-2.4354 Y2.0341  
G01 X-2.4285 Y2.0355  
G01 X-2.4215 Y2.0355  
G01 X-2.4210 Y2.0354  
G01 X-2.3820 Y2.0873  
G01 X-2.3820 Y2.1133  
G01 X-2.3633 Y2.1320  
G01 X-2.3367 Y2.1320  
G00 Z0.0500  
G00 X-2.4430 Y2.2117  
G01 Z-0.0040 F10    
G01 X-2.4617 Y2.1930  F20    
G01 X-2.4883 Y2.1930  
G01 X-2.5023 Y2.2070  
G01 X-2.5131 Y2.2070  
G01 X-2.5393 Y2.1725  
G01 X-2.5398 Y2.1715  
G01 X-2.5404 Y2.1709  
G01 X-2.5409 Y2.1703  
G01 X-2.5412 Y2.1700  
G01 X-2.5415 Y2.1696  
G01 X-2.5424 Y2.1689  
G01 X-2.5431 Y2.1681  
G01 X-2.5438 Y2.1677  
G01 X-2.6180 Y2.1038  
G01 X-2.6180 Y2.0867  
G01 X-2.6367 Y2.0680  
G01 X-2.6633 Y2.0680  
G01 X-2.6773 Y2.0820  
G01 X-2.6859 Y2.0820  
G01 X-2.6882 Y2.0775  
G01 X-2.6922 Y2.0720  
G01 X-2.6970 Y2.0672  
G01 X-2.7025 Y2.0632  
G01 X-2.7085 Y2.0602  
G01 X-2.7149 Y2.0581  
G01 X-2.7216 Y2.0570  
G01 X-2.7284 Y2.0570  
G01 X-2.7351 Y2.0581  
G01 X-2.7415 Y2.0602  
G01 X-2.7475 Y2.0632  
G01 X-2.7530 Y2.0672  
G01 X-2.7578 Y2.0720  
G01 X-2.7618 Y2.0775  
G01 X-2.7648 Y2.0835  
G01 X-2.7669 Y2.0899  
G01 X-2.7680 Y2.0966  
G01 X-2.7680 Y2.1034  
G01 X-2.7669 Y2.1101  
G01 X-2.7648 Y2.1165  
G01 X-2.7618 Y2.1225  
G01 X-2.7578 Y2.1280  
G01 X-2.7530 Y2.1328  
G01 X-2.7475 Y2.1368  
G01 X-2.7415 Y2.1398  
G01 X-2.7351 Y2.1419  
G01 X-2.7284 Y2.1430  
G01 X-2.7216 Y2.1430  
G01 X-2.7149 Y2.1419  
G01 X-2.7085 Y2.1398  
G01 X-2.7025 Y2.1368  
G01 X-2.6970 Y2.1328  
G01 X-2.6922 Y2.1280  
G01 X-2.6882 Y2.1225  
G01 X-2.6859 Y2.1180  
G01 X-2.6773 Y2.1180  
G01 X-2.6633 Y2.1320  
G01 X-2.6404 Y2.1320  
G01 X-2.5721 Y2.1909  
G01 X-2.5832 Y2.1965  
G01 X-2.5867 Y2.1930  
G01 X-2.6133 Y2.1930  
G01 X-2.6320 Y2.2117  
G01 X-2.6320 Y2.2383  
G01 X-2.6133 Y2.2570  
G01 X-2.5867 Y2.2570  
G01 X-2.5680 Y2.2383  
G01 X-2.5680 Y2.2291  
G01 X-2.5488 Y2.2195  
G01 X-2.5371 Y2.2350  
G01 X-2.5365 Y2.2361  
G01 X-2.5357 Y2.2369  
G01 X-2.5350 Y2.2378  
G01 X-2.5340 Y2.2385  
G01 X-2.5331 Y2.2394  
G01 X-2.5321 Y2.2400  
G01 X-2.5312 Y2.2407  
G01 X-2.5301 Y2.2412  
G01 X-2.5290 Y2.2418  
G01 X-2.5279 Y2.2421  
G01 X-2.5269 Y2.2425  
G01 X-2.5256 Y2.2427  
G01 X-2.5244 Y2.2430  
G01 X-2.5233 Y2.2430  
G01 X-2.5222 Y2.2432  
G01 X-2.5209 Y2.2430  
G01 X-2.5023 Y2.2430  
G01 X-2.4883 Y2.2570  
G01 X-2.4617 Y2.2570  
G01 X-2.4430 Y2.2383  
G01 X-2.4430 Y2.2117  
G00 Z0.0500  
G00 X-2.4426 Y2.4320  
G01 Z-0.0040 F10    
G01 X-2.4435 Y2.4323  F20    
G01 X-2.4444 Y2.4324  
G01 X-2.4458 Y2.4329  
G01 X-2.4472 Y2.4333  
G01 X-2.4480 Y2.4338  
G01 X-2.5707 Y2.4824  
G01 X-2.5754 Y2.4800  
G01 X-2.5837 Y2.4773  
G01 X-2.5924 Y2.4759  
G01 X-2.6774 Y2.4759  
G01 X-2.6887 Y2.4645  
G01 X-2.7221 Y2.3924  
G01 X-2.7180 Y2.3883  
G01 X-2.7180 Y2.3617  
G01 X-2.7367 Y2.3430  
G01 X-2.7633 Y2.3430  
G01 X-2.7820 Y2.3617  
G01 X-2.7820 Y2.3883  
G01 X-2.7633 Y2.4070  
G01 X-2.7550 Y2.4070  
G01 X-2.7207 Y2.4812  
G01 X-2.7262 Y2.4840  
G01 X-2.7333 Y2.4892  
G01 X-2.7396 Y2.4954  
G01 X-2.7447 Y2.5025  
G01 X-2.7487 Y2.5104  
G01 X-2.7515 Y2.5188  
G01 X-2.7529 Y2.5275  
G01 X-2.7529 Y2.5363  
G01 X-2.7515 Y2.5450  
G01 X-2.7487 Y2.5534  
G01 X-2.7447 Y2.5612  
G01 X-2.7396 Y2.5684  
G01 X-2.7333 Y2.5746  
G01 X-2.7262 Y2.5798  
G01 X-2.7183 Y2.5838  
G01 X-2.7100 Y2.5865  
G01 X-2.7013 Y2.5879  
G01 X-2.5924 Y2.5879  
G01 X-2.5837 Y2.5865  
G01 X-2.5754 Y2.5838  
G01 X-2.5675 Y2.5798  
G01 X-2.5604 Y2.5746  
G01 X-2.5541 Y2.5684  
G01 X-2.5490 Y2.5612  
G01 X-2.5450 Y2.5534  
G01 X-2.5422 Y2.5450  
G01 X-2.5409 Y2.5363  
G01 X-2.5409 Y2.5275  
G01 X-2.5422 Y2.5188  
G01 X-2.5448 Y2.5109  
G01 X-2.4413 Y2.4699  
G01 X-2.3820 Y2.5028  
G01 X-2.3820 Y2.5133  
G01 X-2.3633 Y2.5320  
G01 X-2.3367 Y2.5320  
G01 X-2.3180 Y2.5133  
G01 X-2.3180 Y2.4867  
G01 X-2.3367 Y2.4680  
G01 X-2.3633 Y2.4680  
G01 X-2.3659 Y2.4706  
G01 X-2.4299 Y2.4350  
G01 X-2.4306 Y2.4344  
G01 X-2.4320 Y2.4338  
G01 X-2.4333 Y2.4331  
G01 X-2.4342 Y2.4329  
G01 X-2.4350 Y2.4325  
G01 X-2.4364 Y2.4323  
G01 X-2.4379 Y2.4320  
G01 X-2.4388 Y2.4320  
G01 X-2.4397 Y2.4318  
G01 X-2.4411 Y2.4320  
G01 X-2.4426 Y2.4320  
G00 Z0.0500  
G00 X-2.4465 Y2.5125  
G01 Z-0.0040 F10    
G01 X-2.4552 Y2.5139  F20    
G01 X-2.4636 Y2.5166  
G01 X-2.4715 Y2.5206  
G01 X-2.4786 Y2.5258  
G01 X-2.4848 Y2.5320  
G01 X-2.4900 Y2.5392  
G01 X-2.4940 Y2.5470  
G01 X-2.4967 Y2.5554  
G01 X-2.4981 Y2.5641  
G01 X-2.4981 Y2.6729  
G01 X-2.4967 Y2.6816  
G01 X-2.4940 Y2.6900  
G01 X-2.4900 Y2.6979  
G01 X-2.4848 Y2.7050  
G01 X-2.4786 Y2.7112  
G01 X-2.4715 Y2.7164  
G01 X-2.4636 Y2.7204  
G01 X-2.4552 Y2.7231  
G01 X-2.4465 Y2.7245  
G01 X-2.4377 Y2.7245  
G01 X-2.4290 Y2.7231  
G01 X-2.4206 Y2.7204  
G01 X-2.4128 Y2.7164  
G01 X-2.4056 Y2.7112  
G01 X-2.3994 Y2.7050  
G01 X-2.3942 Y2.6979  
G01 X-2.3902 Y2.6900  
G01 X-2.3875 Y2.6816  
G01 X-2.3861 Y2.6729  
G01 X-2.3861 Y2.5641  
G01 X-2.3875 Y2.5554  
G01 X-2.3902 Y2.5470  
G01 X-2.3942 Y2.5392  
G01 X-2.3994 Y2.5320  
G01 X-2.4056 Y2.5258  
G01 X-2.4128 Y2.5206  
G01 X-2.4206 Y2.5166  
G01 X-2.4290 Y2.5139  
G01 X-2.4377 Y2.5125  
G01 X-2.4465 Y2.5125  
G00 Z0.0500  
G00 X-2.3320 Y2.8367  
G01 Z-0.0040 F10    
G01 X-2.3320 Y2.8633  F20    
G01 X-2.3133 Y2.8820  
G01 X-2.2935 Y2.8820  
G01 X-2.2149 Y2.9606  
G01 X-2.2149 Y3.0043  
G01 X-2.2157 Y3.0046  
G01 X-2.2225 Y3.0081  
G01 X-2.2288 Y3.0126  
G01 X-2.2342 Y3.0181  
G01 X-2.2388 Y3.0243  
G01 X-2.2423 Y3.0312  
G01 X-2.2446 Y3.0385  
G01 X-2.2459 Y3.0461  
G01 X-2.2459 Y3.0539  
G01 X-2.2446 Y3.0615  
G01 X-2.2423 Y3.0688  
G01 X-2.2388 Y3.0757  
G01 X-2.2342 Y3.0819  
G01 X-2.2288 Y3.0874  
G01 X-2.2225 Y3.0919  
G01 X-2.2157 Y3.0954  
G01 X-2.2083 Y3.0978  
G01 X-2.2007 Y3.0990  
G01 X-2.1930 Y3.0990  
G01 X-2.1854 Y3.0978  
G01 X-2.1780 Y3.0954  
G01 X-2.1712 Y3.0919  
G01 X-2.1649 Y3.0874  
G01 X-2.1595 Y3.0819  
G01 X-2.1549 Y3.0757  
G01 X-2.1514 Y3.0688  
G01 X-2.1491 Y3.0615  
G01 X-2.1479 Y3.0539  
G01 X-2.1479 Y3.0461  
G01 X-2.1491 Y3.0385  
G01 X-2.1514 Y3.0312  
G01 X-2.1549 Y3.0243  
G01 X-2.1595 Y3.0181  
G01 X-2.1649 Y3.0126  
G01 X-2.1712 Y3.0081  
G01 X-2.1780 Y3.0046  
G01 X-2.1789 Y3.0043  
G01 X-2.1789 Y2.9508  
G01 X-2.1801 Y2.9462  
G01 X-2.1824 Y2.9421  
G01 X-2.2680 Y2.8565  
G01 X-2.2680 Y2.8367  
G01 X-2.2867 Y2.8180  
G01 X-2.3133 Y2.8180  
G01 X-2.3320 Y2.8367  
G00 Z0.0500  
G00 X-1.9430 Y2.8226  
G01 Z-0.0040 F10    
G01 X-1.9430 Y2.8925  F20    
G01 X-2.0144 Y2.9639  
G01 X-2.0168 Y2.9681  
G01 X-2.0180 Y2.9726  
G01 X-2.0180 Y3.0043  
G01 X-2.0188 Y3.0046  
G01 X-2.0257 Y3.0081  
G01 X-2.0319 Y3.0126  
G01 X-2.0374 Y3.0181  
G01 X-2.0419 Y3.0243  
G01 X-2.0454 Y3.0312  
G01 X-2.0478 Y3.0385  
G01 X-2.0490 Y3.0461  
G01 X-2.0490 Y3.0539  
G01 X-2.0478 Y3.0615  
G01 X-2.0454 Y3.0688  
G01 X-2.0419 Y3.0757  
G01 X-2.0374 Y3.0819  
G01 X-2.0319 Y3.0874  
G01 X-2.0257 Y3.0919  
G01 X-2.0188 Y3.0954  
G01 X-2.0115 Y3.0978  
G01 X-2.0039 Y3.0990  
G01 X-1.9961 Y3.0990  
G01 X-1.9885 Y3.0978  
G01 X-1.9812 Y3.0954  
G01 X-1.9743 Y3.0919  
G01 X-1.9681 Y3.0874  
G01 X-1.9626 Y3.0819  
G01 X-1.9581 Y3.0757  
G01 X-1.9546 Y3.0688  
G01 X-1.9522 Y3.0615  
G01 X-1.9510 Y3.0539  
G01 X-1.9510 Y3.0461  
G01 X-1.9522 Y3.0385  
G01 X-1.9546 Y3.0312  
G01 X-1.9581 Y3.0243  
G01 X-1.9626 Y3.0181  
G01 X-1.9681 Y3.0126  
G01 X-1.9743 Y3.0081  
G01 X-1.9812 Y3.0046  
G01 X-1.9820 Y3.0043  
G01 X-1.9820 Y2.9825  
G01 X-1.9139 Y2.9144  
G01 X-1.9106 Y2.9111  
G01 X-1.9082 Y2.9069  
G01 X-1.9070 Y2.9024  
G01 X-1.9070 Y2.8325  
G01 X-1.8565 Y2.7820  
G01 X-1.8367 Y2.7820  
G01 X-1.8180 Y2.7633  
G01 X-1.8180 Y2.7367  
G01 X-1.8367 Y2.7180  
G01 X-1.8633 Y2.7180  
G01 X-1.8820 Y2.7367  
G01 X-1.8820 Y2.7565  
G01 X-1.9394 Y2.8139  
G01 X-1.9418 Y2.8181  
G01 X-1.9430 Y2.8226  
G00 Z0.0500  
G00 X-1.8820 Y2.8367  
G01 Z-0.0040 F10    
G01 X-1.8820 Y2.8633  F20    
G01 X-1.8633 Y2.8820  
G01 X-1.8435 Y2.8820  
G01 X-1.8211 Y2.9043  
G01 X-1.8211 Y3.0043  
G01 X-1.8220 Y3.0046  
G01 X-1.8288 Y3.0081  
G01 X-1.8351 Y3.0126  
G01 X-1.8405 Y3.0181  
G01 X-1.8451 Y3.0243  
G01 X-1.8486 Y3.0312  
G01 X-1.8509 Y3.0385  
G01 X-1.8521 Y3.0461  
G01 X-1.8521 Y3.0539  
G01 X-1.8509 Y3.0615  
G01 X-1.8486 Y3.0688  
G01 X-1.8451 Y3.0757  
G01 X-1.8405 Y3.0819  
G01 X-1.8351 Y3.0874  
G01 X-1.8288 Y3.0919  
G01 X-1.8220 Y3.0954  
G01 X-1.8146 Y3.0978  
G01 X-1.8070 Y3.0990  
G01 X-1.7993 Y3.0990  
G01 X-1.7917 Y3.0978  
G01 X-1.7843 Y3.0954  
G01 X-1.7775 Y3.0919  
G01 X-1.7712 Y3.0874  
G01 X-1.7658 Y3.0819  
G01 X-1.7612 Y3.0757  
G01 X-1.7577 Y3.0688  
G01 X-1.7554 Y3.0615  
G01 X-1.7541 Y3.0539  
G01 X-1.7541 Y3.0461  
G01 X-1.7554 Y3.0385  
G01 X-1.7577 Y3.0312  
G01 X-1.7612 Y3.0243  
G01 X-1.7658 Y3.0181  
G01 X-1.7712 Y3.0126  
G01 X-1.7775 Y3.0081  
G01 X-1.7843 Y3.0046  
G01 X-1.7851 Y3.0043  
G01 X-1.7851 Y2.8945  
G01 X-1.7864 Y2.8899  
G01 X-1.7887 Y2.8858  
G01 X-1.8180 Y2.8565  
G01 X-1.8180 Y2.8367  
G01 X-1.8367 Y2.8180  
G01 X-1.8633 Y2.8180  
G01 X-1.8820 Y2.8367  
G00 Z0.0500  
G00 X-1.9820 Y2.7315  
G01 Z-0.0040 F10    
G01 X-1.9820 Y2.7297  F20    
G01 X-1.9802 Y2.7297  
G01 X-1.9820 Y2.7315  
G00 Z0.0500  
G00 X-1.4820 Y2.8867  
G01 Z-0.0040 F10    
G01 X-1.4820 Y2.9133  F20    
G01 X-1.4680 Y2.9273  
G01 X-1.4680 Y3.0058  
G01 X-1.4725 Y3.0081  
G01 X-1.4788 Y3.0126  
G01 X-1.4842 Y3.0181  
G01 X-1.4888 Y3.0243  
G01 X-1.4923 Y3.0312  
G01 X-1.4946 Y3.0385  
G01 X-1.4959 Y3.0461  
G01 X-1.4959 Y3.0539  
G01 X-1.4946 Y3.0615  
G01 X-1.4923 Y3.0688  
G01 X-1.4888 Y3.0757  
G01 X-1.4842 Y3.0819  
G01 X-1.4788 Y3.0874  
G01 X-1.4725 Y3.0919  
G01 X-1.4657 Y3.0954  
G01 X-1.4583 Y3.0978  
G01 X-1.4507 Y3.0990  
G01 X-1.4430 Y3.0990  
G01 X-1.4354 Y3.0978  
G01 X-1.4280 Y3.0954  
G01 X-1.4212 Y3.0919  
G01 X-1.4149 Y3.0874  
G01 X-1.4095 Y3.0819  
G01 X-1.4049 Y3.0757  
G01 X-1.4014 Y3.0688  
G01 X-1.3991 Y3.0615  
G01 X-1.3979 Y3.0539  
G01 X-1.3979 Y3.0461  
G01 X-1.3991 Y3.0385  
G01 X-1.4014 Y3.0312  
G01 X-1.4049 Y3.0243  
G01 X-1.4095 Y3.0181  
G01 X-1.4149 Y3.0126  
G01 X-1.4212 Y3.0081  
G01 X-1.4280 Y3.0046  
G01 X-1.4320 Y3.0033  
G01 X-1.4320 Y2.9273  
G01 X-1.4180 Y2.9133  
G01 X-1.4180 Y2.8867  
G01 X-1.4367 Y2.8680  
G01 X-1.4633 Y2.8680  
G01 X-1.4820 Y2.8867  
G00 Z0.0500  
G00 X-1.2819 Y3.0126  
G01 Z-0.0040 F10    
G01 X-1.2874 Y3.0181  F20    
G01 X-1.2919 Y3.0243  
G01 X-1.2954 Y3.0312  
G01 X-1.2978 Y3.0385  
G01 X-1.2990 Y3.0461  
G01 X-1.2990 Y3.0539  
G01 X-1.2978 Y3.0615  
G01 X-1.2954 Y3.0688  
G01 X-1.2919 Y3.0757  
G01 X-1.2874 Y3.0819  
G01 X-1.2819 Y3.0874  
G01 X-1.2757 Y3.0919  
G01 X-1.2688 Y3.0954  
G01 X-1.2615 Y3.0978  
G01 X-1.2539 Y3.0990  
G01 X-1.2461 Y3.0990  
G01 X-1.2385 Y3.0978  
G01 X-1.2312 Y3.0954  
G01 X-1.2243 Y3.0919  
G01 X-1.2181 Y3.0874  
G01 X-1.2126 Y3.0819  
G01 X-1.2081 Y3.0757  
G01 X-1.2046 Y3.0688  
G01 X-1.2022 Y3.0615  
G01 X-1.2010 Y3.0539  
G01 X-1.2010 Y3.0461  
G01 X-1.2011 Y3.0457  
G01 X-1.0436 Y2.9669  
G01 X-1.0431 Y2.9668  
G01 X-1.0415 Y2.9659  
G01 X-1.0398 Y2.9650  
G01 X-1.0394 Y2.9647  
G01 X-1.0389 Y2.9644  
G01 X-1.0377 Y2.9631  
G01 X-1.0363 Y2.9619  
G01 X-1.0360 Y2.9614  
G01 X-1.0356 Y2.9611  
G01 X-1.0347 Y2.9595  
G01 X-1.0337 Y2.9579  
G01 X-1.0335 Y2.9574  
G01 X-1.0332 Y2.9569  
G01 X-1.0328 Y2.9552  
G01 X-1.0322 Y2.9534  
G01 X-1.0321 Y2.9529  
G01 X-1.0320 Y2.9524  
G01 X-1.0320 Y2.9505  
G01 X-1.0319 Y2.9487  
G01 X-1.0320 Y2.9482  
G01 X-1.0320 Y2.8075  
G01 X-0.9974 Y2.7729  
G01 X-0.9883 Y2.7820  
G01 X-0.9617 Y2.7820  
G01 X-0.9430 Y2.7633  
G01 X-0.9430 Y2.7367  
G01 X-0.9617 Y2.7180  
G01 X-0.9883 Y2.7180  
G01 X-1.0023 Y2.7320  
G01 X-1.0024 Y2.7320  
G01 X-1.0069 Y2.7332  
G01 X-1.0111 Y2.7356  
G01 X-1.0144 Y2.7389  
G01 X-1.0644 Y2.7889  
G01 X-1.0668 Y2.7931  
G01 X-1.0680 Y2.7976  
G01 X-1.0680 Y2.9389  
G01 X-1.2172 Y3.0135  
G01 X-1.2181 Y3.0126  
G01 X-1.2243 Y3.0081  
G01 X-1.2312 Y3.0046  
G01 X-1.2385 Y3.0022  
G01 X-1.2461 Y3.0010  
G01 X-1.2539 Y3.0010  
G01 X-1.2615 Y3.0022  
G01 X-1.2688 Y3.0046  
G01 X-1.2757 Y3.0081  
G01 X-1.2819 Y3.0126  
G00 Z0.0500  
G00 X-1.0851 Y3.0126  
G01 Z-0.0040 F10    
G01 X-1.0905 Y3.0181  F20    
G01 X-1.0951 Y3.0243  
G01 X-1.0986 Y3.0312  
G01 X-1.1009 Y3.0385  
G01 X-1.1021 Y3.0461  
G01 X-1.1021 Y3.0539  
G01 X-1.1009 Y3.0615  
G01 X-1.0986 Y3.0688  
G01 X-1.0951 Y3.0757  
G01 X-1.0905 Y3.0819  
G01 X-1.0851 Y3.0874  
G01 X-1.0788 Y3.0919  
G01 X-1.0720 Y3.0954  
G01 X-1.0646 Y3.0978  
G01 X-1.0570 Y3.0990  
G01 X-1.0493 Y3.0990  
G01 X-1.0417 Y3.0978  
G01 X-1.0343 Y3.0954  
G01 X-1.0275 Y3.0919  
G01 X-1.0212 Y3.0874  
G01 X-1.0158 Y3.0819  
G01 X-1.0112 Y3.0757  
G01 X-1.0077 Y3.0688  
G01 X-1.0054 Y3.0615  
G01 X-1.0041 Y3.0539  
G01 X-1.0041 Y3.0461  
G01 X-1.0049 Y3.0411  
G01 X-0.9690 Y3.0187  
G01 X-0.9674 Y3.0178  
G01 X-0.9670 Y3.0174  
G01 X-0.9666 Y3.0172  
G01 X-0.9653 Y3.0158  
G01 X-0.9640 Y3.0145  
G01 X-0.9637 Y3.0141  
G01 X-0.9634 Y3.0137  
G01 X-0.9625 Y3.0120  
G01 X-0.9615 Y3.0104  
G01 X-0.9614 Y3.0100  
G01 X-0.9611 Y3.0095  
G01 X-0.9607 Y3.0077  
G01 X-0.9602 Y3.0059  
G01 X-0.9602 Y3.0054  
G01 X-0.9601 Y3.0049  
G01 X-0.9601 Y3.0030  
G01 X-0.9576 Y2.8778  
G01 X-0.9430 Y2.8633  
G01 X-0.9430 Y2.8367  
G01 X-0.9617 Y2.8180  
G01 X-0.9883 Y2.8180  
G01 X-1.0070 Y2.8367  
G01 X-1.0070 Y2.8633  
G01 X-0.9936 Y2.8767  
G01 X-0.9959 Y2.9930  
G01 X-1.0240 Y3.0106  
G01 X-1.0275 Y3.0081  
G01 X-1.0343 Y3.0046  
G01 X-1.0417 Y3.0022  
G01 X-1.0493 Y3.0010  
G01 X-1.0570 Y3.0010  
G01 X-1.0646 Y3.0022  
G01 X-1.0720 Y3.0046  
G01 X-1.0788 Y3.0081  
G01 X-1.0851 Y3.0126  
G00 Z0.0500  
G00 X-1.5796 Y1.5399  
G01 Z-0.0040 F10    
G01 X-1.5751 Y1.5354  F20    
G01 X-1.5716 Y1.5302  
G01 X-1.5692 Y1.5243  
G01 X-1.5680 Y1.5182  
G01 X-1.5680 Y1.5118  
G01 X-1.5692 Y1.5057  
G01 X-1.5716 Y1.4998  
G01 X-1.5751 Y1.4946  
G01 X-1.5796 Y1.4901  
G01 X-1.5848 Y1.4866  
G01 X-1.5907 Y1.4842  
G01 X-1.5968 Y1.4830  
G01 X-1.6032 Y1.4830  
G01 X-1.6093 Y1.4842  
G01 X-1.6152 Y1.4866  
G01 X-1.6204 Y1.4901  
G01 X-1.6249 Y1.4946  
G01 X-1.6284 Y1.4998  
G01 X-1.6293 Y1.5021  
G01 X-1.8222 Y1.5375  
G01 X-1.8317 Y1.5280  
G01 X-1.8583 Y1.5280  
G01 X-1.8770 Y1.5467  
G01 X-1.8770 Y1.5733  
G01 X-1.8630 Y1.5873  
G01 X-1.8630 Y1.6467  
G01 X-1.9204 Y1.6952  
G01 X-1.9211 Y1.6956  
G01 X-1.9222 Y1.6967  
G01 X-1.9234 Y1.6978  
G01 X-1.9239 Y1.6984  
G01 X-1.9244 Y1.6989  
G01 X-1.9252 Y1.7004  
G01 X-1.9261 Y1.7017  
G01 X-1.9264 Y1.7024  
G01 X-1.9268 Y1.7031  
G01 X-1.9272 Y1.7046  
G01 X-1.9277 Y1.7061  
G01 X-1.9278 Y1.7069  
G01 X-1.9280 Y1.7076  
G01 X-1.9280 Y1.7093  
G01 X-1.9281 Y1.7109  
G01 X-1.9280 Y1.7116  
G01 X-1.9280 Y1.7635  
G01 X-1.9586 Y1.8003  
G01 X-1.9849 Y1.8003  
G01 X-1.9871 Y1.8012  
G01 X-1.9888 Y1.8029  
G01 X-1.9897 Y1.8051  
G01 X-1.9897 Y1.8549  
G01 X-1.9888 Y1.8571  
G01 X-1.9871 Y1.8588  
G01 X-1.9849 Y1.8597  
G01 X-1.9351 Y1.8597  
G01 X-1.9329 Y1.8588  
G01 X-1.9312 Y1.8571  
G01 X-1.9303 Y1.8549  
G01 X-1.9303 Y1.8224  
G01 X-1.8967 Y1.7822  
G01 X-1.8956 Y1.7811  
G01 X-1.8952 Y1.7803  
G01 X-1.8947 Y1.7797  
G01 X-1.8940 Y1.7783  
G01 X-1.8932 Y1.7769  
G01 X-1.8930 Y1.7761  
G01 X-1.8927 Y1.7754  
G01 X-1.8924 Y1.7739  
G01 X-1.8920 Y1.7724  
G01 X-1.8920 Y1.7715  
G01 X-1.8919 Y1.7707  
G01 X-1.8920 Y1.7692  
G01 X-1.8920 Y1.7183  
G01 X-1.8346 Y1.6698  
G01 X-1.8339 Y1.6694  
G01 X-1.8328 Y1.6683  
G01 X-1.8316 Y1.6672  
G01 X-1.8311 Y1.6666  
G01 X-1.8306 Y1.6661  
G01 X-1.8298 Y1.6646  
G01 X-1.8289 Y1.6633  
G01 X-1.8286 Y1.6626  
G01 X-1.8282 Y1.6619  
G01 X-1.8278 Y1.6604  
G01 X-1.8273 Y1.6589  
G01 X-1.8272 Y1.6581  
G01 X-1.8270 Y1.6574  
G01 X-1.8270 Y1.6557  
G01 X-1.8269 Y1.6541  
G01 X-1.8270 Y1.6534  
G01 X-1.8270 Y1.5873  
G01 X-1.8130 Y1.5733  
G01 X-1.8130 Y1.5724  
G01 X-1.6228 Y1.5375  
G01 X-1.6204 Y1.5399  
G01 X-1.6152 Y1.5434  
G01 X-1.6093 Y1.5458  
G01 X-1.6032 Y1.5470  
G01 X-1.5968 Y1.5470  
G01 X-1.5907 Y1.5458  
G01 X-1.5848 Y1.5434  
G01 X-1.5796 Y1.5399  
G00 Z0.0500  
G00 X-2.0867 Y1.4070  
G01 Z-0.0040 F10    
G01 X-2.0680 Y1.3883  F20    
G01 X-2.0680 Y1.3617  
G01 X-2.0820 Y1.3477  
G01 X-2.0820 Y1.3001  
G01 X-2.0820 Y1.2979  
G01 X-2.0820 Y1.2978  
G01 X-2.0820 Y1.2976  
G01 X-2.0826 Y1.2955  
G01 X-2.1320 Y1.0978  
G01 X-2.1320 Y1.0976  
G01 X-2.1326 Y1.0955  
G01 X-2.1331 Y1.0933  
G01 X-2.1332 Y1.0932  
G01 X-2.1332 Y1.0931  
G01 X-2.1343 Y1.0911  
G01 X-2.1354 Y1.0892  
G01 X-2.1355 Y1.0891  
G01 X-2.1356 Y1.0889  
G01 X-2.1372 Y1.0874  
G01 X-2.1387 Y1.0858  
G01 X-2.1388 Y1.0857  
G01 X-2.1389 Y1.0856  
G01 X-2.1409 Y1.0845  
G01 X-2.1428 Y1.0833  
G01 X-2.1429 Y1.0833  
G01 X-2.1431 Y1.0832  
G01 X-2.1452 Y1.0827  
G01 X-2.1473 Y1.0820  
G01 X-2.1475 Y1.0820  
G01 X-2.1476 Y1.0820  
G01 X-2.1499 Y1.0820  
G01 X-2.1521 Y1.0820  
G01 X-2.1522 Y1.0820  
G01 X-2.7249 Y1.0820  
G01 X-2.7271 Y1.0820  
G01 X-2.7272 Y1.0820  
G01 X-2.7274 Y1.0820  
G01 X-2.7295 Y1.0826  
G01 X-2.7317 Y1.0831  
G01 X-2.7318 Y1.0832  
G01 X-2.7319 Y1.0832  
G01 X-2.7339 Y1.0843  
G01 X-2.7358 Y1.0854  
G01 X-2.7359 Y1.0855  
G01 X-2.7361 Y1.0856  
G01 X-2.7376 Y1.0872  
G01 X-2.7392 Y1.0887  
G01 X-2.7393 Y1.0888  
G01 X-2.7394 Y1.0889  
G01 X-2.7405 Y1.0909  
G01 X-2.8146 Y1.2143  
G01 X-2.8150 Y1.2148  
G01 X-2.8158 Y1.2163  
G01 X-2.8167 Y1.2178  
G01 X-2.8168 Y1.2184  
G01 X-2.8172 Y1.2191  
G01 X-2.8175 Y1.2207  
G01 X-2.8180 Y1.2223  
G01 X-2.8180 Y1.2230  
G01 X-2.8181 Y1.2237  
G01 X-2.8180 Y1.2254  
G01 X-2.8180 Y1.2271  
G01 X-2.8179 Y1.2277  
G01 X-2.8178 Y1.2284  
G01 X-2.8173 Y1.2300  
G01 X-2.8169 Y1.2317  
G01 X-2.8165 Y1.2323  
G01 X-2.7755 Y1.3553  
G01 X-2.7820 Y1.3617  
G01 X-2.7820 Y1.3765  
G01 X-2.8373 Y1.4180  
G01 X-2.8633 Y1.4180  
G01 X-2.8820 Y1.4367  
G01 X-2.8820 Y1.4633  
G01 X-2.8633 Y1.4820  
G01 X-2.8367 Y1.4820  
G01 X-2.8180 Y1.4633  
G01 X-2.8180 Y1.4485  
G01 X-2.7627 Y1.4070  
G01 X-2.7367 Y1.4070  
G01 X-2.7180 Y1.3883  
G01 X-2.7180 Y1.3617  
G01 X-2.7367 Y1.3430  
G01 X-2.7417 Y1.3430  
G01 X-2.7803 Y1.2272  
G01 X-2.7148 Y1.1180  
G01 X-2.6180 Y1.1180  
G01 X-2.6180 Y1.3024  
G01 X-2.6168 Y1.3069  
G01 X-2.6144 Y1.3111  
G01 X-2.5180 Y1.4075  
G01 X-2.5180 Y1.4235  
G01 X-2.5204 Y1.4251  
G01 X-2.5249 Y1.4296  
G01 X-2.5284 Y1.4348  
G01 X-2.5308 Y1.4407  
G01 X-2.5320 Y1.4468  
G01 X-2.5320 Y1.4532  
G01 X-2.5308 Y1.4593  
G01 X-2.5284 Y1.4652  
G01 X-2.5249 Y1.4704  
G01 X-2.5204 Y1.4749  
G01 X-2.5152 Y1.4784  
G01 X-2.5093 Y1.4808  
G01 X-2.5032 Y1.4820  
G01 X-2.4968 Y1.4820  
G01 X-2.4907 Y1.4808  
G01 X-2.4848 Y1.4784  
G01 X-2.4796 Y1.4749  
G01 X-2.4751 Y1.4704  
G01 X-2.4716 Y1.4652  
G01 X-2.4692 Y1.4593  
G01 X-2.4680 Y1.4532  
G01 X-2.4680 Y1.4468  
G01 X-2.4692 Y1.4407  
G01 X-2.4716 Y1.4348  
G01 X-2.4751 Y1.4296  
G01 X-2.4796 Y1.4251  
G01 X-2.4820 Y1.4235  
G01 X-2.4820 Y1.3976  
G01 X-2.4832 Y1.3931  
G01 X-2.4856 Y1.3889  
G01 X-2.4889 Y1.3856  
G01 X-2.5820 Y1.2925  
G01 X-2.5820 Y1.1180  
G01 X-2.1641 Y1.1180  
G01 X-2.1180 Y1.3022  
G01 X-2.1180 Y1.3477  
G01 X-2.1320 Y1.3617  
G01 X-2.1320 Y1.3883  
G01 X-2.1133 Y1.4070  
G01 X-2.0867 Y1.4070  
G00 Z0.0500  
G00 X-2.3820 Y1.3976  
G01 Z-0.0040 F10    
G01 X-2.3832 Y1.3931  F20    
G01 X-2.3856 Y1.3889  
G01 X-2.4680 Y1.3065  
G01 X-2.4680 Y1.2867  
G01 X-2.4867 Y1.2680  
G01 X-2.5133 Y1.2680  
G01 X-2.5320 Y1.2867  
G01 X-2.5320 Y1.3133  
G01 X-2.5133 Y1.3320  
G01 X-2.4935 Y1.3320  
G01 X-2.4180 Y1.4075  
G01 X-2.4180 Y1.4925  
G01 X-2.4575 Y1.5320  
G01 X-2.4735 Y1.5320  
G01 X-2.4751 Y1.5296  
G01 X-2.4796 Y1.5251  
G01 X-2.4848 Y1.5216  
G01 X-2.4907 Y1.5192  
G01 X-2.4968 Y1.5180  
G01 X-2.5032 Y1.5180  
G01 X-2.5093 Y1.5192  
G01 X-2.5152 Y1.5216  
G01 X-2.5204 Y1.5251  
G01 X-2.5249 Y1.5296  
G01 X-2.5265 Y1.5320  
G01 X-2.5486 Y1.5320  
G01 X-2.5496 Y1.5318  
G01 X-2.5510 Y1.5320  
G01 X-2.5524 Y1.5320  
G01 X-2.5533 Y1.5323  
G01 X-2.5543 Y1.5324  
G01 X-2.5556 Y1.5329  
G01 X-2.5569 Y1.5332  
G01 X-2.5578 Y1.5337  
G01 X-2.5588 Y1.5341  
G01 X-2.5599 Y1.5349  
G01 X-2.5611 Y1.5356  
G01 X-2.5618 Y1.5363  
G01 X-2.5626 Y1.5369  
G01 X-2.5634 Y1.5380  
G01 X-2.5644 Y1.5389  
G01 X-2.5649 Y1.5398  
G01 X-2.6465 Y1.6418  
G01 X-2.6831 Y1.5686  
G01 X-2.6832 Y1.5681  
G01 X-2.6841 Y1.5665  
G01 X-2.6850 Y1.5648  
G01 X-2.6853 Y1.5644  
G01 X-2.6856 Y1.5639  
G01 X-2.6869 Y1.5627  
G01 X-2.6881 Y1.5613  
G01 X-2.6886 Y1.5610  
G01 X-2.6889 Y1.5606  
G01 X-2.6905 Y1.5597  
G01 X-2.6921 Y1.5587  
G01 X-2.6926 Y1.5585  
G01 X-2.6931 Y1.5582  
G01 X-2.6948 Y1.5578  
G01 X-2.6966 Y1.5572  
G01 X-2.6971 Y1.5571  
G01 X-2.6976 Y1.5570  
G01 X-2.6995 Y1.5570  
G01 X-2.7013 Y1.5569  
G01 X-2.7018 Y1.5570  
G01 X-2.8732 Y1.5570  
G01 X-2.8738 Y1.5569  
G01 X-2.8756 Y1.5570  
G01 X-2.8774 Y1.5570  
G01 X-2.8779 Y1.5572  
G01 X-2.8785 Y1.5572  
G01 X-2.8802 Y1.5578  
G01 X-2.8819 Y1.5582  
G01 X-2.8825 Y1.5585  
G01 X-2.8830 Y1.5587  
G01 X-2.8845 Y1.5597  
G01 X-2.8861 Y1.5606  
G01 X-2.8865 Y1.5610  
G01 X-2.9358 Y1.5939  
G01 X-2.9367 Y1.5930  
G01 X-2.9633 Y1.5930  
G01 X-2.9820 Y1.6117  
G01 X-2.9820 Y1.6383  
G01 X-2.9633 Y1.6570  
G01 X-2.9367 Y1.6570  
G01 X-2.9180 Y1.6383  
G01 X-2.9180 Y1.6253  
G01 X-2.8695 Y1.5930  
G01 X-2.7111 Y1.5930  
G01 X-2.6785 Y1.6582  
G01 X-2.6820 Y1.6617  
G01 X-2.6820 Y1.6883  
G01 X-2.6633 Y1.7070  
G01 X-2.6367 Y1.7070  
G01 X-2.6180 Y1.6883  
G01 X-2.6180 Y1.6638  
G01 X-2.5413 Y1.5680  
G01 X-2.5265 Y1.5680  
G01 X-2.5249 Y1.5704  
G01 X-2.5204 Y1.5749  
G01 X-2.5152 Y1.5784  
G01 X-2.5093 Y1.5808  
G01 X-2.5032 Y1.5820  
G01 X-2.4968 Y1.5820  
G01 X-2.4907 Y1.5808  
G01 X-2.4848 Y1.5784  
G01 X-2.4796 Y1.5749  
G01 X-2.4751 Y1.5704  
G01 X-2.4735 Y1.5680  
G01 X-2.4476 Y1.5680  
G01 X-2.4431 Y1.5668  
G01 X-2.4389 Y1.5644  
G01 X-2.3889 Y1.5144  
G01 X-2.3856 Y1.5111  
G01 X-2.3832 Y1.5069  
G01 X-2.3820 Y1.5024  
G01 X-2.3820 Y1.3976  
G00 Z0.0500  
G00 X-2.4751 Y1.6296  
G01 Z-0.0040 F10    
G01 X-2.4796 Y1.6251  F20    
G01 X-2.4848 Y1.6216  
G01 X-2.4907 Y1.6192  
G01 X-2.4968 Y1.6180  
G01 X-2.5032 Y1.6180  
G01 X-2.5093 Y1.6192  
G01 X-2.5152 Y1.6216  
G01 X-2.5204 Y1.6251  
G01 X-2.5249 Y1.6296  
G01 X-2.5265 Y1.6320  
G01 X-2.5274 Y1.6320  
G01 X-2.5319 Y1.6332  
G01 X-2.5361 Y1.6356  
G01 X-2.6357 Y1.7352  
G01 X-2.6981 Y1.7664  
G01 X-2.7025 Y1.7632  
G01 X-2.7085 Y1.7602  
G01 X-2.7149 Y1.7581  
G01 X-2.7150 Y1.7580  
G01 X-2.7272 Y1.6974  
G01 X-2.7180 Y1.6883  
G01 X-2.7180 Y1.6617  
G01 X-2.7367 Y1.6430  
G01 X-2.7633 Y1.6430  
G01 X-2.7760 Y1.6557  
G01 X-2.8180 Y1.6417  
G01 X-2.8180 Y1.6367  
G01 X-2.8367 Y1.6180  
G01 X-2.8633 Y1.6180  
G01 X-2.8820 Y1.6367  
G01 X-2.8820 Y1.6633  
G01 X-2.8633 Y1.6820  
G01 X-2.8367 Y1.6820  
G01 X-2.8303 Y1.6755  
G01 X-2.7824 Y1.6915  
G01 X-2.7819 Y1.6918  
G01 X-2.7802 Y1.6922  
G01 X-2.7784 Y1.6928  
G01 X-2.7779 Y1.6929  
G01 X-2.7774 Y1.6930  
G01 X-2.7773 Y1.6930  
G01 X-2.7633 Y1.7070  
G01 X-2.7620 Y1.7070  
G01 X-2.7503 Y1.7652  
G01 X-2.7530 Y1.7672  
G01 X-2.7578 Y1.7720  
G01 X-2.7618 Y1.7775  
G01 X-2.7648 Y1.7835  
G01 X-2.7669 Y1.7899  
G01 X-2.7680 Y1.7966  
G01 X-2.7680 Y1.8034  
G01 X-2.7669 Y1.8101  
G01 X-2.7648 Y1.8165  
G01 X-2.7618 Y1.8225  
G01 X-2.7578 Y1.8280  
G01 X-2.7530 Y1.8328  
G01 X-2.7475 Y1.8368  
G01 X-2.7415 Y1.8398  
G01 X-2.7351 Y1.8419  
G01 X-2.7284 Y1.8430  
G01 X-2.7216 Y1.8430  
G01 X-2.7149 Y1.8419  
G01 X-2.7085 Y1.8398  
G01 X-2.7025 Y1.8368  
G01 X-2.6970 Y1.8328  
G01 X-2.6922 Y1.8280  
G01 X-2.6882 Y1.8225  
G01 X-2.6852 Y1.8165  
G01 X-2.6831 Y1.8101  
G01 X-2.6820 Y1.8034  
G01 X-2.6820 Y1.7986  
G01 X-2.6186 Y1.7669  
G01 X-2.6181 Y1.7668  
G01 X-2.6165 Y1.7659  
G01 X-2.6148 Y1.7650  
G01 X-2.6144 Y1.7647  
G01 X-2.6139 Y1.7644  
G01 X-2.6127 Y1.7631  
G01 X-2.6113 Y1.7619  
G01 X-2.6110 Y1.7614  
G01 X-2.5224 Y1.6729  
G01 X-2.5204 Y1.6749  
G01 X-2.5152 Y1.6784  
G01 X-2.5093 Y1.6808  
G01 X-2.5032 Y1.6820  
G01 X-2.4968 Y1.6820  
G01 X-2.4907 Y1.6808  
G01 X-2.4848 Y1.6784  
G01 X-2.4796 Y1.6749  
G01 X-2.4751 Y1.6704  
G01 X-2.4716 Y1.6652  
G01 X-2.4692 Y1.6593  
G01 X-2.4680 Y1.6532  
G01 X-2.4680 Y1.6468  
G01 X-2.4692 Y1.6407  
G01 X-2.4716 Y1.6348  
G01 X-2.4751 Y1.6296  
G00 Z0.0500  
G00 X-3.1928 Y1.6295  
G01 Z-0.0040 F10    
G01 X-3.1932 Y1.6281  F20    
G01 X-3.1937 Y1.6273  
G01 X-3.2220 Y1.5517  
G01 X-3.2220 Y1.4756  
G01 X-3.1611 Y1.3865  
G01 X-3.1606 Y1.3861  
G01 X-3.1598 Y1.3846  
G01 X-3.1588 Y1.3832  
G01 X-3.1586 Y1.3826  
G01 X-3.1582 Y1.3819  
G01 X-3.1578 Y1.3803  
G01 X-3.1572 Y1.3787  
G01 X-3.1572 Y1.3780  
G01 X-3.1570 Y1.3774  
G01 X-3.1570 Y1.3757  
G01 X-3.1569 Y1.3740  
G01 X-3.1570 Y1.3733  
G01 X-3.1570 Y1.3076  
G01 X-3.1582 Y1.3031  
G01 X-3.1606 Y1.2989  
G01 X-3.1639 Y1.2956  
G01 X-3.2115 Y1.2480  
G01 X-3.2123 Y1.2470  
G01 X-3.2132 Y1.2464  
G01 X-3.2139 Y1.2456  
G01 X-3.2151 Y1.2449  
G01 X-3.2161 Y1.2442  
G01 X-3.2171 Y1.2438  
G01 X-3.2181 Y1.2432  
G01 X-3.2188 Y1.2430  
G01 X-3.2192 Y1.2407  
G01 X-3.2216 Y1.2348  
G01 X-3.2251 Y1.2296  
G01 X-3.2296 Y1.2251  
G01 X-3.2348 Y1.2216  
G01 X-3.2407 Y1.2192  
G01 X-3.2468 Y1.2180  
G01 X-3.2532 Y1.2180  
G01 X-3.2593 Y1.2192  
G01 X-3.2652 Y1.2216  
G01 X-3.2704 Y1.2251  
G01 X-3.2749 Y1.2296  
G01 X-3.2784 Y1.2348  
G01 X-3.2808 Y1.2407  
G01 X-3.2820 Y1.2468  
G01 X-3.2820 Y1.2532  
G01 X-3.2808 Y1.2593  
G01 X-3.2784 Y1.2652  
G01 X-3.2749 Y1.2704  
G01 X-3.2704 Y1.2749  
G01 X-3.2652 Y1.2784  
G01 X-3.2593 Y1.2808  
G01 X-3.2532 Y1.2820  
G01 X-3.2468 Y1.2820  
G01 X-3.2407 Y1.2808  
G01 X-3.2348 Y1.2784  
G01 X-3.2332 Y1.2773  
G01 X-3.1930 Y1.3175  
G01 X-3.1930 Y1.3694  
G01 X-3.2539 Y1.4585  
G01 X-3.2544 Y1.4589  
G01 X-3.2552 Y1.4604  
G01 X-3.2562 Y1.4618  
G01 X-3.2564 Y1.4624  
G01 X-3.2568 Y1.4631  
G01 X-3.2572 Y1.4647  
G01 X-3.2578 Y1.4663  
G01 X-3.2578 Y1.4670  
G01 X-3.2580 Y1.4676  
G01 X-3.2580 Y1.4693  
G01 X-3.2581 Y1.4710  
G01 X-3.2580 Y1.4717  
G01 X-3.2580 Y1.5535  
G01 X-3.2581 Y1.5544  
G01 X-3.2580 Y1.5559  
G01 X-3.2580 Y1.5574  
G01 X-3.2578 Y1.5582  
G01 X-3.2577 Y1.5591  
G01 X-3.2572 Y1.5605  
G01 X-3.2568 Y1.5619  
G01 X-3.2563 Y1.5627  
G01 X-3.2280 Y1.6383  
G01 X-3.2280 Y1.9325  
G01 X-3.2635 Y1.9680  
G01 X-3.2833 Y1.9680  
G01 X-3.3020 Y1.9867  
G01 X-3.3020 Y2.0133  
G01 X-3.2880 Y2.0273  
G01 X-3.2880 Y2.0977  
G01 X-3.3020 Y2.1117  
G01 X-3.3020 Y2.1383  
G01 X-3.2833 Y2.1570  
G01 X-3.2567 Y2.1570  
G01 X-3.2380 Y2.1383  
G01 X-3.2380 Y2.1117  
G01 X-3.2520 Y2.0977  
G01 X-3.2520 Y2.0273  
G01 X-3.2380 Y2.0133  
G01 X-3.2380 Y1.9935  
G01 X-3.1956 Y1.9511  
G01 X-3.1932 Y1.9469  
G01 X-3.1920 Y1.9424  
G01 X-3.1920 Y1.6365  
G01 X-3.1919 Y1.6356  
G01 X-3.1920 Y1.6341  
G01 X-3.1920 Y1.6326  
G01 X-3.1922 Y1.6318  
G01 X-3.1923 Y1.6309  
G01 X-3.1928 Y1.6295  
G00 Z0.0500  
G00 X-3.2751 Y1.6336  
G01 Z-0.0040 F10    
G01 X-3.2796 Y1.6291  F20    
G01 X-3.2848 Y1.6256  
G01 X-3.2907 Y1.6232  
G01 X-3.2920 Y1.6230  
G01 X-3.2920 Y1.6226  
G01 X-3.2924 Y1.6210  
G01 X-3.2927 Y1.6194  
G01 X-3.2931 Y1.6187  
G01 X-3.3070 Y1.5676  
G01 X-3.3070 Y1.4325  
G01 X-3.2560 Y1.3814  
G01 X-3.2532 Y1.3820  
G01 X-3.2468 Y1.3820  
G01 X-3.2407 Y1.3808  
G01 X-3.2348 Y1.3784  
G01 X-3.2296 Y1.3749  
G01 X-3.2251 Y1.3704  
G01 X-3.2216 Y1.3652  
G01 X-3.2192 Y1.3593  
G01 X-3.2180 Y1.3532  
G01 X-3.2180 Y1.3468  
G01 X-3.2192 Y1.3407  
G01 X-3.2216 Y1.3348  
G01 X-3.2251 Y1.3296  
G01 X-3.2296 Y1.3251  
G01 X-3.2348 Y1.3216  
G01 X-3.2407 Y1.3192  
G01 X-3.2468 Y1.3180  
G01 X-3.2532 Y1.3180  
G01 X-3.2593 Y1.3192  
G01 X-3.2652 Y1.3216  
G01 X-3.2704 Y1.3251  
G01 X-3.2749 Y1.3296  
G01 X-3.2784 Y1.3348  
G01 X-3.2808 Y1.3407  
G01 X-3.2820 Y1.3468  
G01 X-3.2820 Y1.3532  
G01 X-3.2814 Y1.3560  
G01 X-3.3361 Y1.4106  
G01 X-3.3394 Y1.4139  
G01 X-3.3418 Y1.4181  
G01 X-3.3430 Y1.4226  
G01 X-3.3430 Y1.5677  
G01 X-3.3430 Y1.5700  
G01 X-3.3430 Y1.5724  
G01 X-3.3424 Y1.5747  
G01 X-3.3418 Y1.5769  
G01 X-3.3276 Y1.6290  
G01 X-3.3263 Y1.6358  
G01 X-3.3284 Y1.6388  
G01 X-3.3308 Y1.6447  
G01 X-3.3320 Y1.6508  
G01 X-3.3320 Y1.7092  
G01 X-3.3308 Y1.7153  
G01 X-3.3284 Y1.7212  
G01 X-3.3249 Y1.7264  
G01 X-3.3204 Y1.7309  
G01 X-3.3180 Y1.7325  
G01 X-3.3180 Y1.8027  
G01 X-3.3320 Y1.8167  
G01 X-3.3320 Y1.8433  
G01 X-3.3180 Y1.8573  
G01 X-3.3180 Y1.8774  
G01 X-3.3168 Y1.8819  
G01 X-3.3144 Y1.8861  
G01 X-3.3047 Y1.8957  
G01 X-3.3047 Y1.9249  
G01 X-3.3038 Y1.9271  
G01 X-3.3021 Y1.9288  
G01 X-3.2999 Y1.9297  
