(/Applications/pcbgcode.repo/pcb-gcode.ulp)
(Copyright 2005 - 2012 by John Johnson)
(See readme.txt for licensing terms.)
(This file generated from the board:)
(.../eurorack/MFOS_VCO/mfos_vco.brd)
(Current profile is .../pcbgcode.repo/profiles/mach.pp  )
(This file generated 9/11/15 12:49 AM)
(Settings from pcb-machine.h)
(spindle on time = 0.0000)
(spindle speed = 15000.0000)
(milling depth = -0.0630)
(tool change at 0.0000  0.0000  3.0000  )
(feed rate xy = F10    )
(feed rate z  = F5     )
(Z Axis Settings)
(  High     Up        Down     Drill)
(1.0000  	0.0500  	-0.0040 	-0.0730 )
(Settings from pcb-defaults.h)
(isolate min = 0.0010)
(isolate max = 0.0150)
(isolate step = 0.0015)
(Generated bottom outlines, bottom drill, )
(Unit of measure: inch)
(Inch Mode)
G20
(Absolute Coordinates)
G90
S15000
G00 Z1.0000  
G00 X0.0000  Y0.0000  
M03
G04 P0.000000
G00 Z0.0500  
G00 X0.2200  Y1.3500  
G01 Z-0.0630 F5     
G01 X0.0300  Y1.5500  F10    
G01 X0.0300  Y2.6800  
G01 X0.4500  Y3.1900  
G01 X0.4600  Y3.1900  
G00 Z0.0500  
G00 X0.4600  Y3.2000  
G01 Z-0.0630 F5     
G01 X0.4700  Y3.2100  F10    
G01 X3.9000  Y3.2100  
G01 X3.9000  Y2.3000  
G01 X3.7900  Y2.1900  
G01 X3.7900  Y1.0300  
G01 X3.6600  Y0.9300  
G01 X2.0800  Y0.9300  
G01 X1.7900  Y1.2600  
G01 X1.2700  Y1.2600  
G01 X1.1900  Y1.3300  
G01 X0.2200  Y1.3500  
G00 Z1.0000  
M05
M02
