( Made using CamBam - http://www.cambam.co.uk )
( vco_ramp_core_panel 9/30/2015 7:46:15 PM )
( T3 : 3.175 )
G21 G90 G64 G40
G0 Z3.0
( T3 : 3.175 )
T3 M6
( mounting )
G17
M3 S1000
G0 X20.7259 Y90.5516
G0 Z3.0
G0 X20.7384 Y90.5516
G0 Z0.5
G1 F1000.0 Z0.0
G2 F2000.0 X20.7197 Y90.5408 Z-0.0333 I-0.0125 J0.0
G2 Y90.5624 Z-0.0667 I0.0062 J0.0108
G2 X20.7384 Y90.5516 Z-0.1 I0.0063 J-0.0108
G2 X20.7197 Y90.5408 Z-0.1333 I-0.0125 J0.0
G2 Y90.5624 Z-0.1667 I0.0062 J0.0108
G2 X20.7384 Y90.5516 Z-0.2 I0.0063 J-0.0108
G2 X20.7197 Y90.5408 Z-0.2333 I-0.0125 J0.0
G2 Y90.5624 Z-0.2667 I0.0062 J0.0108
G2 X20.7384 Y90.5516 Z-0.3 I0.0063 J-0.0108
G2 X20.7197 Y90.5408 Z-0.3333 I-0.0125 J0.0
G2 Y90.5624 Z-0.3667 I0.0062 J0.0108
G2 X20.7384 Y90.5516 Z-0.4 I0.0063 J-0.0108
G2 X20.7197 Y90.5408 Z-0.4333 I-0.0125 J0.0
G2 Y90.5624 Z-0.4667 I0.0062 J0.0108
G2 X20.7384 Y90.5516 Z-0.5 I0.0063 J-0.0108
G2 X20.7197 Y90.5408 Z-0.5333 I-0.0125 J0.0
G2 Y90.5624 Z-0.5667 I0.0062 J0.0108
G2 X20.7384 Y90.5516 Z-0.6 I0.0063 J-0.0108
G2 X20.7197 Y90.5408 Z-0.6333 I-0.0125 J0.0
G2 Y90.5624 Z-0.6667 I0.0062 J0.0108
G2 X20.7384 Y90.5516 Z-0.7 I0.0063 J-0.0108
G2 X20.7197 Y90.5408 Z-0.7333 I-0.0125 J0.0
G2 Y90.5624 Z-0.7667 I0.0062 J0.0108
G2 X20.7384 Y90.5516 Z-0.8 I0.0063 J-0.0108
G2 X20.7197 Y90.5408 Z-0.8333 I-0.0125 J0.0
G2 Y90.5624 Z-0.8667 I0.0062 J0.0108
G2 X20.7384 Y90.5516 Z-0.9 I0.0063 J-0.0108
G2 X20.7197 Y90.5408 Z-0.9333 I-0.0125 J0.0
G2 Y90.5624 Z-0.9667 I0.0062 J0.0108
G2 X20.7384 Y90.5516 Z-1.0 I0.0063 J-0.0108
G2 X20.7197 Y90.5408 Z-1.0333 I-0.0125 J0.0
G2 Y90.5624 Z-1.0667 I0.0062 J0.0108
G2 X20.7384 Y90.5516 Z-1.1 I0.0063 J-0.0108
G2 X20.7197 Y90.5408 Z-1.1333 I-0.0125 J0.0
G2 Y90.5624 Z-1.1667 I0.0062 J0.0108
G2 X20.7384 Y90.5516 Z-1.2 I0.0063 J-0.0108
G2 X20.7197 Y90.5408 Z-1.2333 I-0.0125 J0.0
G2 Y90.5624 Z-1.2667 I0.0062 J0.0108
G2 X20.7384 Y90.5516 Z-1.3 I0.0063 J-0.0108
G2 X20.7197 Y90.5408 Z-1.3333 I-0.0125 J0.0
G2 Y90.5624 Z-1.3667 I0.0062 J0.0108
G2 X20.7384 Y90.5516 Z-1.4 I0.0063 J-0.0108
G2 X20.7197 Y90.5408 Z-1.4333 I-0.0125 J0.0
G2 Y90.5624 Z-1.4667 I0.0062 J0.0108
G2 X20.7384 Y90.5516 Z-1.5 I0.0063 J-0.0108
G2 X20.7197 Y90.5408 Z-1.5333 I-0.0125 J0.0
G2 Y90.5624 Z-1.5667 I0.0062 J0.0108
G2 X20.7384 Y90.5516 Z-1.6 I0.0063 J-0.0108
G2 X20.7197 Y90.5408 Z-1.6333 I-0.0125 J0.0
G2 Y90.5624 Z-1.6667 I0.0062 J0.0108
G2 X20.7384 Y90.5516 Z-1.7 I0.0063 J-0.0108
G2 X20.7197 Y90.5408 Z-1.7333 I-0.0125 J0.0
G2 Y90.5624 Z-1.7667 I0.0062 J0.0108
G2 X20.7384 Y90.5516 Z-1.8 I0.0063 J-0.0108
G2 X20.7197 Y90.5408 Z-1.8333 I-0.0125 J0.0
G2 Y90.5624 Z-1.8667 I0.0062 J0.0108
G2 X20.7384 Y90.5516 Z-1.9 I0.0063 J-0.0108
G2 X20.7197 Y90.5408 Z-1.9333 I-0.0125 J0.0
G2 Y90.5624 Z-1.9667 I0.0062 J0.0108
G2 X20.7384 Y90.5516 Z-2.0 I0.0063 J-0.0108
G2 X20.7197 Y90.5408 Z-2.0333 I-0.0125 J0.0
G2 Y90.5624 Z-2.0667 I0.0062 J0.0108
G2 X20.7384 Y90.5516 Z-2.1 I0.0063 J-0.0108
G2 X20.7197 Y90.5408 Z-2.1333 I-0.0125 J0.0
G2 Y90.5624 Z-2.1667 I0.0062 J0.0108
G2 X20.7384 Y90.5516 Z-2.2 I0.0063 J-0.0108
G2 X20.7197 Y90.5408 Z-2.2333 I-0.0125 J0.0
G2 Y90.5624 Z-2.2667 I0.0062 J0.0108
G2 X20.7384 Y90.5516 Z-2.3 I0.0063 J-0.0108
G2 X20.7197 Y90.5408 Z-2.3333 I-0.0125 J0.0
G2 Y90.5624 Z-2.3667 I0.0062 J0.0108
G2 X20.7384 Y90.5516 Z-2.4 I0.0063 J-0.0108
G2 X20.7197 Y90.5408 Z-2.4333 I-0.0125 J0.0
G2 Y90.5624 Z-2.4667 I0.0062 J0.0108
G2 X20.7384 Y90.5516 Z-2.5 I0.0063 J-0.0108
G2 X20.7197 Y90.5408 Z-2.5333 I-0.0125 J0.0
G2 Y90.5624 Z-2.5667 I0.0062 J0.0108
G2 X20.7384 Y90.5516 Z-2.6 I0.0063 J-0.0108
G2 X20.7197 Y90.5408 Z-2.6333 I-0.0125 J0.0
G2 Y90.5624 Z-2.6667 I0.0062 J0.0108
G2 X20.7384 Y90.5516 Z-2.7 I0.0063 J-0.0108
G2 X20.7197 Y90.5408 Z-2.7333 I-0.0125 J0.0
G2 Y90.5624 Z-2.7667 I0.0062 J0.0108
G2 X20.7384 Y90.5516 Z-2.8 I0.0063 J-0.0108
G2 X20.7197 Y90.5408 Z-2.8333 I-0.0125 J0.0
G2 Y90.5624 Z-2.8667 I0.0062 J0.0108
G2 X20.7384 Y90.5516 Z-2.9 I0.0063 J-0.0108
G2 X20.7197 Y90.5408 Z-2.9333 I-0.0125 J0.0
G2 Y90.5624 Z-2.9667 I0.0062 J0.0108
G2 X20.7384 Y90.5516 Z-3.0 I0.0063 J-0.0108
G2 X20.7197 Y90.5408 Z-3.0333 I-0.0125 J0.0
G2 Y90.5624 Z-3.0667 I0.0062 J0.0108
G2 X20.7384 Y90.5516 Z-3.1 I0.0063 J-0.0108
G2 X20.7197 Y90.5408 Z-3.1333 I-0.0125 J0.0
G2 Y90.5624 Z-3.1667 I0.0062 J0.0108
G2 X20.7384 Y90.5516 Z-3.2 I0.0063 J-0.0108
G2 X20.7197 Y90.5408 I-0.0125 J0.0
G2 Y90.5624 I0.0063 J0.0108
G2 X20.7384 Y90.5516 I0.0062 J-0.0108
G0 Z3.0
G0 X12.8866 Y106.5376
G0 Z0.5
G1 F1000.0 Z0.0
G2 F2000.0 X12.8679 Y106.5267 Z-0.0333 I-0.0125 J0.0
G2 Y106.5484 Z-0.0667 I0.0062 J0.0108
G2 X12.8866 Y106.5376 Z-0.1 I0.0063 J-0.0108
G2 X12.8679 Y106.5267 Z-0.1333 I-0.0125 J0.0
G2 Y106.5484 Z-0.1667 I0.0062 J0.0108
G2 X12.8866 Y106.5376 Z-0.2 I0.0063 J-0.0108
G2 X12.8679 Y106.5267 Z-0.2333 I-0.0125 J0.0
G2 Y106.5484 Z-0.2667 I0.0062 J0.0108
G2 X12.8866 Y106.5376 Z-0.3 I0.0063 J-0.0108
G2 X12.8679 Y106.5267 Z-0.3333 I-0.0125 J0.0
G2 Y106.5484 Z-0.3667 I0.0062 J0.0108
G2 X12.8866 Y106.5376 Z-0.4 I0.0063 J-0.0108
G2 X12.8679 Y106.5267 Z-0.4333 I-0.0125 J0.0
G2 Y106.5484 Z-0.4667 I0.0062 J0.0108
G2 X12.8866 Y106.5376 Z-0.5 I0.0063 J-0.0108
G2 X12.8679 Y106.5267 Z-0.5333 I-0.0125 J0.0
G2 Y106.5484 Z-0.5667 I0.0062 J0.0108
G2 X12.8866 Y106.5376 Z-0.6 I0.0063 J-0.0108
G2 X12.8679 Y106.5267 Z-0.6333 I-0.0125 J0.0
G2 Y106.5484 Z-0.6667 I0.0062 J0.0108
G2 X12.8866 Y106.5376 Z-0.7 I0.0063 J-0.0108
G2 X12.8679 Y106.5267 Z-0.7333 I-0.0125 J0.0
G2 Y106.5484 Z-0.7667 I0.0062 J0.0108
G2 X12.8866 Y106.5376 Z-0.8 I0.0063 J-0.0108
G2 X12.8679 Y106.5267 Z-0.8333 I-0.0125 J0.0
G2 Y106.5484 Z-0.8667 I0.0062 J0.0108
G2 X12.8866 Y106.5376 Z-0.9 I0.0063 J-0.0108
G2 X12.8679 Y106.5267 Z-0.9333 I-0.0125 J0.0
G2 Y106.5484 Z-0.9667 I0.0062 J0.0108
G2 X12.8866 Y106.5376 Z-1.0 I0.0063 J-0.0108
G2 X12.8679 Y106.5267 Z-1.0333 I-0.0125 J0.0
G2 Y106.5484 Z-1.0667 I0.0062 J0.0108
G2 X12.8866 Y106.5376 Z-1.1 I0.0063 J-0.0108
G2 X12.8679 Y106.5267 Z-1.1333 I-0.0125 J0.0
G2 Y106.5484 Z-1.1667 I0.0062 J0.0108
G2 X12.8866 Y106.5376 Z-1.2 I0.0063 J-0.0108
G2 X12.8679 Y106.5267 Z-1.2333 I-0.0125 J0.0
G2 Y106.5484 Z-1.2667 I0.0062 J0.0108
G2 X12.8866 Y106.5376 Z-1.3 I0.0063 J-0.0108
G2 X12.8679 Y106.5267 Z-1.3333 I-0.0125 J0.0
G2 Y106.5484 Z-1.3667 I0.0062 J0.0108
G2 X12.8866 Y106.5376 Z-1.4 I0.0063 J-0.0108
G2 X12.8679 Y106.5267 Z-1.4333 I-0.0125 J0.0
G2 Y106.5484 Z-1.4667 I0.0062 J0.0108
G2 X12.8866 Y106.5376 Z-1.5 I0.0063 J-0.0108
G2 X12.8679 Y106.5267 Z-1.5333 I-0.0125 J0.0
G2 Y106.5484 Z-1.5667 I0.0062 J0.0108
G2 X12.8866 Y106.5376 Z-1.6 I0.0063 J-0.0108
G2 X12.8679 Y106.5267 Z-1.6333 I-0.0125 J0.0
G2 Y106.5484 Z-1.6667 I0.0062 J0.0108
G2 X12.8866 Y106.5376 Z-1.7 I0.0063 J-0.0108
G2 X12.8679 Y106.5267 Z-1.7333 I-0.0125 J0.0
G2 Y106.5484 Z-1.7667 I0.0062 J0.0108
G2 X12.8866 Y106.5376 Z-1.8 I0.0063 J-0.0108
G2 X12.8679 Y106.5267 Z-1.8333 I-0.0125 J0.0
G2 Y106.5484 Z-1.8667 I0.0062 J0.0108
G2 X12.8866 Y106.5376 Z-1.9 I0.0063 J-0.0108
G2 X12.8679 Y106.5267 Z-1.9333 I-0.0125 J0.0
G2 Y106.5484 Z-1.9667 I0.0062 J0.0108
G2 X12.8866 Y106.5376 Z-2.0 I0.0063 J-0.0108
G2 X12.8679 Y106.5267 Z-2.0333 I-0.0125 J0.0
G2 Y106.5484 Z-2.0667 I0.0062 J0.0108
G2 X12.8866 Y106.5376 Z-2.1 I0.0063 J-0.0108
G2 X12.8679 Y106.5267 Z-2.1333 I-0.0125 J0.0
G2 Y106.5484 Z-2.1667 I0.0062 J0.0108
G2 X12.8866 Y106.5376 Z-2.2 I0.0063 J-0.0108
G2 X12.8679 Y106.5267 Z-2.2333 I-0.0125 J0.0
G2 Y106.5484 Z-2.2667 I0.0062 J0.0108
G2 X12.8866 Y106.5376 Z-2.3 I0.0063 J-0.0108
G2 X12.8679 Y106.5267 Z-2.3333 I-0.0125 J0.0
G2 Y106.5484 Z-2.3667 I0.0062 J0.0108
G2 X12.8866 Y106.5376 Z-2.4 I0.0063 J-0.0108
G2 X12.8679 Y106.5267 Z-2.4333 I-0.0125 J0.0
G2 Y106.5484 Z-2.4667 I0.0062 J0.0108
G2 X12.8866 Y106.5376 Z-2.5 I0.0063 J-0.0108
G2 X12.8679 Y106.5267 Z-2.5333 I-0.0125 J0.0
G2 Y106.5484 Z-2.5667 I0.0062 J0.0108
G2 X12.8866 Y106.5376 Z-2.6 I0.0063 J-0.0108
G2 X12.8679 Y106.5267 Z-2.6333 I-0.0125 J0.0
G2 Y106.5484 Z-2.6667 I0.0062 J0.0108
G2 X12.8866 Y106.5376 Z-2.7 I0.0063 J-0.0108
G2 X12.8679 Y106.5267 Z-2.7333 I-0.0125 J0.0
G2 Y106.5484 Z-2.7667 I0.0062 J0.0108
G2 X12.8866 Y106.5376 Z-2.8 I0.0063 J-0.0108
G2 X12.8679 Y106.5267 Z-2.8333 I-0.0125 J0.0
G2 Y106.5484 Z-2.8667 I0.0062 J0.0108
G2 X12.8866 Y106.5376 Z-2.9 I0.0063 J-0.0108
G2 X12.8679 Y106.5267 Z-2.9333 I-0.0125 J0.0
G2 Y106.5484 Z-2.9667 I0.0062 J0.0108
G2 X12.8866 Y106.5376 Z-3.0 I0.0063 J-0.0108
G2 X12.8679 Y106.5267 Z-3.0333 I-0.0125 J0.0
G2 Y106.5484 Z-3.0667 I0.0062 J0.0108
G2 X12.8866 Y106.5376 Z-3.1 I0.0063 J-0.0108
G2 X12.8679 Y106.5267 Z-3.1333 I-0.0125 J0.0
G2 Y106.5484 Z-3.1667 I0.0063 J0.0108
G2 X12.8866 Y106.5376 Z-3.2 I0.0062 J-0.0108
G2 X12.8679 Y106.5267 I-0.0125 J0.0
G2 Y106.5484 I0.0063 J0.0108
G2 X12.8866 Y106.5376 I0.0062 J-0.0108
G0 Z3.0
G0 X34.1304 Y125.1802
G0 Z0.5
G1 F1000.0 Z0.0
G2 F2000.0 X34.1116 Y125.1693 Z-0.0333 I-0.0125 J0.0
G2 Y125.191 Z-0.0667 I0.0062 J0.0108
G2 X34.1304 Y125.1802 Z-0.1 I0.0063 J-0.0108
G2 X34.1116 Y125.1693 Z-0.1333 I-0.0125 J0.0
G2 Y125.191 Z-0.1667 I0.0062 J0.0108
G2 X34.1304 Y125.1802 Z-0.2 I0.0063 J-0.0108
G2 X34.1116 Y125.1693 Z-0.2333 I-0.0125 J0.0
G2 Y125.191 Z-0.2667 I0.0062 J0.0108
G2 X34.1304 Y125.1802 Z-0.3 I0.0063 J-0.0108
G2 X34.1116 Y125.1693 Z-0.3333 I-0.0125 J0.0
G2 Y125.191 Z-0.3667 I0.0062 J0.0108
G2 X34.1304 Y125.1802 Z-0.4 I0.0063 J-0.0108
G2 X34.1116 Y125.1693 Z-0.4333 I-0.0125 J0.0
G2 Y125.191 Z-0.4667 I0.0062 J0.0108
G2 X34.1304 Y125.1802 Z-0.5 I0.0063 J-0.0108
G2 X34.1116 Y125.1693 Z-0.5333 I-0.0125 J0.0
G2 Y125.191 Z-0.5667 I0.0062 J0.0108
G2 X34.1304 Y125.1802 Z-0.6 I0.0063 J-0.0108
G2 X34.1116 Y125.1693 Z-0.6333 I-0.0125 J0.0
G2 Y125.191 Z-0.6667 I0.0062 J0.0108
G2 X34.1304 Y125.1802 Z-0.7 I0.0063 J-0.0108
G2 X34.1116 Y125.1693 Z-0.7333 I-0.0125 J0.0
G2 Y125.191 Z-0.7667 I0.0062 J0.0108
G2 X34.1304 Y125.1802 Z-0.8 I0.0063 J-0.0108
G2 X34.1116 Y125.1693 Z-0.8333 I-0.0125 J0.0
G2 Y125.191 Z-0.8667 I0.0062 J0.0108
G2 X34.1304 Y125.1802 Z-0.9 I0.0063 J-0.0108
G2 X34.1116 Y125.1693 Z-0.9333 I-0.0125 J0.0
G2 Y125.191 Z-0.9667 I0.0062 J0.0108
G2 X34.1304 Y125.1802 Z-1.0 I0.0063 J-0.0108
G2 X34.1116 Y125.1693 Z-1.0333 I-0.0125 J0.0
G2 Y125.191 Z-1.0667 I0.0062 J0.0108
G2 X34.1304 Y125.1802 Z-1.1 I0.0063 J-0.0108
G2 X34.1116 Y125.1693 Z-1.1333 I-0.0125 J0.0
G2 Y125.191 Z-1.1667 I0.0062 J0.0108
G2 X34.1304 Y125.1802 Z-1.2 I0.0063 J-0.0108
G2 X34.1116 Y125.1693 Z-1.2333 I-0.0125 J0.0
G2 Y125.191 Z-1.2667 I0.0062 J0.0108
G2 X34.1304 Y125.1802 Z-1.3 I0.0063 J-0.0108
G2 X34.1116 Y125.1693 Z-1.3333 I-0.0125 J0.0
G2 Y125.191 Z-1.3667 I0.0062 J0.0108
G2 X34.1304 Y125.1802 Z-1.4 I0.0063 J-0.0108
G2 X34.1116 Y125.1693 Z-1.4333 I-0.0125 J0.0
G2 Y125.191 Z-1.4667 I0.0062 J0.0108
G2 X34.1304 Y125.1802 Z-1.5 I0.0063 J-0.0108
G2 X34.1116 Y125.1693 Z-1.5333 I-0.0125 J0.0
G2 Y125.191 Z-1.5667 I0.0062 J0.0108
G2 X34.1304 Y125.1802 Z-1.6 I0.0063 J-0.0108
G2 X34.1116 Y125.1693 Z-1.6333 I-0.0125 J0.0
G2 Y125.191 Z-1.6667 I0.0062 J0.0108
G2 X34.1304 Y125.1802 Z-1.7 I0.0063 J-0.0108
G2 X34.1116 Y125.1693 Z-1.7333 I-0.0125 J0.0
G2 Y125.191 Z-1.7667 I0.0062 J0.0108
G2 X34.1304 Y125.1802 Z-1.8 I0.0063 J-0.0108
G2 X34.1116 Y125.1693 Z-1.8333 I-0.0125 J0.0
G2 Y125.191 Z-1.8667 I0.0062 J0.0108
G2 X34.1304 Y125.1802 Z-1.9 I0.0063 J-0.0108
G2 X34.1116 Y125.1693 Z-1.9333 I-0.0125 J0.0
G2 Y125.191 Z-1.9667 I0.0062 J0.0108
G2 X34.1304 Y125.1802 Z-2.0 I0.0063 J-0.0108
G2 X34.1116 Y125.1693 Z-2.0333 I-0.0125 J0.0
G2 Y125.191 Z-2.0667 I0.0062 J0.0108
G2 X34.1304 Y125.1802 Z-2.1 I0.0063 J-0.0108
G2 X34.1116 Y125.1693 Z-2.1333 I-0.0125 J0.0
G2 Y125.191 Z-2.1667 I0.0062 J0.0108
G2 X34.1304 Y125.1802 Z-2.2 I0.0063 J-0.0108
G2 X34.1116 Y125.1693 Z-2.2333 I-0.0125 J0.0
G2 Y125.191 Z-2.2667 I0.0062 J0.0108
G2 X34.1304 Y125.1802 Z-2.3 I0.0063 J-0.0108
G2 X34.1116 Y125.1693 Z-2.3333 I-0.0125 J0.0
G2 Y125.191 Z-2.3667 I0.0062 J0.0108
G2 X34.1304 Y125.1802 Z-2.4 I0.0063 J-0.0108
G2 X34.1116 Y125.1693 Z-2.4333 I-0.0125 J0.0
G2 Y125.191 Z-2.4667 I0.0062 J0.0108
G2 X34.1304 Y125.1802 Z-2.5 I0.0063 J-0.0108
G2 X34.1116 Y125.1693 Z-2.5333 I-0.0125 J0.0
G2 Y125.191 Z-2.5667 I0.0062 J0.0108
G2 X34.1304 Y125.1802 Z-2.6 I0.0063 J-0.0108
G2 X34.1116 Y125.1693 Z-2.6333 I-0.0125 J0.0
G2 Y125.191 Z-2.6667 I0.0062 J0.0108
G2 X34.1304 Y125.1802 Z-2.7 I0.0063 J-0.0108
G2 X34.1116 Y125.1693 Z-2.7333 I-0.0125 J0.0
G2 Y125.191 Z-2.7667 I0.0062 J0.0108
G2 X34.1304 Y125.1802 Z-2.8 I0.0063 J-0.0108
G2 X34.1116 Y125.1693 Z-2.8333 I-0.0125 J0.0
G2 Y125.191 Z-2.8667 I0.0062 J0.0108
G2 X34.1304 Y125.1802 Z-2.9 I0.0063 J-0.0108
G2 X34.1116 Y125.1693 Z-2.9333 I-0.0125 J0.0
G2 Y125.191 Z-2.9667 I0.0063 J0.0108
G2 X34.1304 Y125.1802 Z-3.0 I0.0063 J-0.0108
G2 X34.1116 Y125.1693 Z-3.0333 I-0.0125 J0.0
G2 Y125.191 Z-3.0667 I0.0063 J0.0108
G2 X34.1304 Y125.1802 Z-3.1 I0.0063 J-0.0108
G2 X34.1116 Y125.1693 Z-3.1333 I-0.0125 J0.0
G2 Y125.191 Z-3.1667 I0.0063 J0.0108
G2 X34.1304 Y125.1802 Z-3.2 I0.0063 J-0.0108
G2 X34.1116 Y125.1693 I-0.0125 J0.0
G2 Y125.191 I0.0063 J0.0108
G2 X34.1304 Y125.1802 I0.0062 J-0.0108
G0 Z3.0
G0 X20.7384 Y71.3411
G0 Z0.5
G1 F1000.0 Z0.0
G2 F2000.0 X20.7197 Y71.3303 Z-0.0333 I-0.0125 J0.0
G2 Y71.352 Z-0.0667 I0.0062 J0.0108
G2 X20.7384 Y71.3411 Z-0.1 I0.0063 J-0.0108
G2 X20.7197 Y71.3303 Z-0.1333 I-0.0125 J0.0
G2 Y71.352 Z-0.1667 I0.0062 J0.0108
G2 X20.7384 Y71.3411 Z-0.2 I0.0063 J-0.0108
G2 X20.7197 Y71.3303 Z-0.2333 I-0.0125 J0.0
G2 Y71.352 Z-0.2667 I0.0062 J0.0108
G2 X20.7384 Y71.3411 Z-0.3 I0.0063 J-0.0108
G2 X20.7197 Y71.3303 Z-0.3333 I-0.0125 J0.0
G2 Y71.352 Z-0.3667 I0.0062 J0.0108
G2 X20.7384 Y71.3411 Z-0.4 I0.0063 J-0.0108
G2 X20.7197 Y71.3303 Z-0.4333 I-0.0125 J0.0
G2 Y71.352 Z-0.4667 I0.0062 J0.0108
G2 X20.7384 Y71.3411 Z-0.5 I0.0063 J-0.0108
G2 X20.7197 Y71.3303 Z-0.5333 I-0.0125 J0.0
G2 Y71.352 Z-0.5667 I0.0062 J0.0108
G2 X20.7384 Y71.3411 Z-0.6 I0.0063 J-0.0108
G2 X20.7197 Y71.3303 Z-0.6333 I-0.0125 J0.0
G2 Y71.352 Z-0.6667 I0.0062 J0.0108
G2 X20.7384 Y71.3411 Z-0.7 I0.0063 J-0.0108
G2 X20.7197 Y71.3303 Z-0.7333 I-0.0125 J0.0
G2 Y71.352 Z-0.7667 I0.0062 J0.0108
G2 X20.7384 Y71.3411 Z-0.8 I0.0063 J-0.0108
G2 X20.7197 Y71.3303 Z-0.8333 I-0.0125 J0.0
G2 Y71.352 Z-0.8667 I0.0062 J0.0108
G2 X20.7384 Y71.3411 Z-0.9 I0.0063 J-0.0108
G2 X20.7197 Y71.3303 Z-0.9333 I-0.0125 J0.0
G2 Y71.352 Z-0.9667 I0.0062 J0.0108
G2 X20.7384 Y71.3411 Z-1.0 I0.0063 J-0.0108
G2 X20.7197 Y71.3303 Z-1.0333 I-0.0125 J0.0
G2 Y71.352 Z-1.0667 I0.0062 J0.0108
G2 X20.7384 Y71.3411 Z-1.1 I0.0063 J-0.0108
G2 X20.7197 Y71.3303 Z-1.1333 I-0.0125 J0.0
G2 Y71.352 Z-1.1667 I0.0062 J0.0108
G2 X20.7384 Y71.3411 Z-1.2 I0.0063 J-0.0108
G2 X20.7197 Y71.3303 Z-1.2333 I-0.0125 J0.0
G2 Y71.352 Z-1.2667 I0.0062 J0.0108
G2 X20.7384 Y71.3411 Z-1.3 I0.0063 J-0.0108
G2 X20.7197 Y71.3303 Z-1.3333 I-0.0125 J0.0
G2 Y71.352 Z-1.3667 I0.0062 J0.0108
G2 X20.7384 Y71.3411 Z-1.4 I0.0063 J-0.0108
G2 X20.7197 Y71.3303 Z-1.4333 I-0.0125 J0.0
G2 Y71.352 Z-1.4667 I0.0062 J0.0108
G2 X20.7384 Y71.3411 Z-1.5 I0.0063 J-0.0108
G2 X20.7197 Y71.3303 Z-1.5333 I-0.0125 J0.0
G2 Y71.352 Z-1.5667 I0.0062 J0.0108
G2 X20.7384 Y71.3411 Z-1.6 I0.0063 J-0.0108
G2 X20.7197 Y71.3303 Z-1.6333 I-0.0125 J0.0
G2 Y71.352 Z-1.6667 I0.0062 J0.0108
G2 X20.7384 Y71.3411 Z-1.7 I0.0063 J-0.0108
G2 X20.7197 Y71.3303 Z-1.7333 I-0.0125 J0.0
G2 Y71.352 Z-1.7667 I0.0062 J0.0108
G2 X20.7384 Y71.3411 Z-1.8 I0.0063 J-0.0108
G2 X20.7197 Y71.3303 Z-1.8333 I-0.0125 J0.0
G2 Y71.352 Z-1.8667 I0.0062 J0.0108
G2 X20.7384 Y71.3411 Z-1.9 I0.0063 J-0.0108
G2 X20.7197 Y71.3303 Z-1.9333 I-0.0125 J0.0
G2 Y71.352 Z-1.9667 I0.0062 J0.0108
G2 X20.7384 Y71.3411 Z-2.0 I0.0063 J-0.0108
G2 X20.7197 Y71.3303 Z-2.0333 I-0.0125 J0.0
G2 Y71.352 Z-2.0667 I0.0062 J0.0108
G2 X20.7384 Y71.3411 Z-2.1 I0.0063 J-0.0108
G2 X20.7197 Y71.3303 Z-2.1333 I-0.0125 J0.0
G2 Y71.352 Z-2.1667 I0.0062 J0.0108
G2 X20.7384 Y71.3411 Z-2.2 I0.0063 J-0.0108
G2 X20.7197 Y71.3303 Z-2.2333 I-0.0125 J0.0
G2 Y71.352 Z-2.2667 I0.0062 J0.0108
G2 X20.7384 Y71.3411 Z-2.3 I0.0063 J-0.0108
G2 X20.7197 Y71.3303 Z-2.3333 I-0.0125 J0.0
G2 Y71.352 Z-2.3667 I0.0062 J0.0108
G2 X20.7384 Y71.3411 Z-2.4 I0.0063 J-0.0108
G2 X20.7197 Y71.3303 Z-2.4333 I-0.0125 J0.0
G2 Y71.352 Z-2.4667 I0.0062 J0.0108
G2 X20.7384 Y71.3411 Z-2.5 I0.0063 J-0.0108
G2 X20.7197 Y71.3303 Z-2.5333 I-0.0125 J0.0
G2 Y71.352 Z-2.5667 I0.0062 J0.0108
G2 X20.7384 Y71.3411 Z-2.6 I0.0063 J-0.0108
G2 X20.7197 Y71.3303 Z-2.6333 I-0.0125 J0.0
G2 Y71.352 Z-2.6667 I0.0062 J0.0108
G2 X20.7384 Y71.3411 Z-2.7 I0.0063 J-0.0108
G2 X20.7197 Y71.3303 Z-2.7333 I-0.0125 J0.0
G2 Y71.352 Z-2.7667 I0.0062 J0.0108
G2 X20.7384 Y71.3411 Z-2.8 I0.0063 J-0.0108
G2 X20.7197 Y71.3303 Z-2.8333 I-0.0125 J0.0
G2 Y71.352 Z-2.8667 I0.0062 J0.0108
G2 X20.7384 Y71.3411 Z-2.9 I0.0063 J-0.0108
G2 X20.7197 Y71.3303 Z-2.9333 I-0.0125 J0.0
G2 Y71.352 Z-2.9667 I0.0062 J0.0108
G2 X20.7384 Y71.3411 Z-3.0 I0.0063 J-0.0108
G2 X20.7197 Y71.3303 Z-3.0333 I-0.0125 J0.0
G2 Y71.352 Z-3.0667 I0.0062 J0.0108
G2 X20.7384 Y71.3411 Z-3.1 I0.0063 J-0.0108
G2 X20.7197 Y71.3303 Z-3.1333 I-0.0125 J0.0
G2 Y71.352 Z-3.1667 I0.0062 J0.0108
G2 X20.7384 Y71.3411 Z-3.2 I0.0063 J-0.0108
G2 X20.7197 Y71.3303 I-0.0125 J0.0
G2 Y71.352 I0.0063 J0.0108
G2 X20.7384 Y71.3411 I0.0062 J-0.0108
G0 Z3.0
G0 X12.8529 Y55.6417
G0 Z0.5
G1 F1000.0 Z0.0
G2 F2000.0 X12.8342 Y55.6309 Z-0.0333 I-0.0125 J0.0
G2 Y55.6525 Z-0.0667 I0.0063 J0.0108
G2 X12.8529 Y55.6417 Z-0.1 I0.0062 J-0.0108
G2 X12.8342 Y55.6309 Z-0.1333 I-0.0125 J0.0
G2 Y55.6525 Z-0.1667 I0.0063 J0.0108
G2 X12.8529 Y55.6417 Z-0.2 I0.0062 J-0.0108
G2 X12.8342 Y55.6309 Z-0.2333 I-0.0125 J0.0
G2 Y55.6525 Z-0.2667 I0.0063 J0.0108
G2 X12.8529 Y55.6417 Z-0.3 I0.0062 J-0.0108
G2 X12.8342 Y55.6309 Z-0.3333 I-0.0125 J0.0
G2 Y55.6525 Z-0.3667 I0.0063 J0.0108
G2 X12.8529 Y55.6417 Z-0.4 I0.0062 J-0.0108
G2 X12.8342 Y55.6309 Z-0.4333 I-0.0125 J0.0
G2 Y55.6525 Z-0.4667 I0.0063 J0.0108
G2 X12.8529 Y55.6417 Z-0.5 I0.0062 J-0.0108
G2 X12.8342 Y55.6309 Z-0.5333 I-0.0125 J0.0
G2 Y55.6525 Z-0.5667 I0.0063 J0.0108
G2 X12.8529 Y55.6417 Z-0.6 I0.0062 J-0.0108
G2 X12.8342 Y55.6309 Z-0.6333 I-0.0125 J0.0
G2 Y55.6525 Z-0.6667 I0.0063 J0.0108
G2 X12.8529 Y55.6417 Z-0.7 I0.0062 J-0.0108
G2 X12.8342 Y55.6309 Z-0.7333 I-0.0125 J0.0
G2 Y55.6525 Z-0.7667 I0.0063 J0.0108
G2 X12.8529 Y55.6417 Z-0.8 I0.0062 J-0.0108
G2 X12.8342 Y55.6309 Z-0.8333 I-0.0125 J0.0
G2 Y55.6525 Z-0.8667 I0.0063 J0.0108
G2 X12.8529 Y55.6417 Z-0.9 I0.0062 J-0.0108
G2 X12.8342 Y55.6309 Z-0.9333 I-0.0125 J0.0
G2 Y55.6525 Z-0.9667 I0.0063 J0.0108
G2 X12.8529 Y55.6417 Z-1.0 I0.0062 J-0.0108
G2 X12.8342 Y55.6309 Z-1.0333 I-0.0125 J0.0
G2 Y55.6525 Z-1.0667 I0.0063 J0.0108
G2 X12.8529 Y55.6417 Z-1.1 I0.0062 J-0.0108
G2 X12.8342 Y55.6309 Z-1.1333 I-0.0125 J0.0
G2 Y55.6525 Z-1.1667 I0.0063 J0.0108
G2 X12.8529 Y55.6417 Z-1.2 I0.0062 J-0.0108
G2 X12.8342 Y55.6309 Z-1.2333 I-0.0125 J0.0
G2 Y55.6525 Z-1.2667 I0.0063 J0.0108
G2 X12.8529 Y55.6417 Z-1.3 I0.0062 J-0.0108
G2 X12.8342 Y55.6309 Z-1.3333 I-0.0125 J0.0
G2 Y55.6525 Z-1.3667 I0.0063 J0.0108
G2 X12.8529 Y55.6417 Z-1.4 I0.0062 J-0.0108
G2 X12.8342 Y55.6309 Z-1.4333 I-0.0125 J0.0
G2 Y55.6525 Z-1.4667 I0.0063 J0.0108
G2 X12.8529 Y55.6417 Z-1.5 I0.0062 J-0.0108
G2 X12.8342 Y55.6309 Z-1.5333 I-0.0125 J0.0
G2 Y55.6525 Z-1.5667 I0.0063 J0.0108
G2 X12.8529 Y55.6417 Z-1.6 I0.0062 J-0.0108
G2 X12.8342 Y55.6309 Z-1.6333 I-0.0125 J0.0
G2 Y55.6525 Z-1.6667 I0.0063 J0.0108
G2 X12.8529 Y55.6417 Z-1.7 I0.0062 J-0.0108
G2 X12.8342 Y55.6309 Z-1.7333 I-0.0125 J0.0
G2 Y55.6525 Z-1.7667 I0.0063 J0.0108
G2 X12.8529 Y55.6417 Z-1.8 I0.0062 J-0.0108
G2 X12.8342 Y55.6309 Z-1.8333 I-0.0125 J0.0
G2 Y55.6525 Z-1.8667 I0.0063 J0.0108
G2 X12.8529 Y55.6417 Z-1.9 I0.0062 J-0.0108
G2 X12.8342 Y55.6309 Z-1.9333 I-0.0125 J0.0
G2 Y55.6525 Z-1.9667 I0.0063 J0.0108
G2 X12.8529 Y55.6417 Z-2.0 I0.0062 J-0.0108
G2 X12.8342 Y55.6309 Z-2.0333 I-0.0125 J0.0
G2 Y55.6525 Z-2.0667 I0.0063 J0.0108
G2 X12.8529 Y55.6417 Z-2.1 I0.0062 J-0.0108
G2 X12.8342 Y55.6309 Z-2.1333 I-0.0125 J0.0
G2 Y55.6525 Z-2.1667 I0.0063 J0.0108
G2 X12.8529 Y55.6417 Z-2.2 I0.0062 J-0.0108
G2 X12.8342 Y55.6309 Z-2.2333 I-0.0125 J0.0
G2 Y55.6525 Z-2.2667 I0.0063 J0.0108
G2 X12.8529 Y55.6417 Z-2.3 I0.0062 J-0.0108
G2 X12.8342 Y55.6309 Z-2.3333 I-0.0125 J0.0
G2 Y55.6525 Z-2.3667 I0.0063 J0.0108
G2 X12.8529 Y55.6417 Z-2.4 I0.0062 J-0.0108
G2 X12.8342 Y55.6309 Z-2.4333 I-0.0125 J0.0
G2 Y55.6525 Z-2.4667 I0.0063 J0.0108
G2 X12.8529 Y55.6417 Z-2.5 I0.0062 J-0.0108
G2 X12.8342 Y55.6309 Z-2.5333 I-0.0125 J0.0
G2 Y55.6525 Z-2.5667 I0.0063 J0.0108
G2 X12.8529 Y55.6417 Z-2.6 I0.0062 J-0.0108
G2 X12.8342 Y55.6309 Z-2.6333 I-0.0125 J0.0
G2 Y55.6525 Z-2.6667 I0.0063 J0.0108
G2 X12.8529 Y55.6417 Z-2.7 I0.0062 J-0.0108
G2 X12.8342 Y55.6309 Z-2.7333 I-0.0125 J0.0
G2 Y55.6525 Z-2.7667 I0.0063 J0.0108
G2 X12.8529 Y55.6417 Z-2.8 I0.0062 J-0.0108
G2 X12.8342 Y55.6309 Z-2.8333 I-0.0125 J0.0
G2 Y55.6525 Z-2.8667 I0.0063 J0.0108
G2 X12.8529 Y55.6417 Z-2.9 I0.0062 J-0.0108
G2 X12.8342 Y55.6309 Z-2.9333 I-0.0125 J0.0
G2 Y55.6525 Z-2.9667 I0.0063 J0.0108
G2 X12.8529 Y55.6417 Z-3.0 I0.0062 J-0.0108
G2 X12.8342 Y55.6309 Z-3.0333 I-0.0125 J0.0
G2 Y55.6525 Z-3.0667 I0.0063 J0.0108
G2 X12.8529 Y55.6417 Z-3.1 I0.0062 J-0.0108
G2 X12.8342 Y55.6309 Z-3.1333 I-0.0125 J0.0
G2 Y55.6525 Z-3.1667 I0.0063 J0.0108
G2 X12.8529 Y55.6417 Z-3.2 I0.0062 J-0.0108
G2 X12.8342 Y55.6309 I-0.0125 J0.0
G2 Y55.6525 I0.0063 J0.0108
G2 X12.8529 Y55.6417 I0.0062 J-0.0108
G0 Z3.0
G0 X12.8959 Y42.9265
G0 Z0.5
G1 F1000.0 Z0.0
G2 F2000.0 X12.8771 Y42.9156 Z-0.0333 I-0.0125 J0.0
G2 Y42.9373 Z-0.0667 I0.0063 J0.0108
G2 X12.8959 Y42.9265 Z-0.1 I0.0062 J-0.0108
G2 X12.8771 Y42.9156 Z-0.1333 I-0.0125 J0.0
G2 Y42.9373 Z-0.1667 I0.0063 J0.0108
G2 X12.8959 Y42.9265 Z-0.2 I0.0062 J-0.0108
G2 X12.8771 Y42.9156 Z-0.2333 I-0.0125 J0.0
G2 Y42.9373 Z-0.2667 I0.0063 J0.0108
G2 X12.8959 Y42.9265 Z-0.3 I0.0062 J-0.0108
G2 X12.8771 Y42.9156 Z-0.3333 I-0.0125 J0.0
G2 Y42.9373 Z-0.3667 I0.0063 J0.0108
G2 X12.8959 Y42.9265 Z-0.4 I0.0062 J-0.0108
G2 X12.8771 Y42.9156 Z-0.4333 I-0.0125 J0.0
G2 Y42.9373 Z-0.4667 I0.0063 J0.0108
G2 X12.8959 Y42.9265 Z-0.5 I0.0062 J-0.0108
G2 X12.8771 Y42.9156 Z-0.5333 I-0.0125 J0.0
G2 Y42.9373 Z-0.5667 I0.0063 J0.0108
G2 X12.8959 Y42.9265 Z-0.6 I0.0062 J-0.0108
G2 X12.8771 Y42.9156 Z-0.6333 I-0.0125 J0.0
G2 Y42.9373 Z-0.6667 I0.0063 J0.0108
G2 X12.8959 Y42.9265 Z-0.7 I0.0062 J-0.0108
G2 X12.8771 Y42.9156 Z-0.7333 I-0.0125 J0.0
G2 Y42.9373 Z-0.7667 I0.0063 J0.0108
G2 X12.8959 Y42.9265 Z-0.8 I0.0062 J-0.0108
G2 X12.8771 Y42.9156 Z-0.8333 I-0.0125 J0.0
G2 Y42.9373 Z-0.8667 I0.0063 J0.0108
G2 X12.8959 Y42.9265 Z-0.9 I0.0062 J-0.0108
G2 X12.8771 Y42.9156 Z-0.9333 I-0.0125 J0.0
G2 Y42.9373 Z-0.9667 I0.0063 J0.0108
G2 X12.8959 Y42.9265 Z-1.0 I0.0062 J-0.0108
G2 X12.8771 Y42.9156 Z-1.0333 I-0.0125 J0.0
G2 Y42.9373 Z-1.0667 I0.0063 J0.0108
G2 X12.8959 Y42.9265 Z-1.1 I0.0062 J-0.0108
G2 X12.8771 Y42.9156 Z-1.1333 I-0.0125 J0.0
G2 Y42.9373 Z-1.1667 I0.0063 J0.0108
G2 X12.8959 Y42.9265 Z-1.2 I0.0062 J-0.0108
G2 X12.8771 Y42.9156 Z-1.2333 I-0.0125 J0.0
G2 Y42.9373 Z-1.2667 I0.0063 J0.0108
G2 X12.8959 Y42.9265 Z-1.3 I0.0062 J-0.0108
G2 X12.8771 Y42.9156 Z-1.3333 I-0.0125 J0.0
G2 Y42.9373 Z-1.3667 I0.0063 J0.0108
G2 X12.8959 Y42.9265 Z-1.4 I0.0062 J-0.0108
G2 X12.8771 Y42.9156 Z-1.4333 I-0.0125 J0.0
G2 Y42.9373 Z-1.4667 I0.0063 J0.0108
G2 X12.8959 Y42.9265 Z-1.5 I0.0062 J-0.0108
G2 X12.8771 Y42.9156 Z-1.5333 I-0.0125 J0.0
G2 Y42.9373 Z-1.5667 I0.0063 J0.0108
G2 X12.8959 Y42.9265 Z-1.6 I0.0062 J-0.0108
G2 X12.8771 Y42.9156 Z-1.6333 I-0.0125 J0.0
G2 Y42.9373 Z-1.6667 I0.0063 J0.0108
G2 X12.8959 Y42.9265 Z-1.7 I0.0062 J-0.0108
G2 X12.8771 Y42.9156 Z-1.7333 I-0.0125 J0.0
G2 Y42.9373 Z-1.7667 I0.0063 J0.0108
G2 X12.8959 Y42.9265 Z-1.8 I0.0062 J-0.0108
G2 X12.8771 Y42.9156 Z-1.8333 I-0.0125 J0.0
G2 Y42.9373 Z-1.8667 I0.0063 J0.0108
G2 X12.8959 Y42.9265 Z-1.9 I0.0062 J-0.0108
G2 X12.8771 Y42.9156 Z-1.9333 I-0.0125 J0.0
G2 Y42.9373 Z-1.9667 I0.0063 J0.0108
G2 X12.8959 Y42.9265 Z-2.0 I0.0062 J-0.0108
G2 X12.8771 Y42.9156 Z-2.0333 I-0.0125 J0.0
G2 Y42.9373 Z-2.0667 I0.0063 J0.0108
G2 X12.8959 Y42.9265 Z-2.1 I0.0062 J-0.0108
G2 X12.8771 Y42.9156 Z-2.1333 I-0.0125 J0.0
G2 Y42.9373 Z-2.1667 I0.0063 J0.0108
G2 X12.8959 Y42.9265 Z-2.2 I0.0062 J-0.0108
G2 X12.8771 Y42.9156 Z-2.2333 I-0.0125 J0.0
G2 Y42.9373 Z-2.2667 I0.0063 J0.0108
G2 X12.8959 Y42.9265 Z-2.3 I0.0062 J-0.0108
G2 X12.8771 Y42.9156 Z-2.3333 I-0.0125 J0.0
G2 Y42.9373 Z-2.3667 I0.0063 J0.0108
G2 X12.8959 Y42.9265 Z-2.4 I0.0062 J-0.0108
G2 X12.8771 Y42.9156 Z-2.4333 I-0.0125 J0.0
G2 Y42.9373 Z-2.4667 I0.0063 J0.0108
G2 X12.8959 Y42.9265 Z-2.5 I0.0062 J-0.0108
G2 X12.8771 Y42.9156 Z-2.5333 I-0.0125 J0.0
G2 Y42.9373 Z-2.5667 I0.0063 J0.0108
G2 X12.8959 Y42.9265 Z-2.6 I0.0062 J-0.0108
G2 X12.8771 Y42.9156 Z-2.6333 I-0.0125 J0.0
G2 Y42.9373 Z-2.6667 I0.0063 J0.0108
G2 X12.8959 Y42.9265 Z-2.7 I0.0062 J-0.0108
G2 X12.8771 Y42.9156 Z-2.7333 I-0.0125 J0.0
G2 Y42.9373 Z-2.7667 I0.0063 J0.0108
G2 X12.8959 Y42.9265 Z-2.8 I0.0062 J-0.0108
G2 X12.8771 Y42.9156 Z-2.8333 I-0.0125 J0.0
G2 Y42.9373 Z-2.8667 I0.0063 J0.0108
G2 X12.8959 Y42.9265 Z-2.9 I0.0062 J-0.0108
G2 X12.8771 Y42.9156 Z-2.9333 I-0.0125 J0.0
G2 Y42.9373 Z-2.9667 I0.0063 J0.0108
G2 X12.8959 Y42.9265 Z-3.0 I0.0062 J-0.0108
G2 X12.8771 Y42.9156 Z-3.0333 I-0.0125 J0.0
G2 Y42.9373 Z-3.0667 I0.0063 J0.0108
G2 X12.8959 Y42.9265 Z-3.1 I0.0062 J-0.0108
G2 X12.8771 Y42.9156 Z-3.1333 I-0.0125 J0.0
G2 Y42.9373 Z-3.1667 I0.0063 J0.0108
G2 X12.8959 Y42.9265 Z-3.2 I0.0062 J-0.0108
G2 X12.8771 Y42.9156 I-0.0125 J0.0
G2 Y42.9373 I0.0063 J0.0108
G2 X12.8959 Y42.9265 I0.0062 J-0.0108
G0 Z3.0
G0 X12.9388 Y30.3401
G0 Z0.5
G1 F1000.0 Z0.0
G2 F2000.0 X12.9201 Y30.3293 Z-0.0333 I-0.0125 J0.0
G2 Y30.3509 Z-0.0667 I0.0062 J0.0108
G2 X12.9388 Y30.3401 Z-0.1 I0.0062 J-0.0108
G2 X12.9201 Y30.3293 Z-0.1333 I-0.0125 J0.0
G2 Y30.3509 Z-0.1667 I0.0062 J0.0108
G2 X12.9388 Y30.3401 Z-0.2 I0.0062 J-0.0108
G2 X12.9201 Y30.3293 Z-0.2333 I-0.0125 J0.0
G2 Y30.3509 Z-0.2667 I0.0062 J0.0108
G2 X12.9388 Y30.3401 Z-0.3 I0.0062 J-0.0108
G2 X12.9201 Y30.3293 Z-0.3333 I-0.0125 J0.0
G2 Y30.3509 Z-0.3667 I0.0062 J0.0108
G2 X12.9388 Y30.3401 Z-0.4 I0.0062 J-0.0108
G2 X12.9201 Y30.3293 Z-0.4333 I-0.0125 J0.0
G2 Y30.3509 Z-0.4667 I0.0062 J0.0108
G2 X12.9388 Y30.3401 Z-0.5 I0.0062 J-0.0108
G2 X12.9201 Y30.3293 Z-0.5333 I-0.0125 J0.0
G2 Y30.3509 Z-0.5667 I0.0062 J0.0108
G2 X12.9388 Y30.3401 Z-0.6 I0.0062 J-0.0108
G2 X12.9201 Y30.3293 Z-0.6333 I-0.0125 J0.0
G2 Y30.3509 Z-0.6667 I0.0062 J0.0108
G2 X12.9388 Y30.3401 Z-0.7 I0.0062 J-0.0108
G2 X12.9201 Y30.3293 Z-0.7333 I-0.0125 J0.0
G2 Y30.3509 Z-0.7667 I0.0062 J0.0108
G2 X12.9388 Y30.3401 Z-0.8 I0.0062 J-0.0108
G2 X12.9201 Y30.3293 Z-0.8333 I-0.0125 J0.0
G2 Y30.3509 Z-0.8667 I0.0062 J0.0108
G2 X12.9388 Y30.3401 Z-0.9 I0.0062 J-0.0108
G2 X12.9201 Y30.3293 Z-0.9333 I-0.0125 J0.0
G2 Y30.3509 Z-0.9667 I0.0062 J0.0108
G2 X12.9388 Y30.3401 Z-1.0 I0.0062 J-0.0108
G2 X12.9201 Y30.3293 Z-1.0333 I-0.0125 J0.0
G2 Y30.3509 Z-1.0667 I0.0062 J0.0108
G2 X12.9388 Y30.3401 Z-1.1 I0.0062 J-0.0108
G2 X12.9201 Y30.3293 Z-1.1333 I-0.0125 J0.0
G2 Y30.3509 Z-1.1667 I0.0062 J0.0108
G2 X12.9388 Y30.3401 Z-1.2 I0.0063 J-0.0108
G2 X12.9201 Y30.3293 Z-1.2333 I-0.0125 J0.0
G2 Y30.3509 Z-1.2667 I0.0062 J0.0108
G2 X12.9388 Y30.3401 Z-1.3 I0.0063 J-0.0108
G2 X12.9201 Y30.3293 Z-1.3333 I-0.0125 J0.0
G2 Y30.3509 Z-1.3667 I0.0062 J0.0108
G2 X12.9388 Y30.3401 Z-1.4 I0.0063 J-0.0108
G2 X12.9201 Y30.3293 Z-1.4333 I-0.0125 J0.0
G2 Y30.3509 Z-1.4667 I0.0062 J0.0108
G2 X12.9388 Y30.3401 Z-1.5 I0.0063 J-0.0108
G2 X12.9201 Y30.3293 Z-1.5333 I-0.0125 J0.0
G2 Y30.3509 Z-1.5667 I0.0062 J0.0108
G2 X12.9388 Y30.3401 Z-1.6 I0.0063 J-0.0108
G2 X12.9201 Y30.3293 Z-1.6333 I-0.0125 J0.0
G2 Y30.3509 Z-1.6667 I0.0062 J0.0108
G2 X12.9388 Y30.3401 Z-1.7 I0.0063 J-0.0108
G2 X12.9201 Y30.3293 Z-1.7333 I-0.0125 J0.0
G2 Y30.3509 Z-1.7667 I0.0062 J0.0108
G2 X12.9388 Y30.3401 Z-1.8 I0.0063 J-0.0108
G2 X12.9201 Y30.3293 Z-1.8333 I-0.0125 J0.0
G2 Y30.3509 Z-1.8667 I0.0062 J0.0108
G2 X12.9388 Y30.3401 Z-1.9 I0.0063 J-0.0108
G2 X12.9201 Y30.3293 Z-1.9333 I-0.0125 J0.0
G2 Y30.3509 Z-1.9667 I0.0062 J0.0108
G2 X12.9388 Y30.3401 Z-2.0 I0.0063 J-0.0108
G2 X12.9201 Y30.3293 Z-2.0333 I-0.0125 J0.0
G2 Y30.3509 Z-2.0667 I0.0062 J0.0108
G2 X12.9388 Y30.3401 Z-2.1 I0.0063 J-0.0108
G2 X12.9201 Y30.3293 Z-2.1333 I-0.0125 J0.0
G2 Y30.3509 Z-2.1667 I0.0062 J0.0108
G2 X12.9388 Y30.3401 Z-2.2 I0.0063 J-0.0108
G2 X12.9201 Y30.3293 Z-2.2333 I-0.0125 J0.0
G2 Y30.3509 Z-2.2667 I0.0062 J0.0108
G2 X12.9388 Y30.3401 Z-2.3 I0.0062 J-0.0108
G2 X12.9201 Y30.3293 Z-2.3333 I-0.0125 J0.0
G2 Y30.3509 Z-2.3667 I0.0062 J0.0108
G2 X12.9388 Y30.3401 Z-2.4 I0.0062 J-0.0108
G2 X12.9201 Y30.3293 Z-2.4333 I-0.0125 J0.0
G2 Y30.3509 Z-2.4667 I0.0062 J0.0108
G2 X12.9388 Y30.3401 Z-2.5 I0.0062 J-0.0108
G2 X12.9201 Y30.3293 Z-2.5333 I-0.0125 J0.0
G2 Y30.3509 Z-2.5667 I0.0062 J0.0108
G2 X12.9388 Y30.3401 Z-2.6 I0.0062 J-0.0108
G2 X12.9201 Y30.3293 Z-2.6333 I-0.0125 J0.0
G2 Y30.3509 Z-2.6667 I0.0063 J0.0108
G2 X12.9388 Y30.3401 Z-2.7 I0.0062 J-0.0108
G2 X12.9201 Y30.3293 Z-2.7333 I-0.0125 J0.0
G2 Y30.3509 Z-2.7667 I0.0063 J0.0108
G2 X12.9388 Y30.3401 Z-2.8 I0.0062 J-0.0108
G2 X12.9201 Y30.3293 Z-2.8333 I-0.0125 J0.0
G2 Y30.3509 Z-2.8667 I0.0063 J0.0108
G2 X12.9388 Y30.3401 Z-2.9 I0.0062 J-0.0108
G2 X12.9201 Y30.3293 Z-2.9333 I-0.0125 J0.0
G2 Y30.3509 Z-2.9667 I0.0063 J0.0108
G2 X12.9388 Y30.3401 Z-3.0 I0.0062 J-0.0108
G2 X12.9201 Y30.3293 Z-3.0333 I-0.0125 J0.0
G2 Y30.3509 Z-3.0667 I0.0063 J0.0108
G2 X12.9388 Y30.3401 Z-3.1 I0.0062 J-0.0108
G2 X12.9201 Y30.3293 Z-3.1333 I-0.0125 J0.0
G2 Y30.3509 Z-3.1667 I0.0063 J0.0108
G2 X12.9388 Y30.3401 Z-3.2 I0.0062 J-0.0108
G2 X12.9201 Y30.3293 I-0.0125 J0.0
G2 Y30.3509 I0.0063 J0.0108
G2 X12.9388 Y30.3401 I0.0062 J-0.0108
G0 Z3.0
G0 X8.7145 Y3.8751
G0 Z0.5
G1 F1000.0 Z0.0
G2 F2000.0 X8.6958 Y3.8643 Z-0.0333 I-0.0125 J0.0
G2 Y3.8859 Z-0.0667 I0.0062 J0.0108
G2 X8.7145 Y3.8751 Z-0.1 I0.0062 J-0.0108
G2 X8.6958 Y3.8643 Z-0.1333 I-0.0125 J0.0
G2 Y3.8859 Z-0.1667 I0.0062 J0.0108
G2 X8.7145 Y3.8751 Z-0.2 I0.0062 J-0.0108
G2 X8.6958 Y3.8643 Z-0.2333 I-0.0125 J0.0
G2 Y3.8859 Z-0.2667 I0.0062 J0.0108
G2 X8.7145 Y3.8751 Z-0.3 I0.0062 J-0.0108
G2 X8.6958 Y3.8643 Z-0.3333 I-0.0125 J0.0
G2 Y3.8859 Z-0.3667 I0.0062 J0.0108
G2 X8.7145 Y3.8751 Z-0.4 I0.0062 J-0.0108
G2 X8.6958 Y3.8643 Z-0.4333 I-0.0125 J0.0
G2 Y3.8859 Z-0.4667 I0.0062 J0.0108
G2 X8.7145 Y3.8751 Z-0.5 I0.0062 J-0.0108
G2 X8.6958 Y3.8643 Z-0.5333 I-0.0125 J0.0
G2 Y3.8859 Z-0.5667 I0.0062 J0.0108
G2 X8.7145 Y3.8751 Z-0.6 I0.0062 J-0.0108
G2 X8.6958 Y3.8643 Z-0.6333 I-0.0125 J0.0
G2 Y3.8859 Z-0.6667 I0.0062 J0.0108
G2 X8.7145 Y3.8751 Z-0.7 I0.0062 J-0.0108
G2 X8.6958 Y3.8643 Z-0.7333 I-0.0125 J0.0
G2 Y3.8859 Z-0.7667 I0.0062 J0.0108
G2 X8.7145 Y3.8751 Z-0.8 I0.0062 J-0.0108
G2 X8.6958 Y3.8643 Z-0.8333 I-0.0125 J0.0
G2 Y3.8859 Z-0.8667 I0.0062 J0.0108
G2 X8.7145 Y3.8751 Z-0.9 I0.0062 J-0.0108
G2 X8.6958 Y3.8643 Z-0.9333 I-0.0125 J0.0
G2 Y3.8859 Z-0.9667 I0.0062 J0.0108
G2 X8.7145 Y3.8751 Z-1.0 I0.0062 J-0.0108
G2 X8.6958 Y3.8643 Z-1.0333 I-0.0125 J0.0
G2 Y3.8859 Z-1.0667 I0.0062 J0.0108
G2 X8.7145 Y3.8751 Z-1.1 I0.0062 J-0.0108
G2 X8.6958 Y3.8643 Z-1.1333 I-0.0125 J0.0
G2 Y3.8859 Z-1.1667 I0.0062 J0.0108
G2 X8.7145 Y3.8751 Z-1.2 I0.0062 J-0.0108
G2 X8.6958 Y3.8643 Z-1.2333 I-0.0125 J0.0
G2 Y3.8859 Z-1.2667 I0.0062 J0.0108
G2 X8.7145 Y3.8751 Z-1.3 I0.0062 J-0.0108
G2 X8.6958 Y3.8643 Z-1.3333 I-0.0125 J0.0
G2 Y3.8859 Z-1.3667 I0.0062 J0.0108
G2 X8.7145 Y3.8751 Z-1.4 I0.0063 J-0.0108
G2 X8.6958 Y3.8643 Z-1.4333 I-0.0125 J0.0
G2 Y3.8859 Z-1.4667 I0.0062 J0.0108
G2 X8.7145 Y3.8751 Z-1.5 I0.0063 J-0.0108
G2 X8.6958 Y3.8643 Z-1.5333 I-0.0125 J0.0
G2 Y3.8859 Z-1.5667 I0.0062 J0.0108
G2 X8.7145 Y3.8751 Z-1.6 I0.0063 J-0.0108
G2 X8.6958 Y3.8643 Z-1.6333 I-0.0125 J0.0
G2 Y3.8859 Z-1.6667 I0.0062 J0.0108
G2 X8.7145 Y3.8751 Z-1.7 I0.0063 J-0.0108
G2 X8.6958 Y3.8643 Z-1.7333 I-0.0125 J0.0
G2 Y3.8859 Z-1.7667 I0.0062 J0.0108
G2 X8.7145 Y3.8751 Z-1.8 I0.0063 J-0.0108
G2 X8.6958 Y3.8643 Z-1.8333 I-0.0125 J0.0
G2 Y3.8859 Z-1.8667 I0.0062 J0.0108
G2 X8.7145 Y3.8751 Z-1.9 I0.0063 J-0.0108
G2 X8.6958 Y3.8643 Z-1.9333 I-0.0125 J0.0
G2 Y3.8859 Z-1.9667 I0.0062 J0.0108
G2 X8.7145 Y3.8751 Z-2.0 I0.0063 J-0.0108
G2 X8.6958 Y3.8643 Z-2.0333 I-0.0125 J0.0
G2 Y3.8859 Z-2.0667 I0.0062 J0.0108
G2 X8.7145 Y3.8751 Z-2.1 I0.0063 J-0.0108
G2 X8.6958 Y3.8643 Z-2.1333 I-0.0125 J0.0
G2 Y3.8859 Z-2.1667 I0.0062 J0.0108
G2 X8.7145 Y3.8751 Z-2.2 I0.0062 J-0.0108
G2 X8.6958 Y3.8643 Z-2.2333 I-0.0125 J0.0
G2 Y3.8859 Z-2.2667 I0.0062 J0.0108
G2 X8.7145 Y3.8751 Z-2.3 I0.0062 J-0.0108
G2 X8.6958 Y3.8643 Z-2.3333 I-0.0125 J0.0
G2 Y3.8859 Z-2.3667 I0.0062 J0.0108
G2 X8.7145 Y3.8751 Z-2.4 I0.0062 J-0.0108
G2 X8.6958 Y3.8643 Z-2.4333 I-0.0125 J0.0
G2 Y3.8859 Z-2.4667 I0.0062 J0.0108
G2 X8.7145 Y3.8751 Z-2.5 I0.0062 J-0.0108
G2 X8.6958 Y3.8643 Z-2.5333 I-0.0125 J0.0
G2 Y3.8859 Z-2.5667 I0.0063 J0.0108
G2 X8.7145 Y3.8751 Z-2.6 I0.0062 J-0.0108
G2 X8.6958 Y3.8643 Z-2.6333 I-0.0125 J0.0
G2 Y3.8859 Z-2.6667 I0.0063 J0.0108
G2 X8.7145 Y3.8751 Z-2.7 I0.0062 J-0.0108
G2 X8.6958 Y3.8643 Z-2.7333 I-0.0125 J0.0
G2 Y3.8859 Z-2.7667 I0.0063 J0.0108
G2 X8.7145 Y3.8751 Z-2.8 I0.0062 J-0.0108
G2 X8.6958 Y3.8643 Z-2.8333 I-0.0125 J0.0
G2 Y3.8859 Z-2.8667 I0.0063 J0.0108
G2 X8.7145 Y3.8751 Z-2.9 I0.0062 J-0.0108
G2 X8.6958 Y3.8643 Z-2.9333 I-0.0125 J0.0
G2 Y3.8859 Z-2.9667 I0.0063 J0.0108
G2 X8.7145 Y3.8751 Z-3.0 I0.0062 J-0.0108
G2 X8.6958 Y3.8643 Z-3.0333 I-0.0125 J0.0
G2 Y3.8859 Z-3.0667 I0.0063 J0.0108
G2 X8.7145 Y3.8751 Z-3.1 I0.0062 J-0.0108
G2 X8.6958 Y3.8643 Z-3.1333 I-0.0125 J0.0
G2 Y3.8859 Z-3.1667 I0.0063 J0.0108
G2 X8.7145 Y3.8751 Z-3.2 I0.0062 J-0.0108
G2 X8.6958 Y3.8643 I-0.0125 J0.0
G2 Y3.8859 I0.0063 J0.0108
G2 X8.7145 Y3.8751 I0.0062 J-0.0108
( Profile1 )
S1000
G0 Z3.0
G0 X15.4966 Y-1.3366
G0 Z0.5
G1 F1000.0 Z-0.1
G1 F2000.0 X0.0203
G2 X-1.5672 Y0.2509 I0.0 J1.5875
G1 Y128.4077
G2 X0.0203 Y129.9952 I1.5875 J0.0
G1 X42.873
G2 X44.4605 Y128.4077 I0.0 J-1.5875
G1 Y0.2509
G2 X42.873 Y-1.3366 I-1.5875 J0.0
G1 X15.4966
G1 F1000.0 Z-0.2
G1 F2000.0 X0.0203
G2 X-1.5672 Y0.2509 I0.0 J1.5875
G1 Y128.4077
G2 X0.0203 Y129.9952 I1.5875 J0.0
G1 X42.873
G2 X44.4605 Y128.4077 I0.0 J-1.5875
G1 Y0.2509
G2 X42.873 Y-1.3366 I-1.5875 J0.0
G1 X15.4966
G1 F1000.0 Z-0.3
G1 F2000.0 X0.0203
G2 X-1.5672 Y0.2509 I0.0 J1.5875
G1 Y128.4077
G2 X0.0203 Y129.9952 I1.5875 J0.0
G1 X42.873
G2 X44.4605 Y128.4077 I0.0 J-1.5875
G1 Y0.2509
G2 X42.873 Y-1.3366 I-1.5875 J0.0
G1 X15.4966
G1 F1000.0 Z-0.4
G1 F2000.0 X0.0203
G2 X-1.5672 Y0.2509 I0.0 J1.5875
G1 Y128.4077
G2 X0.0203 Y129.9952 I1.5875 J0.0
G1 X42.873
G2 X44.4605 Y128.4077 I0.0 J-1.5875
G1 Y0.2509
G2 X42.873 Y-1.3366 I-1.5875 J0.0
G1 X15.4966
G1 F1000.0 Z-0.5
G1 F2000.0 X0.0203
G2 X-1.5672 Y0.2509 I0.0 J1.5875
G1 Y128.4077
G2 X0.0203 Y129.9952 I1.5875 J0.0
G1 X42.873
G2 X44.4605 Y128.4077 I0.0 J-1.5875
G1 Y0.2509
G2 X42.873 Y-1.3366 I-1.5875 J0.0
G1 X15.4966
G1 F1000.0 Z-0.6
G1 F2000.0 X0.0203
G2 X-1.5672 Y0.2509 I0.0 J1.5875
G1 Y128.4077
G2 X0.0203 Y129.9952 I1.5875 J0.0
G1 X42.873
G2 X44.4605 Y128.4077 I0.0 J-1.5875
G1 Y0.2509
G2 X42.873 Y-1.3366 I-1.5875 J0.0
G1 X15.4966
G1 F1000.0 Z-0.7
G1 F2000.0 X0.0203
G2 X-1.5672 Y0.2509 I0.0 J1.5875
G1 Y128.4077
G2 X0.0203 Y129.9952 I1.5875 J0.0
G1 X42.873
G2 X44.4605 Y128.4077 I0.0 J-1.5875
G1 Y0.2509
G2 X42.873 Y-1.3366 I-1.5875 J0.0
G1 X15.4966
G1 F1000.0 Z-0.8
G1 F2000.0 X0.0203
G2 X-1.5672 Y0.2509 I0.0 J1.5875
G1 Y128.4077
G2 X0.0203 Y129.9952 I1.5875 J0.0
G1 X42.873
G2 X44.4605 Y128.4077 I0.0 J-1.5875
G1 Y0.2509
G2 X42.873 Y-1.3366 I-1.5875 J0.0
G1 X15.4966
G1 F1000.0 Z-0.9
G1 F2000.0 X0.0203
G2 X-1.5672 Y0.2509 I0.0 J1.5875
G1 Y128.4077
G2 X0.0203 Y129.9952 I1.5875 J0.0
G1 X42.873
G2 X44.4605 Y128.4077 I0.0 J-1.5875
G1 Y0.2509
G2 X42.873 Y-1.3366 I-1.5875 J0.0
G1 X15.4966
G1 F1000.0 Z-1.0
G1 F2000.0 X0.0203
G2 X-1.5672 Y0.2509 I0.0 J1.5875
G1 Y128.4077
G2 X0.0203 Y129.9952 I1.5875 J0.0
G1 X42.873
G2 X44.4605 Y128.4077 I0.0 J-1.5875
G1 Y0.2509
G2 X42.873 Y-1.3366 I-1.5875 J0.0
G1 X15.4966
G1 F1000.0 Z-1.1
G1 F2000.0 X0.0203
G2 X-1.5672 Y0.2509 I0.0 J1.5875
G1 Y128.4077
G2 X0.0203 Y129.9952 I1.5875 J0.0
G1 X42.873
G2 X44.4605 Y128.4077 I0.0 J-1.5875
G1 Y0.2509
G2 X42.873 Y-1.3366 I-1.5875 J0.0
G1 X15.4966
G1 F1000.0 Z-1.2
G1 F2000.0 X0.0203
G2 X-1.5672 Y0.2509 I0.0 J1.5875
G1 Y128.4077
G2 X0.0203 Y129.9952 I1.5875 J0.0
G1 X42.873
G2 X44.4605 Y128.4077 I0.0 J-1.5875
G1 Y0.2509
G2 X42.873 Y-1.3366 I-1.5875 J0.0
G1 X15.4966
G1 F1000.0 Z-1.3
G1 F2000.0 X0.0203
G2 X-1.5672 Y0.2509 I0.0 J1.5875
G1 Y26.874
G1 Y27.874 Z-1.2
G1 Y31.049
G1 Y32.049 Z-1.3
G1 Y116.2478
G1 Y117.2478 Z-1.2
G1 Y120.4228
G1 Y121.4228 Z-1.3
G1 Y128.4077
G2 X0.0203 Y129.9952 I1.5875 J0.0
G1 X42.873
G2 X44.4605 Y128.4077 I0.0 J-1.5875
G1 Y94.0464
G1 Y93.0464 Z-1.2
G1 Y89.8714
G1 Y88.8714 Z-1.3
G1 Y10.9813
G1 Y9.9813 Z-1.2
G1 Y6.8063
G1 Y5.8063 Z-1.3
G1 Y0.2509
G2 X42.873 Y-1.3366 I-1.5875 J0.0
G1 X15.4966
G1 F1000.0 Z-1.4
G1 F2000.0 X0.0203
G2 X-1.5672 Y0.2509 I0.0 J1.5875
G1 Y26.874
G1 Y27.874 Z-1.2
G1 Y31.049
G1 Y32.049 Z-1.4
G1 Y116.2478
G1 Y117.2478 Z-1.2
G1 Y120.4228
G1 Y121.4228 Z-1.4
G1 Y128.4077
G2 X0.0203 Y129.9952 I1.5875 J0.0
G1 X42.873
G2 X44.4605 Y128.4077 I0.0 J-1.5875
G1 Y94.0464
G1 Y93.0464 Z-1.2
G1 Y89.8714
G1 Y88.8714 Z-1.4
G1 Y10.9813
G1 Y9.9813 Z-1.2
G1 Y6.8063
G1 Y5.8063 Z-1.4
G1 Y0.2509
G2 X42.873 Y-1.3366 I-1.5875 J0.0
G1 X15.4966
G1 F1000.0 Z-1.5
G1 F2000.0 X0.0203
G2 X-1.5672 Y0.2509 I0.0 J1.5875
G1 Y26.874
G1 Y27.874 Z-1.2
G1 Y31.049
G1 Y32.049 Z-1.5
G1 Y116.2478
G1 Y117.2478 Z-1.2
G1 Y120.4228
G1 Y121.4228 Z-1.5
G1 Y128.4077
G2 X0.0203 Y129.9952 I1.5875 J0.0
G1 X42.873
G2 X44.4605 Y128.4077 I0.0 J-1.5875
G1 Y94.0464
G1 Y93.0464 Z-1.2
G1 Y89.8714
G1 Y88.8714 Z-1.5
G1 Y10.9813
G1 Y9.9813 Z-1.2
G1 Y6.8063
G1 Y5.8063 Z-1.5
G1 Y0.2509
G2 X42.873 Y-1.3366 I-1.5875 J0.0
G1 X15.4966
G1 F1000.0 Z-1.6
G1 F2000.0 X0.0203
G2 X-1.5672 Y0.2509 I0.0 J1.5875
G1 Y26.874
G1 Y27.874 Z-1.2
G1 Y31.049
G1 Y32.049 Z-1.6
G1 Y116.2478
G1 Y117.2478 Z-1.2
G1 Y120.4228
G1 Y121.4228 Z-1.6
G1 Y128.4077
G2 X0.0203 Y129.9952 I1.5875 J0.0
G1 X42.873
G2 X44.4605 Y128.4077 I0.0 J-1.5875
G1 Y94.0464
G1 Y93.0464 Z-1.2
G1 Y89.8714
G1 Y88.8714 Z-1.6
G1 Y10.9813
G1 Y9.9813 Z-1.2
G1 Y6.8063
G1 Y5.8063 Z-1.6
G1 Y0.2509
G2 X42.873 Y-1.3366 I-1.5875 J0.0
G1 X15.4966
G1 F1000.0 Z-1.7
G1 F2000.0 X0.0203
G2 X-1.5672 Y0.2509 I0.0 J1.5875
G1 Y26.874
G1 Y27.874 Z-1.2
G1 Y31.049
G1 Y32.049 Z-1.7
G1 Y116.2478
G1 Y117.2478 Z-1.2
G1 Y120.4228
G1 Y121.4228 Z-1.7
G1 Y128.4077
G2 X0.0203 Y129.9952 I1.5875 J0.0
G1 X42.873
G2 X44.4605 Y128.4077 I0.0 J-1.5875
G1 Y94.0464
G1 Y93.0464 Z-1.2
G1 Y89.8714
G1 Y88.8714 Z-1.7
G1 Y10.9813
G1 Y9.9813 Z-1.2
G1 Y6.8063
G1 Y5.8063 Z-1.7
G1 Y0.2509
G2 X42.873 Y-1.3366 I-1.5875 J0.0
G1 X15.4966
G1 F1000.0 Z-1.8
G1 F2000.0 X0.0203
G2 X-1.5672 Y0.2509 I0.0 J1.5875
G1 Y26.874
G1 Y27.874 Z-1.2
G1 Y31.049
G1 Y32.049 Z-1.8
G1 Y116.2478
G1 Y117.2478 Z-1.2
G1 Y120.4228
G1 Y121.4228 Z-1.8
G1 Y128.4077
G2 X0.0203 Y129.9952 I1.5875 J0.0
G1 X42.873
G2 X44.4605 Y128.4077 I0.0 J-1.5875
G1 Y94.0464
G1 Y93.0464 Z-1.2
G1 Y89.8714
G1 Y88.8714 Z-1.8
G1 Y10.9813
G1 Y9.9813 Z-1.2
G1 Y6.8063
G1 Y5.8063 Z-1.8
G1 Y0.2509
G2 X42.873 Y-1.3366 I-1.5875 J0.0
G1 X15.4966
G1 F1000.0 Z-1.9
G1 F2000.0 X0.0203
G2 X-1.5672 Y0.2509 I0.0 J1.5875
G1 Y26.874
G1 Y27.874 Z-1.2
G1 Y31.049
G1 Y32.049 Z-1.9
G1 Y116.2478
G1 Y117.2478 Z-1.2
G1 Y120.4228
G1 Y121.4228 Z-1.9
G1 Y128.4077
G2 X0.0203 Y129.9952 I1.5875 J0.0
G1 X42.873
G2 X44.4605 Y128.4077 I0.0 J-1.5875
G1 Y94.0464
G1 Y93.0464 Z-1.2
G1 Y89.8714
G1 Y88.8714 Z-1.9
G1 Y10.9813
G1 Y9.9813 Z-1.2
G1 Y6.8063
G1 Y5.8063 Z-1.9
G1 Y0.2509
G2 X42.873 Y-1.3366 I-1.5875 J0.0
G1 X15.4966
G1 F1000.0 Z-2.0
G1 F2000.0 X0.0203
G2 X-1.5672 Y0.2509 I0.0 J1.5875
G1 Y26.874
G1 Y27.874 Z-1.2
G1 Y31.049
G1 Y32.049 Z-2.0
G1 Y116.2478
G1 Y117.2478 Z-1.2
G1 Y120.4228
G1 Y121.4228 Z-2.0
G1 Y128.4077
G2 X0.0203 Y129.9952 I1.5875 J0.0
G1 X42.873
G2 X44.4605 Y128.4077 I0.0 J-1.5875
G1 Y94.0464
G1 Y93.0464 Z-1.2
G1 Y89.8714
G1 Y88.8714 Z-2.0
G1 Y10.9813
G1 Y9.9813 Z-1.2
G1 Y6.8063
G1 Y5.8063 Z-2.0
G1 Y0.2509
G2 X42.873 Y-1.3366 I-1.5875 J0.0
G1 X15.4966
G1 F1000.0 Z-2.1
G1 F2000.0 X0.0203
G2 X-1.5672 Y0.2509 I0.0 J1.5875
G1 Y26.874
G1 Y27.874 Z-1.2
G1 Y31.049
G1 Y32.049 Z-2.1
G1 Y116.2478
G1 Y117.2478 Z-1.2
G1 Y120.4228
G1 Y121.4228 Z-2.1
G1 Y128.4077
G2 X0.0203 Y129.9952 I1.5875 J0.0
G1 X42.873
G2 X44.4605 Y128.4077 I0.0 J-1.5875
G1 Y94.0464
G1 Y93.0464 Z-1.2
G1 Y89.8714
G1 Y88.8714 Z-2.1
G1 Y10.9813
G1 Y9.9813 Z-1.2
G1 Y6.8063
G1 Y5.8063 Z-2.1
G1 Y0.2509
G2 X42.873 Y-1.3366 I-1.5875 J0.0
G1 X15.4966
G1 F1000.0 Z-2.2
G1 F2000.0 X0.0203
G2 X-1.5672 Y0.2509 I0.0 J1.5875
G1 Y26.874
G1 Y27.874 Z-1.2
G1 Y31.049
G1 Y32.049 Z-2.2
G1 Y116.2478
G1 Y117.2478 Z-1.2
G1 Y120.4228
G1 Y121.4228 Z-2.2
G1 Y128.4077
G2 X0.0203 Y129.9952 I1.5875 J0.0
G1 X42.873
G2 X44.4605 Y128.4077 I0.0 J-1.5875
G1 Y94.0464
G1 Y93.0464 Z-1.2
G1 Y89.8714
G1 Y88.8714 Z-2.2
G1 Y10.9813
G1 Y9.9813 Z-1.2
G1 Y6.8063
G1 Y5.8063 Z-2.2
G1 Y0.2509
G2 X42.873 Y-1.3366 I-1.5875 J0.0
G1 X15.4966
G1 F1000.0 Z-2.3
G1 F2000.0 X0.0203
G2 X-1.5672 Y0.2509 I0.0 J1.5875
G1 Y26.874
G1 Y27.874 Z-1.2
G1 Y31.049
G1 Y32.049 Z-2.3
G1 Y116.2478
G1 Y117.2478 Z-1.2
G1 Y120.4228
G1 Y121.4228 Z-2.3
G1 Y128.4077
G2 X0.0203 Y129.9952 I1.5875 J0.0
G1 X42.873
G2 X44.4605 Y128.4077 I0.0 J-1.5875
G1 Y94.0464
G1 Y93.0464 Z-1.2
G1 Y89.8714
G1 Y88.8714 Z-2.3
G1 Y10.9813
G1 Y9.9813 Z-1.2
G1 Y6.8063
G1 Y5.8063 Z-2.3
G1 Y0.2509
G2 X42.873 Y-1.3366 I-1.5875 J0.0
G1 X15.4966
G1 F1000.0 Z-2.4
G1 F2000.0 X0.0203
G2 X-1.5672 Y0.2509 I0.0 J1.5875
G1 Y26.874
G1 Y27.874 Z-1.2
G1 Y31.049
G1 Y32.049 Z-2.4
G1 Y116.2478
G1 Y117.2478 Z-1.2
G1 Y120.4228
G1 Y121.4228 Z-2.4
G1 Y128.4077
G2 X0.0203 Y129.9952 I1.5875 J0.0
G1 X42.873
G2 X44.4605 Y128.4077 I0.0 J-1.5875
G1 Y94.0464
G1 Y93.0464 Z-1.2
G1 Y89.8714
G1 Y88.8714 Z-2.4
G1 Y10.9813
G1 Y9.9813 Z-1.2
G1 Y6.8063
G1 Y5.8063 Z-2.4
G1 Y0.2509
G2 X42.873 Y-1.3366 I-1.5875 J0.0
G1 X15.4966
G1 F1000.0 Z-2.5
G1 F2000.0 X0.0203
G2 X-1.5672 Y0.2509 I0.0 J1.5875
G1 Y26.874
G1 Y27.874 Z-1.2
G1 Y31.049
G1 Y32.049 Z-2.5
G1 Y116.2478
G1 Y117.2478 Z-1.2
G1 Y120.4228
G1 Y121.4228 Z-2.5
G1 Y128.4077
G2 X0.0203 Y129.9952 I1.5875 J0.0
G1 X42.873
G2 X44.4605 Y128.4077 I0.0 J-1.5875
G1 Y94.0464
G1 Y93.0464 Z-1.2
G1 Y89.8714
G1 Y88.8714 Z-2.5
G1 Y10.9813
G1 Y9.9813 Z-1.2
G1 Y6.8063
G1 Y5.8063 Z-2.5
G1 Y0.2509
G2 X42.873 Y-1.3366 I-1.5875 J0.0
G1 X15.4966
G1 F1000.0 Z-2.6
G1 F2000.0 X0.0203
G2 X-1.5672 Y0.2509 I0.0 J1.5875
G1 Y26.874
G1 Y27.874 Z-1.2
G1 Y31.049
G1 Y32.049 Z-2.6
G1 Y116.2478
G1 Y117.2478 Z-1.2
G1 Y120.4228
G1 Y121.4228 Z-2.6
G1 Y128.4077
G2 X0.0203 Y129.9952 I1.5875 J0.0
G1 X42.873
G2 X44.4605 Y128.4077 I0.0 J-1.5875
G1 Y94.0464
G1 Y93.0464 Z-1.2
G1 Y89.8714
G1 Y88.8714 Z-2.6
G1 Y10.9813
G1 Y9.9813 Z-1.2
G1 Y6.8063
G1 Y5.8063 Z-2.6
G1 Y0.2509
G2 X42.873 Y-1.3366 I-1.5875 J0.0
G1 X15.4966
G1 F1000.0 Z-2.7
G1 F2000.0 X0.0203
G2 X-1.5672 Y0.2509 I0.0 J1.5875
G1 Y26.874
G1 Y27.874 Z-1.2
G1 Y31.049
G1 Y32.049 Z-2.7
G1 Y116.2478
G1 Y117.2478 Z-1.2
G1 Y120.4228
G1 Y121.4228 Z-2.7
G1 Y128.4077
G2 X0.0203 Y129.9952 I1.5875 J0.0
G1 X42.873
G2 X44.4605 Y128.4077 I0.0 J-1.5875
G1 Y94.0464
G1 Y93.0464 Z-1.2
G1 Y89.8714
G1 Y88.8714 Z-2.7
G1 Y10.9813
G1 Y9.9813 Z-1.2
G1 Y6.8063
G1 Y5.8063 Z-2.7
G1 Y0.2509
G2 X42.873 Y-1.3366 I-1.5875 J0.0
G1 X15.4966
G1 F1000.0 Z-2.8
G1 F2000.0 X0.0203
G2 X-1.5672 Y0.2509 I0.0 J1.5875
G1 Y26.874
G1 Y27.874 Z-1.2
G1 Y31.049
G1 Y32.049 Z-2.8
G1 Y116.2478
G1 Y117.2478 Z-1.2
G1 Y120.4228
G1 Y121.4228 Z-2.8
G1 Y128.4077
G2 X0.0203 Y129.9952 I1.5875 J0.0
G1 X42.873
G2 X44.4605 Y128.4077 I0.0 J-1.5875
G1 Y94.0464
G1 Y93.0464 Z-1.2
G1 Y89.8714
G1 Y88.8714 Z-2.8
G1 Y10.9813
G1 Y9.9813 Z-1.2
G1 Y6.8063
G1 Y5.8063 Z-2.8
G1 Y0.2509
G2 X42.873 Y-1.3366 I-1.5875 J0.0
G1 X15.4966
G1 F1000.0 Z-2.9
G1 F2000.0 X0.0203
G2 X-1.5672 Y0.2509 I0.0 J1.5875
G1 Y26.874
G1 Y27.874 Z-1.2
G1 Y31.049
G1 Y32.049 Z-2.9
G1 Y116.2478
G1 Y117.2478 Z-1.2
G1 Y120.4228
G1 Y121.4228 Z-2.9
G1 Y128.4077
G2 X0.0203 Y129.9952 I1.5875 J0.0
G1 X42.873
G2 X44.4605 Y128.4077 I0.0 J-1.5875
G1 Y94.0464
G1 Y93.0464 Z-1.2
G1 Y89.8714
G1 Y88.8714 Z-2.9
G1 Y10.9813
G1 Y9.9813 Z-1.2
G1 Y6.8063
G1 Y5.8063 Z-2.9
G1 Y0.2509
G2 X42.873 Y-1.3366 I-1.5875 J0.0
G1 X15.4966
G1 F1000.0 Z-3.0
G1 F2000.0 X0.0203
G2 X-1.5672 Y0.2509 I0.0 J1.5875
G1 Y26.874
G1 Y27.874 Z-1.2
G1 Y31.049
G1 Y32.049 Z-3.0
G1 Y116.2478
G1 Y117.2478 Z-1.2
G1 Y120.4228
G1 Y121.4228 Z-3.0
G1 Y128.4077
G2 X0.0203 Y129.9952 I1.5875 J0.0
G1 X42.873
G2 X44.4605 Y128.4077 I0.0 J-1.5875
G1 Y94.0464
G1 Y93.0464 Z-1.2
G1 Y89.8714
G1 Y88.8714 Z-3.0
G1 Y10.9813
G1 Y9.9813 Z-1.2
G1 Y6.8063
G1 Y5.8063 Z-3.0
G1 Y0.2509
G2 X42.873 Y-1.3366 I-1.5875 J0.0
G1 X15.4966
G1 F1000.0 Z-3.1
G1 F2000.0 X0.0203
G2 X-1.5672 Y0.2509 I0.0 J1.5875
G1 Y26.874
G1 Y27.874 Z-1.2
G1 Y31.049
G1 Y32.049 Z-3.1
G1 Y116.2478
G1 Y117.2478 Z-1.2
G1 Y120.4228
G1 Y121.4228 Z-3.1
G1 Y128.4077
G2 X0.0203 Y129.9952 I1.5875 J0.0
G1 X42.873
G2 X44.4605 Y128.4077 I0.0 J-1.5875
G1 Y94.0464
G1 Y93.0464 Z-1.2
G1 Y89.8714
G1 Y88.8714 Z-3.1
G1 Y10.9813
G1 Y9.9813 Z-1.2
G1 Y6.8063
G1 Y5.8063 Z-3.1
G1 Y0.2509
G2 X42.873 Y-1.3366 I-1.5875 J0.0
G1 X15.4966
G1 F1000.0 Z-3.2
G1 F2000.0 X0.0203
G2 X-1.5672 Y0.2509 I0.0 J1.5875
G1 Y26.874
G1 Y27.874 Z-1.2
G1 Y31.049
G1 Y32.049 Z-3.2
G1 Y116.2478
G1 Y117.2478 Z-1.2
G1 Y120.4228
G1 Y121.4228 Z-3.2
G1 Y128.4077
G2 X0.0203 Y129.9952 I1.5875 J0.0
G1 X42.873
G2 X44.4605 Y128.4077 I0.0 J-1.5875
G1 Y94.0464
G1 Y93.0464 Z-1.2
G1 Y89.8714
G1 Y88.8714 Z-3.2
G1 Y10.9813
G1 Y9.9813 Z-1.2
G1 Y6.8063
G1 Y5.8063 Z-3.2
G1 Y0.2509
G2 X42.873 Y-1.3366 I-1.5875 J0.0
G1 X15.4966
G0 Z3.0
M5
M30
